public/kits/editing-mini-guide/luts/cinematic-v1-log-23.cube
LUT_3D_SIZE 16
0.019219 0.017310 0.014367
0.023206 0.018012 0.015582
0.047348 0.022266 0.025422
0.129689 0.024835 0.043575
0.243547 0.026885 0.071116
0.370435 0.037841 0.107817
0.486600 0.052439 0.141680
0.585124 0.070999 0.181879
0.623358 0.101048 0.223759
0.624660 0.106529 0.241829
0.626224 0.113831 0.256585
0.627814 0.120525 0.267997
0.629522 0.127179 0.277019
0.631303 0.134284 0.284502
0.633011 0.141260 0.290392
0.634796 0.147852 0.294951
0.021215 0.023344 0.015409
0.024136 0.023478 0.015379
0.045628 0.025032 0.025079
0.127786 0.028882 0.043349
0.241369 0.031831 0.070989
0.368451 0.042789 0.107511
0.484787 0.057694 0.141461
0.585312 0.075432 0.181218
0.625998 0.106357 0.223867
0.627390 0.111573 0.242634
0.629148 0.118746 0.257474
0.630753 0.125326 0.269216
0.632464 0.131974 0.278318
0.634279 0.139142 0.285878
0.636069 0.146099 0.291803
0.637767 0.152657 0.296406
0.030309 0.046608 0.024757
0.031536 0.046687 0.024453
0.045824 0.048404 0.025260
0.130974 0.048572 0.042683
0.243342 0.043711 0.071211
0.366281 0.047700 0.106548
0.482506 0.062813 0.140590
0.584394 0.080020 0.180187
0.628726 0.111721 0.223878
0.629840 0.116770 0.243069
0.631858 0.123644 0.257983
0.633714 0.130224 0.269916
0.635444 0.136769 0.279353
0.637170 0.143930 0.286933
0.639008 0.150947 0.292987
0.640795 0.157522 0.297607
0.050423 0.094900 0.044162
0.051261 0.094947 0.043627
0.052073 0.094893 0.043049
0.117314 0.108113 0.034611
0.260699 0.124566 0.070250
0.386174 0.114434 0.109975
0.485837 0.087853 0.140811
0.584111 0.088988 0.177926
0.631592 0.117146 0.222317
0.632574 0.122066 0.242016
0.634411 0.128665 0.257109
0.636525 0.135197 0.269249
0.638493 0.141707 0.278878
0.640260 0.148777 0.286790
0.642121 0.155824 0.293102
0.643993 0.162428 0.297949
0.092112 0.167168 0.077228
0.092626 0.167843 0.076483
0.093204 0.168442 0.075616
0.093280 0.168103 0.074304
0.215788 0.198596 0.047603
0.378447 0.223272 0.083551
0.504743 0.222313 0.138627
0.608673 0.213103 0.180164
0.672858 0.198468 0.223096
0.653229 0.160559 0.243079
0.646457 0.151550 0.256151
0.644114 0.149745 0.267693
0.642784 0.149445 0.276539
0.643694 0.153973 0.284194
0.645534 0.160980 0.290675
0.647505 0.167610 0.296052
0.143417 0.250332 0.126913
0.143457 0.251048 0.126367
0.143508 0.251753 0.125846
0.143348 0.251956 0.124986
0.141476 0.248952 0.122242
0.315437 0.296681 0.066961
0.462855 0.313594 0.072434
0.589911 0.320799 0.148224
0.694612 0.323061 0.198767
0.723641 0.309226 0.233804
0.727204 0.293612 0.253309
0.726656 0.280134 0.267573
0.723115 0.266947 0.277231
0.719401 0.256393 0.283894
0.719632 0.252571 0.290058
0.717741 0.247719 0.294955
0.185110 0.324350 0.162051
0.184996 0.324226 0.161920
0.184881 0.324239 0.161728
0.184614 0.324028 0.161476
0.183714 0.322337 0.160537
0.202934 0.329010 0.157353
0.402751 0.376103 0.080526
0.536392 0.391820 0.064798
0.662225 0.402571 0.148469
0.730663 0.403928 0.205070
0.739726 0.395889 0.231955
0.747856 0.389163 0.249298
0.755667 0.383642 0.261427
0.763226 0.380203 0.269534
0.770422 0.377481 0.274895
0.777374 0.373157 0.278778
0.220733 0.384229 0.196431
0.222254 0.384845 0.196798
0.223460 0.385476 0.197063
0.224526 0.385840 0.197196
0.224786 0.384638 0.196501
0.224248 0.382473 0.195131
0.277876 0.394459 0.188633
0.472688 0.441757 0.090917
0.603692 0.461394 0.067138
0.716417 0.474940 0.143297
0.739717 0.473594 0.194217
0.749294 0.469825 0.216706
0.757960 0.466339 0.231811
0.766080 0.464372 0.241625
0.773505 0.462992 0.248052
0.780288 0.460277 0.252538
0.249634 0.429817 0.226854
0.251019 0.429832 0.226964
0.252430 0.430154 0.227155
0.253879 0.430507 0.227354
0.254762 0.430042 0.226884
0.255543 0.429305 0.226053
0.257380 0.427902 0.225152
0.347489 0.437678 0.202213
0.533409 0.493316 0.101625
0.667482 0.526474 0.070443
0.731028 0.538418 0.109674
0.743068 0.538547 0.157536
0.752130 0.537964 0.184320
0.760815 0.537000 0.198717
0.768789 0.535908 0.207645
0.776164 0.533189 0.214558
0.263027 0.448399 0.246458
0.264120 0.448844 0.246163
0.265301 0.449218 0.245957
0.266599 0.449549 0.245890
0.267605 0.449500 0.245544
0.268385 0.449242 0.245055
0.268969 0.448789 0.244245
0.277034 0.449616 0.244617
0.402806 0.467946 0.209815
0.589713 0.547103 0.112163
0.704012 0.589011 0.080940
0.733973 0.594715 0.077837
0.741153 0.593008 0.081686
0.750107 0.596047 0.108558
0.758786 0.597283 0.122965
0.766905 0.596463 0.136777
0.270931 0.462176 0.258916
0.272135 0.462567 0.259165
0.273374 0.462994 0.259396
0.274573 0.463430 0.259596
0.275670 0.463744 0.259383
0.276711 0.463891 0.259080
0.277650 0.463716 0.258489
0.280603 0.464602 0.258801
0.309661 0.469842 0.258864
0.477599 0.510209 0.205935
0.640377 0.592128 0.122936
0.712992 0.627621 0.106318
0.728914 0.633119 0.103163
0.736537 0.634775 0.100858
0.744032 0.635987 0.098949
0.751893 0.636219 0.095978
0.272993 0.469694 0.262917
0.274211 0.470251 0.263437
0.275450 0.470848 0.263915
0.276729 0.471363 0.264366
0.278054 0.471899 0.264916
0.279388 0.472635 0.265433
0.280697 0.473154 0.265831
0.283912 0.474492 0.267012
0.287649 0.475729 0.268238
0.404346 0.499985 0.261230
0.556193 0.560935 0.189118
0.668061 0.622985 0.149784
0.700283 0.643601 0.164458
0.707764 0.647271 0.164970
0.714000 0.649845 0.162462
0.721884 0.652298 0.156845
0.273431 0.471908 0.264338
0.274653 0.472693 0.264652
0.275894 0.473270 0.265123
0.277117 0.473861 0.265629
0.278407 0.474446 0.266163
0.279737 0.475132 0.266698
0.281069 0.475704 0.267221
0.284121 0.477132 0.268414
0.287903 0.478775 0.269911
0.341612 0.491298 0.269828
0.500985 0.534403 0.229016
0.627770 0.603559 0.165379
0.680309 0.636239 0.179519
0.694905 0.648196 0.202542
0.699028 0.650874 0.206773
0.702167 0.652822 0.208861
0.273683 0.474267 0.266349
0.274832 0.475427 0.266220
0.276033 0.476107 0.266556
0.277268 0.476680 0.267065
0.278558 0.477365 0.267615
0.279856 0.477968 0.268123
0.281157 0.478688 0.268649
0.283917 0.479951 0.269723
0.287422 0.481382 0.271065
0.318068 0.490159 0.273833
0.468556 0.521872 0.249487
0.595172 0.587557 0.181394
0.667480 0.628761 0.178107
0.684135 0.642268 0.208995
0.697274 0.653576 0.220356
0.700574 0.655521 0.223254
0.273932 0.476673 0.268360
0.275061 0.477738 0.268254
0.276188 0.478875 0.268127
0.277396 0.479532 0.268484
0.278672 0.480137 0.268990
0.279958 0.480843 0.269546
0.281273 0.481553 0.270087
0.283988 0.482789 0.271122
0.287181 0.484167 0.272385
0.309973 0.492564 0.277347
0.446810 0.518446 0.260488
0.570672 0.575551 0.197870
0.653259 0.621505 0.180294
0.676100 0.637796 0.211680
0.689582 0.650241 0.231621
0.699431 0.658339 0.236673
0.274150 0.478964 0.270265
0.275264 0.479970 0.270160
0.276412 0.481106 0.270040
0.277550 0.482155 0.269962
0.278795 0.482914 0.270350
0.280079 0.483580 0.270883
0.281364 0.484346 0.271430
0.283983 0.485478 0.272467
0.287155 0.486860 0.273665
0.299477 0.492352 0.277994
0.425438 0.516553 0.267936
0.545487 0.563091 0.216003
0.637769 0.614239 0.181924
0.669543 0.634556 0.213967
0.679610 0.644073 0.242111
0.695314 0.658529 0.249166
0.023208 0.020742 0.020419
0.025145 0.020956 0.020984
0.047745 0.024783 0.030539
0.128022 0.026342 0.048344
0.243476 0.027455 0.076666
0.368753 0.037547 0.112854
0.485155 0.052096 0.147500
0.584406 0.070295 0.188139
0.622625 0.100943 0.229386
0.624256 0.106949 0.247578
0.625687 0.114020 0.262035
0.627225 0.120528 0.273144
0.628959 0.127163 0.282162
0.630474 0.134052 0.288993
0.632076 0.140938 0.294605
0.633874 0.147526 0.299177
0.023971 0.024696 0.021009
0.025089 0.025172 0.021821
0.045615 0.027761 0.030242
0.124730 0.030421 0.048079
0.239084 0.032484 0.075920
0.363192 0.042377 0.111477
0.479529 0.057180 0.145836
0.581184 0.074002 0.185111
0.625536 0.106714 0.228502
0.627216 0.112320 0.247623
0.628967 0.119367 0.262388
0.630542 0.125809 0.273826
0.632252 0.132465 0.282860
0.633877 0.139467 0.290096
0.635590 0.146362 0.295733
0.637318 0.152957 0.300311
0.031471 0.046730 0.027761
0.031720 0.046861 0.028061
0.045169 0.048791 0.029532
0.130559 0.052833 0.048383
0.242817 0.046565 0.076287
0.362868 0.047281 0.110529
0.479791 0.062383 0.144957
0.582392 0.079352 0.184239
0.628167 0.111788 0.227928
0.629560 0.117092 0.247224
0.631513 0.123971 0.262049
0.633386 0.130335 0.273810
0.635137 0.136942 0.283011
0.636823 0.144015 0.290264
0.638639 0.150974 0.295731
0.640370 0.157559 0.300207
0.051293 0.094596 0.047152
0.051341 0.094487 0.047234
0.052047 0.094480 0.046742
0.116576 0.107126 0.039028
0.260722 0.120204 0.077623
0.386724 0.120475 0.116629
0.491901 0.112870 0.149282
0.584595 0.100958 0.183637
0.631959 0.119923 0.226138
0.632231 0.122199 0.245674
0.634169 0.128866 0.260618
0.636203 0.135238 0.272472
0.638237 0.141761 0.281936
0.639957 0.148823 0.289616
0.641767 0.155789 0.295486
0.643613 0.162406 0.300154
0.091846 0.166474 0.079060
0.091946 0.166771 0.078503
0.092408 0.167353 0.077747
0.092434 0.166998 0.076625
0.216725 0.198564 0.051078
0.380854 0.216111 0.094767
0.506258 0.211420 0.149599
0.609770 0.216785 0.187937
0.682674 0.220118 0.228343
0.679350 0.204240 0.251557
0.668005 0.186279 0.265712
0.651047 0.162557 0.273604
0.647078 0.158208 0.281582
0.647767 0.162439 0.289129
0.648691 0.167379 0.295181
0.649643 0.171940 0.299955
0.142644 0.249093 0.127781
0.142506 0.249299 0.127471
0.142556 0.249930 0.126996
0.142357 0.250084 0.126080
0.140527 0.247666 0.123438
0.317094 0.295895 0.069910
0.466344 0.307324 0.082452
0.593898 0.307622 0.162928
0.696725 0.303853 0.211955
0.723525 0.299090 0.243318
0.729956 0.297322 0.260631
0.734570 0.296187 0.273248
0.738512 0.294167 0.282857
0.742857 0.292062 0.290250
0.746694 0.290398 0.295765
0.749186 0.288027 0.300343
0.184835 0.323372 0.163251
0.184603 0.322823 0.162974
0.184512 0.322836 0.162769
0.184082 0.322604 0.162421
0.182847 0.320714 0.161394
0.203890 0.328914 0.158329
0.404985 0.375270 0.082361
0.541094 0.387056 0.080750
0.668025 0.391166 0.165460
0.730545 0.383563 0.222035
0.739079 0.371689 0.248281
0.747066 0.364654 0.263864
0.754890 0.360563 0.275114
0.762935 0.358562 0.282775
0.770472 0.357738 0.287992
0.777405 0.356039 0.291657
0.219371 0.382714 0.197491
0.220650 0.382883 0.197739
0.221715 0.383337 0.197975
0.222720 0.383772 0.198051
0.223176 0.382885 0.197459
0.222612 0.380551 0.196020
0.281617 0.395444 0.189623
0.476166 0.441439 0.091702
0.608404 0.456544 0.076729
0.720065 0.465686 0.164500
0.741306 0.457189 0.213074
0.750618 0.448769 0.236065
0.758774 0.442665 0.251238
0.766500 0.439181 0.260942
0.773876 0.436906 0.267151
0.780646 0.433803 0.271401
0.248173 0.428990 0.228158
0.249466 0.428769 0.228206
0.250857 0.429059 0.228419
0.252278 0.429268 0.228615
0.253410 0.428785 0.228240
0.254200 0.428129 0.227442
0.256122 0.426602 0.226526
0.352366 0.439305 0.202456
0.537974 0.494017 0.102068
0.671185 0.523079 0.075323
0.733665 0.529441 0.130269
0.744769 0.528809 0.180991
0.754717 0.525020 0.204799
0.763655 0.522150 0.218697
0.772137 0.519838 0.227552
0.779663 0.516042 0.234275
0.261788 0.447267 0.248345
0.262806 0.447599 0.248201
0.264020 0.447898 0.248052
0.265264 0.448172 0.247965
0.266300 0.448281 0.247600
0.267204 0.448059 0.247075
0.267757 0.447553 0.246180
0.276008 0.448363 0.246160
0.409970 0.470673 0.210771
0.595173 0.548718 0.112302
0.706899 0.585999 0.085398
0.734472 0.588142 0.083228
0.743765 0.588655 0.108647
0.753021 0.589422 0.128446
0.761368 0.588364 0.141683
0.769810 0.586790 0.163087
0.269859 0.461609 0.260815
0.271026 0.461715 0.261145
0.272156 0.462079 0.261388
0.273334 0.462598 0.261550
0.274432 0.462776 0.261429
0.275482 0.462793 0.261132
0.276418 0.462696 0.260473
0.278560 0.463156 0.260200
0.317852 0.471778 0.262439
0.486536 0.515593 0.205278
0.645404 0.594175 0.123678
0.716089 0.626822 0.108220
0.731963 0.630988 0.103879
0.739884 0.631669 0.101360
0.747627 0.632288 0.099217
0.755346 0.631767 0.096694
0.271939 0.469275 0.265180
0.273165 0.469894 0.265742
0.274331 0.470385 0.266190
0.275589 0.470888 0.266669
0.276844 0.471414 0.267125
0.278150 0.472057 0.267611
0.279455 0.472623 0.268005
0.281828 0.473453 0.268810
0.287693 0.475846 0.270873
0.414378 0.503012 0.263844
0.565859 0.566710 0.188721
0.672087 0.624555 0.152151
0.704151 0.643740 0.163082
0.712099 0.646985 0.161097
0.719534 0.649675 0.157060
0.727592 0.652058 0.151315
0.272387 0.471586 0.266615
0.273632 0.472284 0.267129
0.274782 0.472872 0.267547
0.275999 0.473348 0.268001
0.277247 0.473987 0.268414
0.278557 0.474510 0.268921
0.279859 0.475307 0.269425
0.282117 0.476275 0.270341
0.285505 0.477686 0.271680
0.365029 0.503287 0.280966
0.510322 0.540469 0.229602
0.634996 0.608225 0.169213
0.682232 0.638501 0.188862
0.696448 0.649693 0.208846
0.700421 0.652083 0.212345
0.704089 0.653956 0.213434
0.272640 0.474076 0.268763
0.273879 0.474936 0.268985
0.275010 0.475571 0.269346
0.276239 0.476052 0.269815
0.277467 0.476883 0.270034
0.278730 0.477540 0.270472
0.280067 0.478256 0.270978
0.281966 0.479107 0.271753
0.285082 0.480394 0.272974
0.319338 0.490592 0.276954
0.478354 0.527753 0.251698
0.604460 0.593334 0.183017
0.668998 0.630934 0.190050
0.689832 0.648570 0.213981
0.701350 0.658242 0.223504
0.704139 0.659840 0.226312
0.272873 0.476518 0.270783
0.274107 0.477267 0.270995
0.275191 0.478193 0.270921
0.276356 0.479011 0.271264
0.277587 0.479672 0.271487
0.278876 0.480392 0.271884
0.280164 0.481096 0.272432
0.282078 0.481927 0.273152
0.284866 0.483140 0.274283
0.310487 0.492858 0.280100
0.456416 0.523337 0.263920
0.580104 0.581642 0.198380
0.657292 0.625071 0.188714
0.681669 0.644445 0.219554
0.697662 0.658766 0.235558
0.703548 0.663189 0.239173
0.273112 0.478694 0.272674
0.274340 0.479530 0.272913
0.275407 0.480486 0.272815
0.276514 0.481538 0.272708
0.277727 0.482393 0.272819
0.278980 0.483076 0.273247
0.280240 0.483867 0.273762
0.282104 0.484643 0.274501
0.284846 0.485841 0.275566
0.298654 0.492070 0.280460
0.436179 0.521334 0.272656
0.555698 0.569472 0.216495
0.643127 0.618182 0.190251
0.673796 0.639727 0.224503
0.687979 0.652984 0.246607
0.702306 0.666084 0.252712
0.040500 0.035963 0.049120
0.041905 0.036400 0.050149
0.054607 0.038538 0.056943
0.125353 0.031181 0.066319
0.243998 0.028675 0.089517
0.366581 0.037621 0.121573
0.483699 0.051117 0.156505
0.583375 0.069941 0.196594
0.621981 0.101026 0.236982
0.623597 0.107434 0.254861
0.624730 0.114110 0.268631
0.625959 0.120584 0.279712
0.627406 0.126935 0.288002
0.628965 0.133759 0.294498
0.630931 0.140570 0.299786
0.632816 0.147144 0.304138
0.040086 0.037315 0.048243
0.040870 0.037725 0.049049
0.052349 0.040473 0.055190
0.118017 0.034994 0.064361
0.235223 0.033161 0.084819
0.353518 0.041301 0.115573
0.467533 0.055089 0.149107
0.569647 0.070513 0.186138
0.622797 0.103425 0.229613
0.626939 0.112517 0.250596
0.628684 0.119357 0.265054
0.630326 0.125813 0.276254
0.631933 0.132389 0.285095
0.633436 0.139311 0.292140
0.635152 0.146199 0.297777
0.636890 0.152796 0.302287
0.042783 0.052542 0.050849
0.042954 0.052635 0.051183
0.049268 0.054904 0.055424
0.124064 0.057750 0.066287
0.243954 0.051750 0.088589
0.362876 0.054819 0.120240
0.476445 0.061533 0.153222
0.579753 0.078799 0.192079
0.626912 0.111221 0.235022
0.629106 0.117831 0.254908
0.630940 0.124443 0.269434
0.632510 0.130858 0.281106
0.634025 0.137249 0.289833
0.635747 0.144163 0.296634
0.637744 0.151100 0.301738
0.639610 0.157718 0.306019
0.053512 0.093758 0.054670
0.053512 0.093748 0.054857
0.054002 0.093822 0.056097
0.109484 0.106724 0.057001
0.261927 0.126879 0.093392
0.389743 0.133615 0.129709
0.495479 0.126738 0.160980
0.587546 0.114783 0.193953
0.637451 0.133961 0.235247
0.634814 0.129165 0.253829
0.636140 0.134532 0.268424
0.637316 0.139362 0.280002
0.637559 0.142245 0.288551
0.639031 0.148770 0.295433
0.640996 0.155741 0.300670
0.642788 0.162392 0.305158
0.091843 0.165482 0.081241
0.091850 0.165906 0.080658
0.091740 0.166388 0.080230
0.091676 0.165993 0.079151
0.216702 0.199519 0.057102
0.383981 0.218714 0.112786
0.507009 0.220971 0.161415
0.610121 0.231800 0.197381
0.686534 0.230918 0.236902
0.683287 0.211980 0.260988
0.673448 0.195576 0.275348
0.658156 0.175811 0.283760
0.651634 0.167801 0.290543
0.651681 0.170831 0.297591
0.652622 0.174800 0.303284
0.653217 0.178759 0.307753
0.141724 0.247626 0.128522
0.141648 0.247891 0.128246
0.141718 0.248385 0.128095
0.141475 0.248457 0.127187
0.139635 0.246070 0.124535
0.317095 0.296374 0.073989
0.469702 0.309730 0.107468
0.594355 0.310264 0.174893
0.697682 0.311243 0.221699
0.726388 0.315305 0.251581
0.733914 0.314218 0.268829
0.739617 0.309885 0.281882
0.742888 0.305688 0.291630
0.747001 0.302395 0.298886
0.751123 0.299772 0.304471
0.753881 0.296552 0.308714
0.184347 0.322228 0.164463
0.184151 0.321808 0.164090
0.184219 0.321802 0.163841
0.183783 0.321500 0.163502
0.182543 0.319557 0.162451
0.203992 0.329002 0.159619
0.404907 0.375729 0.086432
0.542516 0.388157 0.094208
0.668775 0.392220 0.178724
0.731756 0.385988 0.233462
0.740506 0.376873 0.257678
0.748545 0.372989 0.272476
0.756563 0.372637 0.282910
0.764359 0.373654 0.290047
0.772101 0.374118 0.295001
0.779084 0.373008 0.298565
0.218313 0.381435 0.198632
0.219715 0.381710 0.198868
0.220406 0.381788 0.198961
0.221313 0.382070 0.198993
0.221786 0.381170 0.198401
0.221442 0.379017 0.197148
0.282058 0.395934 0.191724
0.476175 0.441806 0.095480
0.609226 0.458251 0.087549
0.721398 0.467221 0.178259
0.742694 0.458255 0.225355
0.751863 0.450207 0.247735
0.759845 0.444841 0.262135
0.767652 0.441957 0.271456
0.774968 0.440092 0.277567
0.781808 0.437297 0.281918
0.246593 0.428185 0.229370
0.248012 0.427904 0.229361
0.249474 0.428071 0.229714
0.250834 0.428340 0.229842
0.251975 0.427833 0.229510
0.252941 0.427238 0.228921
0.255102 0.425965 0.228121
0.353208 0.439906 0.205034
0.537945 0.494628 0.105839
0.671522 0.525514 0.085432
0.734812 0.532557 0.148003
0.746464 0.530694 0.193893
0.756144 0.526399 0.216840
0.765092 0.523415 0.230520
0.773229 0.521204 0.239155
0.781015 0.517545 0.245739
0.260450 0.446332 0.250151
0.261632 0.446506 0.249894
0.262830 0.446818 0.249987
0.264040 0.447083 0.249887
0.265007 0.447245 0.249450
0.266057 0.447074 0.248944
0.266743 0.446511 0.248032
0.275565 0.447620 0.248287
0.410845 0.472024 0.214889
0.595385 0.549514 0.116408
0.706940 0.587159 0.091329
0.735141 0.589842 0.093811
0.744579 0.590843 0.120325
0.753971 0.590731 0.141360
0.762496 0.589820 0.156926
0.771229 0.588616 0.177360
0.268805 0.461174 0.262714
0.270003 0.461264 0.262945
0.271184 0.461532 0.263445
0.272299 0.461916 0.263540
0.273378 0.462175 0.263437
0.274415 0.462118 0.263238
0.275377 0.461982 0.262643
0.277494 0.462384 0.262386
0.317646 0.472035 0.265169
0.487570 0.517271 0.209242
0.645341 0.594981 0.128124
0.716264 0.627784 0.114072
0.732161 0.631946 0.109936
0.740129 0.632619 0.107438
0.747865 0.633309 0.105479
0.755657 0.632898 0.103038
0.270907 0.469004 0.267416
0.272214 0.469538 0.267812
0.273367 0.470083 0.268411
0.274563 0.470571 0.268792
0.275784 0.471093 0.269224
0.277031 0.471613 0.269691
0.278333 0.472041 0.270090
0.280681 0.472931 0.270860
0.285841 0.475000 0.272709
0.416609 0.505935 0.269127
0.566360 0.567740 0.193486
0.671804 0.625017 0.157558
0.703988 0.644218 0.170139
0.711945 0.647418 0.168399
0.719391 0.650050 0.164599
0.727428 0.652460 0.158703
0.271351 0.471294 0.268860
0.272660 0.471891 0.269209
0.273827 0.472453 0.269767
0.274970 0.473076 0.270152
0.276196 0.473577 0.270566
0.277421 0.474088 0.271034
0.278704 0.474792 0.271519
0.280958 0.475802 0.272426
0.283663 0.476972 0.273492
0.365254 0.503703 0.283825
0.511145 0.542038 0.234887
0.634566 0.608532 0.174041
0.681321 0.638114 0.195680
0.695840 0.649677 0.216411
0.700443 0.652339 0.220108
0.704164 0.654304 0.221192
0.271589 0.473767 0.271054
0.272926 0.474494 0.271109
0.274084 0.475169 0.271640
0.275212 0.475734 0.272067
0.276433 0.476512 0.272227
0.277650 0.477127 0.272610
0.278936 0.477788 0.273101
0.280859 0.478538 0.273845
0.283281 0.479676 0.274844
0.320128 0.491527 0.280600
0.479607 0.529897 0.256801
0.604453 0.593903 0.187849
0.668052 0.630777 0.195998
0.689896 0.649392 0.220322
0.702041 0.659143 0.230284
0.704875 0.660733 0.233259
0.271834 0.476237 0.273156
0.273156 0.477043 0.273240
0.274316 0.477775 0.273533
0.275445 0.478395 0.273855
0.276649 0.479226 0.274077
0.277874 0.479927 0.274197
0.279155 0.480594 0.274647
0.281042 0.481482 0.275393
0.283166 0.482442 0.276230
0.310778 0.493696 0.283606
0.458577 0.526157 0.269200
0.579861 0.582176 0.203773
0.655770 0.624959 0.194519
0.682366 0.646293 0.223918
0.700988 0.663022 0.237875
0.706891 0.667397 0.242177
0.272066 0.478490 0.275078
0.273383 0.479287 0.275159
0.274539 0.480048 0.275432
0.275607 0.480999 0.275351
0.276790 0.481887 0.275431
0.277996 0.482616 0.275561
0.279240 0.483286 0.275987
0.281091 0.484251 0.276736
0.283171 0.485145 0.277544
0.297533 0.491916 0.282955
0.438654 0.524196 0.278198
0.555257 0.570143 0.222250
0.642017 0.618313 0.195376
0.672276 0.639665 0.230659
0.692067 0.658003 0.247933
0.706121 0.670625 0.255020
0.069132 0.063209 0.099650
0.070022 0.063342 0.100944
0.078729 0.064755 0.112606
0.120040 0.050359 0.115879
0.241068 0.034456 0.129478
0.363223 0.038382 0.150419
0.479256 0.049400 0.182618
0.580073 0.069579 0.217709
0.619977 0.101815 0.254140
0.620811 0.107865 0.269417
0.621503 0.114211 0.281377
0.622553 0.120317 0.291120
0.624224 0.126626 0.298912
0.625870 0.133571 0.305166
0.627994 0.140496 0.310126
0.630140 0.147027 0.313904
0.068637 0.064537 0.098669
0.069514 0.064866 0.099917
0.077787 0.066485 0.110976
0.114171 0.054637 0.114155
0.229559 0.039550 0.124796
0.348338 0.041937 0.145066
0.461572 0.053191 0.171907
0.565609 0.069189 0.200549
0.621662 0.102261 0.238608
0.626294 0.112875 0.257480
0.627749 0.119417 0.270848
0.629120 0.125859 0.281505
0.630681 0.132223 0.289669
0.632369 0.139129 0.296213
0.634292 0.145959 0.301423
0.636134 0.152527 0.305698
0.070106 0.072120 0.101071
0.070883 0.072374 0.102098
0.076759 0.073858 0.110140
0.110741 0.063450 0.114648
0.229190 0.045408 0.124127
0.349040 0.046485 0.141709
0.463726 0.058250 0.167844
0.567125 0.074712 0.199631
0.624040 0.107491 0.240487
0.628559 0.118028 0.260469
0.630079 0.124587 0.274197
0.631524 0.130806 0.285053
0.633053 0.137113 0.293358
0.634774 0.144044 0.300082
0.636803 0.150944 0.305409
0.638854 0.157461 0.309471
0.077338 0.107625 0.110308
0.077078 0.107757 0.110106
0.077335 0.108488 0.110934
0.093301 0.115828 0.121096
0.255938 0.132713 0.138121
0.385214 0.136418 0.160501
0.495597 0.139043 0.188061
0.591435 0.137357 0.216086
0.639517 0.140760 0.252756
0.635598 0.134694 0.269213
0.633381 0.133930 0.281722
0.634153 0.138289 0.292264
0.635753 0.144200 0.300959
0.637488 0.151273 0.307507
0.639680 0.158452 0.312495
0.641942 0.165124 0.316483
0.093850 0.160861 0.102466
0.094136 0.161384 0.103326
0.094547 0.161886 0.105167
0.094894 0.161328 0.109728
0.212065 0.202206 0.114681
0.387177 0.226642 0.157504
0.507235 0.234660 0.191687
0.610825 0.242016 0.222100
0.691675 0.245764 0.257610
0.700382 0.242443 0.279983
0.700980 0.239367 0.294188
0.701898 0.238909 0.305082
0.703269 0.239737 0.313854
0.706463 0.241776 0.320495
0.711271 0.246646 0.326017
0.715230 0.250762 0.330261
0.140089 0.244945 0.128780
0.140049 0.245220 0.128541
0.140109 0.245711 0.128418
0.139208 0.244458 0.129369
0.137110 0.241434 0.128273
0.320301 0.303311 0.111900
0.475017 0.316007 0.157410
0.594890 0.317569 0.205114
0.698284 0.330402 0.243087
0.730218 0.334009 0.271805
0.736374 0.327150 0.288730
0.741757 0.319536 0.300671
0.745858 0.313393 0.309432
0.750347 0.309594 0.316267
0.755492 0.307333 0.321433
0.759834 0.305025 0.325285
0.183483 0.320258 0.165244
0.183389 0.319911 0.164856
0.183482 0.319927 0.164561
0.183157 0.319615 0.164105
0.181883 0.317587 0.163102
0.203668 0.328010 0.160439
0.406256 0.377730 0.102672
0.547128 0.392568 0.145094
0.670605 0.396430 0.212059
0.734566 0.393774 0.256268
0.743560 0.392870 0.275661
0.752020 0.395061 0.288455
0.760084 0.397106 0.297934
0.767747 0.398639 0.304737
0.774989 0.399239 0.309518
0.781582 0.398147 0.312992
0.217112 0.379746 0.199573
0.218382 0.379970 0.199691
0.218998 0.379962 0.199683
0.219543 0.379702 0.199561
0.219999 0.378764 0.198967
0.219792 0.376749 0.197740
0.281769 0.395928 0.193035
0.476562 0.441954 0.102422
