public/kits/editing-mini-guide/luts/cinematic-v1-log-29.cube
LUT_3D_SIZE 6
-0.005238 -0.005238 -0.005238
0.030422 0.030422 0.030422
0.087523 0.087523 0.087523
0.157534 0.157534 0.157534
0.231626 0.231626 0.231626
0.307452 0.307452 0.307452
0.029185 0.029185 0.029185
0.087510 0.087510 0.087510
0.157413 0.157413 0.157413
0.232584 0.232584 0.232584
0.304428 0.304428 0.304428
0.375216 0.375216 0.375216
0.083325 0.083325 0.083325
0.154464 0.154464 0.154464
0.230045 0.230045 0.230045
0.303062 0.303062 0.303062
0.371775 0.371775 0.371775
0.437327 0.437327 0.437327
0.150413 0.150413 0.150413
0.226617 0.226617 0.226617
0.300679 0.300679 0.300679
0.368963 0.368963 0.368963
0.434591 0.434591 0.434591
0.497159 0.497159 0.497159
0.223137 0.223137 0.223137
0.297479 0.297479 0.297479
0.367018 0.367018 0.367018
0.431429 0.431429 0.431429
0.493047 0.493047 0.493047
0.555742 0.555742 0.555742
0.309525 0.309525 0.309525
0.379559 0.379559 0.379559
0.447706 0.447706 0.447706
0.511042 0.511042 0.511042
0.572408 0.572408 0.572408
0.633218 0.633218 0.633218
-0.135058 -0.135058 -0.135058
-0.129110 -0.129110 -0.129110
0.049444 0.049444 0.049444
0.190804 0.190804 0.190804
0.277828 0.277828 0.277828
0.353436 0.353436 0.353436
0.107473 0.107473 0.107473
0.184876 0.184876 0.184876
0.259700 0.259700 0.259700
0.330722 0.330722 0.330722
0.396825 0.396825 0.396825
0.462170 0.462170 0.462170
0.177427 0.177427 0.177427
0.257042 0.257042 0.257042
0.328436 0.328436 0.328436
0.395233 0.395233 0.395233
0.457488 0.457488 0.457488
0.521296 0.521296 0.521296
0.250180 0.250180 0.250180
0.325870 0.325870 0.325870
0.393043 0.393043 0.393043
0.456453 0.456453 0.456453
0.518319 0.518319 0.518319
0.579465 0.579465 0.579465
0.319807 0.319807 0.319807
0.391907 0.391907 0.391907
0.454429 0.454429 0.454429
0.515764 0.515764 0.515764
0.576251 0.576251 0.576251
0.636443 0.636443 0.636443
0.402816 0.402816 0.402816
0.470016 0.470016 0.470016
0.533640 0.533640 0.533640
0.594406 0.594406 0.594406
0.654741 0.654741 0.654741
0.713309 0.713309 0.713309
-0.120787 -0.120787 -0.120787
0.116869 0.116869 0.116869
0.220887 0.220887 0.220887
0.302111 0.302111 0.302111
0.375280 0.375280 0.375280
0.441565 0.441565 0.441565
0.204956 0.204956 0.204956
0.284493 0.284493 0.284493
0.353293 0.353293 0.353293
0.418792 0.418792 0.418792
0.482372 0.482372 0.482372
0.543549 0.543549 0.543549
0.276813 0.276813 0.276813
0.351085 0.351085 0.351085
0.418587 0.418587 0.418587
0.481032 0.481032 0.481032
0.542337 0.542337 0.542337
0.603088 0.603088 0.603088
0.344550 0.344550 0.344550
0.413862 0.413862 0.413862
0.479137 0.479137 0.479137
0.539935 0.539935 0.539935
0.600039 0.600039 0.600039
0.659620 0.659620 0.659620
0.408385 0.408385 0.408385
0.474084 0.474084 0.474084
0.537959 0.537959 0.537959
0.597729 0.597729 0.597729
0.655157 0.655157 0.655157
0.716057 0.716057 0.716057
0.488978 0.488978 0.488978
0.554576 0.554576 0.554576
0.616294 0.616294 0.616294
0.675268 0.675268 0.675268
0.733700 0.733700 0.733700
0.793890 0.793890 0.793890
0.151363 0.151363 0.151363
0.248828 0.248828 0.248828
0.326363 0.326363 0.326363
0.395105 0.395105 0.395105
0.459409 0.459409 0.459409
0.524621 0.524621 0.524621
0.303034 0.303034 0.303034
0.375949 0.375949 0.375949
0.439708 0.439708 0.439708
0.501541 0.501541 0.501541
0.562210 0.562210 0.562210
0.622669 0.622669 0.622669
0.369104 0.369104 0.369104
0.438631 0.438631 0.438631
0.501464 0.501464 0.501464
0.562039 0.562039 0.562039
0.620421 0.620421 0.620421
0.681190 0.681190 0.681190
0.431629 0.431629 0.431629
0.499280 0.499280 0.499280
0.559989 0.559989 0.559989
0.621289 0.621289 0.621289
0.677948 0.677948 0.677948
0.739477 0.739477 0.739477
0.491790 0.491790 0.491790
0.556393 0.556393 0.556393
0.617322 0.617322 0.617322
0.677861 0.677861 0.677861
0.735461 0.735461 0.735461
0.796184 0.796184 0.796184
0.571228 0.571228 0.571228
0.634010 0.634010 0.634010
0.694968 0.694968 0.694968
0.755536 0.755536 0.755536
0.814821 0.814821 0.814821
0.874082 0.874082 0.874082
0.273794 0.273794 0.273794
0.350474 0.350474 0.350474
0.417621 0.417621 0.417621
0.480825 0.480825 0.480825
0.542225 0.542225 0.542225
0.604803 0.604803 0.604803
0.393188 0.393188 0.393188
0.460456 0.460456 0.460456
0.521890 0.521890 0.521890
0.581949 0.581949 0.581949
0.641324 0.641324 0.641324
0.700481 0.700481 0.700481
0.454411 0.454411 0.454411
0.519709 0.519709 0.519709
0.581943 0.581943 0.581943
0.640710 0.640710 0.640710
0.698992 0.698992 0.698992
0.758956 0.758956 0.758956
0.513837 0.513837 0.513837
0.578706 0.578706 0.578706
0.638830 0.638830 0.638830
0.699119 0.699119 0.699119
0.756786 0.756786 0.756786
0.817610 0.817610 0.817610
0.572473 0.572473 0.572473
0.635579 0.635579 0.635579
0.695212 0.695212 0.695212
0.755614 0.755614 0.755614
0.815685 0.815685 0.815685
0.875279 0.875279 0.875279
0.650560 0.650560 0.650560
0.712527 0.712527 0.712527
0.773262 0.773262 0.773262
0.834198 0.834198 0.834198
0.894415 0.894415 0.894415
0.951256 0.951256 0.951256
0.370125 0.370125 0.370125
0.439412 0.439412 0.439412
0.501292 0.501292 0.501292
0.562089 0.562089 0.562089
0.622178 0.622178 0.622178
0.683592 0.683592 0.683592
0.476413 0.476413 0.476413
0.541693 0.541693 0.541693
0.600861 0.600861 0.600861
0.659631 0.659631 0.659631
0.718875 0.718875 0.718875
0.777738 0.777738 0.777738
0.535286 0.535286 0.535286
0.599250 0.599250 0.599250
0.659732 0.659732 0.659732
0.717940 0.717940 0.717940
0.776372 0.776372 0.776372
0.836201 0.836201 0.836201
0.593007 0.593007 0.593007
0.654684 0.654684 0.654684
0.716115 0.716115 0.716115
0.776262 0.776262 0.776262
0.835280 0.835280 0.835280
0.893540 0.893540 0.893540
0.649946 0.649946 0.649946
0.712141 0.712141 0.712141
0.772338 0.772338 0.772338
0.832739 0.832739 0.832739
0.891097 0.891097 0.891097
0.948531 0.948531 0.948531
0.708404 0.708404 0.708404
0.769477 0.769477 0.769477
0.830454 0.830454 0.830454
0.889667 0.889667 0.889667
0.946132 0.946132 0.946132
1.003409 1.003409 1.003409
