public/kits/editing-mini-guide/luts/cinematic-v1-log-19.cube
LUT_3D_SIZE 6
0.002092 0.001882 0.000682
0.162904 0.026910 0.015721
0.593259 0.083248 0.067359
0.823751 0.104646 0.130352
0.849397 0.104311 0.157911
0.879449 0.106927 0.169687
0.042781 0.110197 0.036327
0.129750 0.122184 0.023656
0.591142 0.105157 0.063721
0.828124 0.115383 0.128894
0.853714 0.115223 0.156725
0.883397 0.117985 0.168514
0.092478 0.377683 0.136667
0.095440 0.376326 0.134962
0.504095 0.475561 0.080148
0.959380 0.499889 0.128569
0.977336 0.453800 0.170055
0.987660 0.432198 0.188509
0.241586 0.576611 0.271508
0.245494 0.576860 0.269537
0.243714 0.571388 0.263694
0.749269 0.733298 0.159200
0.991365 0.822498 0.030833
0.996768 0.813969 0.064042
0.327356 0.656387 0.342866
0.333003 0.658692 0.344217
0.338646 0.660785 0.345432
0.404452 0.678415 0.355807
0.890023 0.881055 0.165467
0.976153 0.928564 0.110190
0.340437 0.672787 0.357545
0.346454 0.675361 0.359429
0.352046 0.677550 0.360815
0.361306 0.680828 0.362844
0.814764 0.853433 0.260085
0.954812 0.931196 0.140355
0.004002 0.031681 0.045778
0.113034 0.045040 0.101694
0.586369 0.074709 0.097015
0.817033 0.098883 0.157162
0.843783 0.095189 0.187822
0.873602 0.097648 0.199544
0.011598 0.125561 0.104030
0.068442 0.132725 0.119030
0.615732 0.148805 0.100329
0.826004 0.118867 0.152420
0.849396 0.109027 0.182986
0.879250 0.112009 0.194480
0.086774 0.378978 0.147904
0.087663 0.376640 0.144601
0.501167 0.473842 0.088873
0.958863 0.473091 0.172259
0.978780 0.465093 0.221740
0.989457 0.460478 0.235188
0.231343 0.575763 0.284812
0.232944 0.575212 0.282177
0.228913 0.569116 0.273956
0.753987 0.734196 0.160742
0.992607 0.810898 0.086557
0.997335 0.796592 0.125751
0.313998 0.654283 0.349722
0.318438 0.656685 0.351256
0.323321 0.658692 0.352110
0.405801 0.681192 0.362527
0.895267 0.885695 0.171609
0.976650 0.929512 0.119703
0.329230 0.671370 0.365004
0.333072 0.673443 0.366312
0.337310 0.675477 0.366738
0.345881 0.678446 0.367793
0.820468 0.858988 0.267851
0.960873 0.936157 0.147183
0.010141 0.129028 0.184663
0.019094 0.145029 0.215425
0.439574 0.119196 0.306419
0.720349 0.108278 0.332582
0.751599 0.111396 0.346232
0.789102 0.111970 0.355859
0.010402 0.133676 0.184938
0.015543 0.140936 0.197738
0.414705 0.124392 0.310877
0.733774 0.109586 0.329344
0.761678 0.114214 0.345681
0.798715 0.115397 0.355248
0.041297 0.376743 0.327900
0.041654 0.375461 0.327498
0.364490 0.451570 0.455233
0.958362 0.485768 0.425760
0.974009 0.479123 0.442186
0.981343 0.485424 0.454295
0.151966 0.551390 0.393502
0.152339 0.551533 0.396913
0.143474 0.546077 0.406695
0.748078 0.724058 0.476348
0.993376 0.798059 0.400380
0.996305 0.782913 0.416437
0.308197 0.654739 0.363992
0.311501 0.656857 0.367420
0.309128 0.658195 0.381651
0.354649 0.678220 0.457553
0.893750 0.895372 0.441421
0.984149 0.945382 0.366408
0.321980 0.670933 0.376860
0.326483 0.673468 0.378111
0.325847 0.675270 0.390379
0.311153 0.675535 0.433623
0.809073 0.859952 0.528786
0.963306 0.949162 0.373459
0.014153 0.212180 0.295458
0.018420 0.207753 0.291194
0.266816 0.256940 0.479777
0.549944 0.221155 0.506983
0.573740 0.222929 0.510994
0.598127 0.221059 0.509779
0.014451 0.218807 0.299147
0.017204 0.212734 0.292237
0.251304 0.268012 0.480801
0.554211 0.230318 0.516730
0.579094 0.227999 0.515963
0.605821 0.223399 0.511737
0.031427 0.375063 0.404682
0.031985 0.374226 0.404099
0.063701 0.398409 0.442085
0.659866 0.420212 0.634320
0.690112 0.400553 0.625641
0.718387 0.386130 0.618705
0.120965 0.549739 0.504703
0.121999 0.549943 0.505322
0.120331 0.546834 0.503715
0.680339 0.685018 0.700236
0.919662 0.741270 0.738309
0.953095 0.747480 0.738934
0.194659 0.634031 0.556187
0.197341 0.636485 0.559387
0.199547 0.638568 0.562892
0.274489 0.664867 0.599595
0.842344 0.843700 0.767869
0.961493 0.900171 0.734135
0.203391 0.645969 0.554648
0.205754 0.648027 0.557473
0.208086 0.650250 0.561532
0.211434 0.653387 0.568996
0.757505 0.827457 0.761242
0.924178 0.909600 0.738462
0.017091 0.264354 0.358305
0.020143 0.253759 0.347112
0.158550 0.307628 0.489893
0.530167 0.301447 0.604258
0.556509 0.295421 0.604158
0.580015 0.290685 0.603244
0.017526 0.269760 0.360387
0.019711 0.261024 0.351172
0.144596 0.316747 0.484761
0.536140 0.319268 0.615518
0.562288 0.311678 0.614853
0.584798 0.304040 0.612765
0.027236 0.356264 0.409013
0.027822 0.356342 0.409605
0.045873 0.373653 0.444697
0.552811 0.391370 0.653628
0.572423 0.341683 0.633068
0.600404 0.345960 0.638437
0.113377 0.549878 0.538404
0.114419 0.550672 0.540473
0.114273 0.550234 0.543133
0.460224 0.654770 0.719817
0.658531 0.699060 0.794898
0.696547 0.707056 0.805152
0.182270 0.646974 0.609117
0.184039 0.648100 0.610735
0.185370 0.649010 0.612817
0.233095 0.661862 0.635576
0.846827 0.826146 0.838019
0.893962 0.848449 0.860421
0.190481 0.668478 0.624743
0.192823 0.670645 0.627209
0.195145 0.672957 0.630139
0.197343 0.675907 0.634406
0.798790 0.843708 0.841764
0.900548 0.880385 0.874973
0.018392 0.279956 0.376673
0.020864 0.267535 0.363264
0.128376 0.322475 0.483915
0.524116 0.323612 0.623443
0.551779 0.316756 0.624560
0.576156 0.310054 0.623813
0.018933 0.285516 0.379315
0.020717 0.274905 0.367542
0.118926 0.333028 0.480934
0.527995 0.338770 0.632254
0.557600 0.334184 0.634979
0.581356 0.325636 0.633819
0.024554 0.336266 0.404659
0.025307 0.338248 0.405078
0.044128 0.364738 0.445501
0.532275 0.374904 0.650329
0.564494 0.357855 0.648579
0.590536 0.351295 0.649070
0.110334 0.550836 0.556737
0.111769 0.552097 0.559183
0.112857 0.553367 0.562963
0.385679 0.644061 0.719307
0.625380 0.693224 0.798225
0.664221 0.698163 0.806672
0.177459 0.648360 0.619720
0.178890 0.649403 0.621381
0.180012 0.651007 0.624045
0.234651 0.664600 0.649855
0.811015 0.822957 0.853019
0.841216 0.832487 0.867673
0.189332 0.675854 0.640425
0.191595 0.677883 0.642938
0.193689 0.680696 0.646468
0.195391 0.684178 0.651969
0.807349 0.848944 0.859531
0.896748 0.873400 0.886197
