public/kits/editing-mini-guide/luts/cinematic-v1-log-04.cube
LUT_3D_SIZE 6
0.000000 0.000227 0.000196
0.216579 0.061310 0.056726
0.669511 0.086670 0.150353
0.896245 0.090278 0.242806
0.921070 0.094143 0.279479
0.949579 0.094020 0.293748
0.000000 0.072318 0.042021
0.128103 0.115708 0.052736
0.654817 0.123010 0.143300
0.897653 0.109881 0.240664
0.922454 0.113662 0.278090
0.950773 0.113590 0.292544
0.071906 0.447098 0.203583
0.092618 0.446049 0.204237
0.497308 0.497134 0.193086
0.933602 0.478304 0.187173
0.956175 0.439025 0.252464
0.980748 0.418640 0.271050
0.267883 0.722934 0.358460
0.275541 0.721742 0.358830
0.278152 0.712635 0.354226
0.763420 0.783980 0.300064
0.964991 0.786022 0.077244
0.993870 0.771018 0.122770
0.347187 0.834861 0.431229
0.354446 0.835177 0.432363
0.362050 0.835662 0.433689
0.437567 0.844473 0.452377
0.916914 0.941862 0.351398
0.984607 0.958100 0.250837
0.365022 0.860707 0.448759
0.372001 0.860989 0.449872
0.379288 0.861436 0.451149
0.392279 0.862475 0.453605
0.851764 0.940097 0.483290
0.976762 0.981128 0.317175
0.000000 0.027070 0.034126
0.196952 0.087550 0.099207
0.658482 0.093773 0.190761
0.889812 0.096771 0.277856
0.914666 0.101021 0.309915
0.943154 0.100856 0.323438
0.000000 0.083733 0.074524
0.082793 0.117211 0.093677
0.645082 0.179017 0.186613
0.892890 0.130354 0.273086
0.916869 0.123342 0.306599
0.945439 0.123673 0.319802
0.059355 0.444382 0.207495
0.083109 0.442646 0.207851
0.497122 0.492576 0.213098
0.929387 0.458056 0.250544
0.953952 0.452073 0.299243
0.979956 0.447781 0.313841
0.263724 0.721499 0.363009
0.271201 0.719384 0.362887
0.273624 0.710176 0.358308
0.766683 0.780787 0.302444
0.964593 0.771894 0.166602
0.993529 0.753353 0.213805
0.344541 0.835092 0.437036
0.352324 0.835665 0.438571
0.359733 0.836012 0.439748
0.456265 0.847245 0.463455
0.920912 0.943410 0.359589
0.984022 0.957032 0.267066
0.362403 0.860892 0.454570
0.369941 0.861428 0.456164
0.377095 0.861799 0.457309
0.391323 0.862957 0.460065
0.858603 0.942919 0.486469
0.980871 0.982805 0.327759
0.000000 0.089939 0.118802
0.006430 0.133086 0.199706
0.599660 0.184948 0.336815
0.847640 0.156843 0.411875
0.876266 0.155874 0.424114
0.905760 0.151669 0.431229
0.000000 0.099428 0.128558
0.000138 0.124367 0.174539
0.575419 0.190720 0.325574
0.850361 0.168842 0.407245
0.878116 0.169958 0.422020
0.907645 0.166598 0.429383
0.124619 0.411346 0.371856
0.129983 0.409833 0.371396
0.438540 0.466056 0.397505
0.902299 0.499458 0.458053
0.929833 0.492590 0.470548
0.957194 0.492388 0.477796
0.196582 0.709237 0.428868
0.207419 0.707903 0.432414
0.209792 0.699797 0.444691
0.747135 0.772655 0.512837
0.959038 0.760716 0.444975
0.987709 0.745307 0.449512
0.341872 0.835453 0.442932
0.349228 0.835884 0.445598
0.354152 0.836699 0.454034
0.444732 0.850677 0.516007
0.908760 0.945061 0.554687
0.974903 0.958580 0.507809
0.359815 0.861274 0.460422
0.367593 0.861656 0.461849
0.372955 0.862414 0.468968
0.377458 0.864451 0.495665
0.843468 0.946072 0.608718
0.970505 0.984976 0.530348
0.019082 0.154325 0.239389
0.051529 0.180455 0.275775
0.504058 0.358423 0.523380
0.731735 0.382189 0.564331
0.762467 0.373025 0.575267
0.799296 0.353312 0.582082
0.020104 0.165486 0.255269
0.042216 0.179738 0.274630
0.496002 0.363744 0.526606
0.733966 0.389381 0.567080
0.768217 0.375055 0.575160
0.807932 0.351769 0.580232
0.000000 0.383020 0.520942
0.000000 0.382407 0.521599
0.336329 0.441481 0.552556
0.794592 0.475255 0.600180
0.828119 0.453116 0.602249
0.862221 0.434795 0.605572
0.336887 0.686220 0.663626
0.339111 0.684322 0.662640
0.332214 0.677543 0.661609
0.712195 0.761090 0.705681
0.920534 0.773567 0.722269
0.947435 0.772299 0.723866
0.445785 0.841003 0.717216
0.451652 0.841544 0.719550
0.459660 0.841660 0.723809
0.508812 0.852484 0.734884
0.889897 0.941571 0.792782
0.960903 0.947177 0.767823
0.426787 0.867491 0.709339
0.432757 0.868138 0.711868
0.442342 0.868729 0.717900
0.460837 0.869553 0.731320
0.827041 0.957023 0.798811
0.951573 0.990290 0.787910
0.066683 0.197764 0.300878
0.097728 0.220627 0.335922
0.448905 0.397407 0.644970
0.720228 0.452769 0.674324
0.741045 0.448985 0.686674
0.760648 0.442561 0.696447
0.070874 0.208910 0.316437
0.090904 0.223124 0.337963
0.446204 0.404448 0.647063
0.721846 0.458259 0.677221
0.742420 0.453619 0.688949
0.761783 0.446796 0.698604
0.143968 0.355663 0.528555
0.142175 0.356622 0.529735
0.322394 0.412377 0.579225
0.729155 0.493110 0.692040
0.745018 0.462897 0.693422
0.765382 0.459448 0.704660
0.218803 0.683429 0.769704
0.224498 0.681981 0.769839
0.226436 0.678071 0.772089
0.669860 0.754823 0.826977
0.841711 0.780171 0.834356
0.868431 0.775791 0.842989
0.434008 0.847688 0.858818
0.436565 0.846479 0.858785
0.436873 0.845049 0.860560
0.476073 0.847103 0.869239
0.874146 0.934384 0.909032
0.954020 0.940617 0.921716
0.473120 0.880787 0.875370
0.476849 0.881486 0.876993
0.480042 0.882461 0.879813
0.481853 0.884338 0.886364
0.832180 0.972161 0.918940
0.940323 0.997807 0.953072
0.082859 0.211627 0.321344
0.110478 0.232239 0.353538
0.429534 0.400720 0.669484
0.725291 0.460228 0.705676
0.748319 0.453521 0.722328
0.771108 0.446605 0.742758
0.087338 0.222928 0.337175
0.106026 0.236604 0.358363
0.430152 0.408971 0.672026
0.726847 0.465500 0.708788
0.749474 0.457868 0.724683
0.772104 0.450054 0.744626
0.141982 0.322450 0.478888
0.146169 0.328549 0.488084
0.317176 0.400333 0.585517
0.728754 0.482701 0.716037
0.751774 0.465083 0.728719
0.773539 0.455278 0.747175
0.211198 0.677058 0.805460
0.217846 0.676393 0.806028
0.224099 0.675582 0.809761
0.659813 0.753130 0.869671
0.833456 0.773866 0.869776
0.856642 0.762563 0.879778
0.409042 0.845942 0.886226
0.411752 0.844846 0.886355
0.413380 0.844229 0.888306
0.453528 0.847033 0.898575
0.876486 0.931069 0.953806
0.936522 0.943331 0.964322
0.458018 0.887767 0.908955
0.462397 0.888296 0.910004
0.466045 0.889203 0.912927
0.468556 0.890831 0.918995
0.849397 0.967958 0.965047
0.940622 0.995025 0.982370
