public/kits/editing-mini-guide/luts/cinematic-v1-log-34.cube
LUT_3D_SIZE 16
-0.008934 -0.003345 -0.001048
-0.042554 -0.011907 -0.007940
0.106117 0.029251 0.011892
0.261470 0.070273 0.059790
0.380820 0.112334 0.102424
0.488110 0.153978 0.139141
0.585955 0.195000 0.174767
0.671956 0.235164 0.207597
0.736861 0.270642 0.233845
0.786753 0.297471 0.249346
0.808358 0.311525 0.254764
0.806058 0.310080 0.254142
0.806017 0.310050 0.254132
0.806017 0.310050 0.254132
0.806017 0.310050 0.254132
0.806017 0.310050 0.254132
-0.033212 -0.011940 -0.000894
-0.047443 -0.015577 -0.006559
0.064861 0.024122 -0.012208
0.232579 0.063245 0.048960
0.357985 0.102522 0.094695
0.467082 0.145564 0.132302
0.568881 0.187699 0.167463
0.657880 0.228719 0.202218
0.727975 0.265866 0.230489
0.781527 0.294728 0.248173
0.807283 0.310703 0.254434
0.806177 0.310167 0.254182
0.806017 0.310050 0.254132
0.806017 0.310050 0.254132
0.806017 0.310050 0.254132
0.806017 0.310050 0.254132
0.067744 0.031852 -0.003099
0.055339 0.028902 -0.004565
0.068012 0.034529 -0.014810
0.186666 0.069743 0.025667
0.327180 0.102763 0.083537
0.442227 0.134541 0.123632
0.547065 0.173899 0.160620
0.639299 0.215593 0.195321
0.715964 0.256268 0.223783
0.769790 0.287980 0.244729
0.804873 0.310130 0.253628
0.806055 0.311223 0.254119
0.805703 0.310773 0.254079
0.805783 0.310611 0.254100
0.805845 0.310455 0.254117
0.805866 0.310345 0.254127
0.206209 0.061547 0.007407
0.199555 0.060246 0.006719
0.189319 0.056584 -0.007076
0.200758 0.062589 -0.019349
0.292597 0.108836 0.052484
0.411058 0.147069 0.110993
0.517744 0.175220 0.159053
0.617566 0.207768 0.197409
0.703117 0.242121 0.225213
0.760731 0.270805 0.244189
0.807583 0.295492 0.254536
0.810161 0.300194 0.254125
0.808311 0.302894 0.253741
0.807620 0.304829 0.253673
0.807222 0.306742 0.253622
0.806578 0.308351 0.253605
0.326311 0.086268 0.018963
0.321236 0.085161 0.018516
0.310502 0.082488 0.017466
0.294912 0.076375 0.008210
0.306275 0.087945 0.015862
0.383436 0.146472 0.071374
0.496581 0.199828 0.136095
0.593270 0.228562 0.199937
0.683967 0.253171 0.237634
0.747713 0.271651 0.258085
0.803847 0.290273 0.267256
0.816956 0.295071 0.264565
0.814393 0.294397 0.261456
0.813892 0.294433 0.260046
0.813563 0.294774 0.258867
0.812627 0.295373 0.257616
0.438154 0.118766 0.027850
0.433196 0.116993 0.027433
0.425092 0.114191 0.026744
0.405503 0.107356 0.024697
0.391047 0.102735 0.016138
0.406904 0.120621 0.038382
0.470006 0.181505 0.092517
0.587788 0.264108 0.157436
0.671549 0.295679 0.238036
0.742129 0.307576 0.281547
0.795906 0.308625 0.293816
0.825301 0.308418 0.290022
0.821122 0.303550 0.284569
0.819708 0.301173 0.281866
0.818631 0.299022 0.279239
0.817587 0.297348 0.275487
0.550696 0.160206 0.041075
0.545879 0.158145 0.040378
0.538517 0.154948 0.039258
0.526868 0.150015 0.037744
0.497144 0.140391 0.035012
0.490106 0.138343 0.031937
0.513075 0.164584 0.059266
0.559197 0.221833 0.116740
0.676373 0.327527 0.182823
0.748099 0.365495 0.270403
0.798252 0.369055 0.320814
0.838228 0.354439 0.325780
0.837295 0.341908 0.317435
0.834326 0.335172 0.312229
0.831989 0.329094 0.307685
0.828979 0.320651 0.301494
0.671145 0.215773 0.057290
0.666137 0.213467 0.056671
0.659232 0.210141 0.055786
0.648633 0.204917 0.054440
0.624390 0.195764 0.052531
0.601709 0.187788 0.050838
0.600775 0.189468 0.049219
0.626382 0.221828 0.077640
0.655297 0.273402 0.147370
0.754857 0.382611 0.209865
0.814795 0.427922 0.289708
0.856218 0.433124 0.345309
0.865288 0.414854 0.350487
0.858999 0.402811 0.346454
0.855207 0.391981 0.342734
0.849053 0.377165 0.336966
0.786333 0.275572 0.067892
0.782085 0.273190 0.067479
0.776566 0.270039 0.066945
0.767959 0.264986 0.066072
0.753371 0.258386 0.065026
0.728913 0.249661 0.064499
0.715585 0.244070 0.063850
0.718910 0.251329 0.060553
0.740398 0.287116 0.098717
0.750552 0.329516 0.186618
0.821365 0.432071 0.239090
0.882643 0.487365 0.292948
0.902586 0.483144 0.337758
0.893775 0.473111 0.341818
0.888023 0.464423 0.345062
0.879678 0.450744 0.349492
0.907333 0.354500 0.083062
0.902454 0.351504 0.082372
0.896610 0.347725 0.081547
0.887505 0.341725 0.080196
0.876061 0.333886 0.078411
0.851438 0.322676 0.077044
0.826656 0.312320 0.076107
0.812580 0.305373 0.074294
0.821505 0.317057 0.074483
0.839513 0.354554 0.130949
0.840335 0.387041 0.224731
0.890009 0.475215 0.259626
0.932288 0.532304 0.273494
0.928524 0.520243 0.289751
0.923418 0.511493 0.300459
0.914594 0.499867 0.314868
0.974688 0.444113 0.102488
0.972735 0.440532 0.101845
0.970591 0.436156 0.100978
0.968002 0.430062 0.099786
0.963640 0.421476 0.098128
0.956974 0.411357 0.096352
0.943240 0.396199 0.094586
0.932495 0.383760 0.093115
0.918702 0.372639 0.088999
0.928556 0.383636 0.092632
0.934749 0.412412 0.141442
0.928483 0.438133 0.231396
0.938156 0.504103 0.278792
0.942391 0.544695 0.253327
0.941960 0.544565 0.234685
0.939036 0.540496 0.245466
0.979501 0.533416 0.111629
0.979522 0.530776 0.111628
0.979327 0.527495 0.111548
0.978881 0.523390 0.111448
0.978943 0.516268 0.110777
0.978845 0.508363 0.110018
0.978306 0.492043 0.110143
0.977747 0.472782 0.109281
0.974734 0.455789 0.107177
0.966517 0.445085 0.110427
0.963670 0.461142 0.109614
0.958328 0.507314 0.227243
0.952038 0.557191 0.369737
0.946523 0.602860 0.483606
0.945662 0.572112 0.403753
0.943917 0.537973 0.298285
0.978776 0.527392 0.110835
0.978699 0.527548 0.110836
0.978752 0.527888 0.110845
0.978823 0.528307 0.110875
0.978900 0.528884 0.110930
0.978937 0.529921 0.110976
0.978841 0.527742 0.111163
0.977773 0.518485 0.113884
0.977069 0.506766 0.110459
0.979931 0.529937 0.158916
0.982010 0.577148 0.333480
0.973596 0.656660 0.520618
0.961269 0.759927 0.770352
0.955313 0.806287 0.885683
0.953081 0.775488 0.842889
0.947252 0.708490 0.720610
0.978745 0.527208 0.110828
0.978745 0.527208 0.110828
0.978745 0.527208 0.110828
0.978745 0.527208 0.110828
0.978745 0.527209 0.110827
0.978771 0.527365 0.110814
0.978598 0.526949 0.110687
0.977638 0.518921 0.112886
0.977003 0.509327 0.110977
0.977519 0.515480 0.097303
0.984395 0.571557 0.294315
0.977135 0.659146 0.526416
0.967023 0.773739 0.807171
0.957942 0.865569 0.951814
0.952967 0.901036 0.962518
0.953756 0.893681 0.960594
0.978639 0.526392 0.110893
0.978639 0.526392 0.110893
0.978639 0.526392 0.110893
0.978639 0.526392 0.110893
0.978639 0.526392 0.110893
0.978653 0.526472 0.110888
0.978590 0.526463 0.110762
0.977883 0.519354 0.112442
0.976863 0.510431 0.113061
0.976643 0.507285 0.092627
0.982759 0.557930 0.245978
0.979214 0.631448 0.457685
0.967537 0.745475 0.740264
0.959808 0.835705 0.926488
0.952676 0.890966 0.952427
0.953134 0.887151 0.949359
1.019575 0.557588 0.114558
1.019485 0.557569 0.114474
1.018952 0.557509 0.114088
1.017560 0.557332 0.112916
1.015235 0.556973 0.110402
1.012053 0.556480 0.106138
1.008147 0.555858 0.099751
1.003485 0.548390 0.093721
0.998426 0.538914 0.087694
0.994433 0.530325 0.060735
0.998146 0.573005 0.195717
0.997749 0.637870 0.408572
0.986582 0.750612 0.687297
0.977691 0.851920 0.919164
0.967031 0.931458 0.984692
0.966264 0.936406 0.986159
-0.376872 -0.205653 -0.040709
-0.377453 -0.205605 -0.039511
-0.363887 -0.203461 -0.023706
-0.283339 -0.196974 0.057794
0.169515 -0.180667 0.101160
0.382763 -0.147393 0.140610
0.518599 -0.049189 0.178749
0.626143 0.158443 0.213493
0.704013 0.219413 0.240983
0.761812 0.255178 0.255813
0.787085 0.264270 0.251798
0.785468 0.238575 0.212508
0.786336 0.191394 -0.026614
0.787638 0.097492 -0.224981
0.788505 -0.131361 -0.271630
0.788919 -0.158153 -0.281479
-0.032880 0.002014 0.004253
-0.049122 -0.013953 -0.008228
0.068148 0.021347 -0.007203
0.237908 0.062890 0.051064
0.361661 0.103739 0.096120
0.470621 0.147029 0.133596
0.571415 0.188788 0.168564
0.659772 0.229515 0.202964
0.728972 0.266431 0.230945
0.782294 0.295090 0.248364
0.807281 0.310700 0.254424
0.806180 0.310168 0.254175
0.806017 0.310050 0.254132
0.806017 0.310050 0.254132
0.806017 0.310050 0.254132
0.806017 0.310050 0.254132
0.056763 0.032655 -0.003853
0.050978 0.028516 -0.005493
0.063233 0.034016 -0.015438
0.185041 0.069080 0.026015
0.327134 0.101348 0.083729
0.442283 0.134259 0.123454
0.546748 0.174131 0.160117
0.638771 0.215934 0.195031
0.715608 0.256634 0.223777
0.769557 0.288220 0.244778
0.804795 0.310064 0.253620
0.806078 0.311192 0.254134
0.805709 0.310747 0.254086
0.805790 0.310587 0.254104
0.805860 0.310441 0.254120
0.805881 0.310311 0.254129
0.203770 0.061007 0.007153
0.200245 0.060359 0.006795
0.187670 0.056357 -0.007301
0.199027 0.062274 -0.019740
0.291587 0.108544 0.052741
0.410359 0.145916 0.111182
0.517380 0.174104 0.158618
0.617222 0.207037 0.196700
0.702807 0.241657 0.224604
0.760422 0.270866 0.243840
0.807081 0.295786 0.254310
0.810154 0.300696 0.254053
0.808220 0.303453 0.253705
0.807657 0.305303 0.253660
0.806949 0.307167 0.253604
0.806447 0.308619 0.253597
0.324273 0.085795 0.018782
0.321681 0.085296 0.018552
0.309890 0.082396 0.017419
0.293570 0.076003 0.007859
0.305049 0.087553 0.014945
0.382402 0.146201 0.071407
0.495279 0.198703 0.136309
0.592455 0.227290 0.199446
0.683404 0.252148 0.236968
0.747389 0.271041 0.257375
0.803338 0.289880 0.266570
0.817016 0.295018 0.264136
0.814267 0.294339 0.261069
0.813998 0.294431 0.259792
0.813361 0.294796 0.258688
0.812459 0.295453 0.257471
0.436325 0.118100 0.027690
0.433153 0.116957 0.027439
0.424319 0.113925 0.026681
0.405009 0.107154 0.024682
0.389697 0.102222 0.015784
0.405706 0.120152 0.037966
0.468662 0.181275 0.092246
0.586533 0.263067 0.157522
0.670569 0.294426 0.237739
0.741613 0.306371 0.280762
0.795276 0.307771 0.293157
0.825031 0.307933 0.289551
0.821066 0.303057 0.284072
0.819496 0.300879 0.281496
0.818598 0.298750 0.278897
0.817587 0.297205 0.275178
0.548895 0.159454 0.040829
0.545458 0.157985 0.040305
0.537683 0.154596 0.039130
0.525983 0.149616 0.037616
0.496075 0.139981 0.034858
0.488770 0.137710 0.031613
0.511608 0.163850 0.058929
0.557923 0.221369 0.116436
0.675346 0.326850 0.182697
0.747084 0.364529 0.270340
0.797478 0.367932 0.320358
0.837754 0.353450 0.325193
0.837148 0.341041 0.316843
0.833840 0.334339 0.311618
0.831880 0.328494 0.307180
0.828848 0.320192 0.301025
0.669176 0.214928 0.057054
0.665591 0.213158 0.056591
0.658215 0.209653 0.055671
0.647513 0.204374 0.054319
0.623594 0.195278 0.052365
0.600432 0.187187 0.050617
0.599215 0.188690 0.048980
0.624863 0.220948 0.077192
0.654020 0.272755 0.146918
0.754055 0.381994 0.209564
0.813908 0.426916 0.289710
0.855185 0.432008 0.345123
0.864894 0.413764 0.350284
0.858620 0.401649 0.346173
0.854498 0.390812 0.342375
0.848806 0.376198 0.336481
0.784874 0.274738 0.067742
0.781695 0.272888 0.067428
0.775583 0.269476 0.066868
0.767042 0.264447 0.065988
0.752436 0.257806 0.064916
0.727982 0.249069 0.064413
0.714481 0.243375 0.063775
0.717705 0.250486 0.060424
0.739065 0.286241 0.098177
0.749399 0.328848 0.186176
0.820411 0.431505 0.238604
0.881832 0.486500 0.293170
0.902283 0.482727 0.338234
0.893410 0.472394 0.342237
0.887493 0.463600 0.345356
0.879249 0.449888 0.349672
0.905540 0.353474 0.082808
0.901554 0.350976 0.082252
0.895439 0.346996 0.081380
0.886145 0.340952 0.080031
0.874757 0.333042 0.078249
0.850616 0.321918 0.076844
0.825357 0.311616 0.075936
0.811547 0.304518 0.074132
0.820291 0.316016 0.074203
0.838333 0.353805 0.130492
0.839002 0.386175 0.224306
0.889095 0.474826 0.259449
0.931734 0.531720 0.273963
0.928312 0.519708 0.290665
0.923032 0.511023 0.301208
0.914297 0.499318 0.315527
0.973932 0.442865 0.102294
0.972503 0.439880 0.101703
0.970133 0.435122 0.100789
0.967214 0.429122 0.099630
0.963239 0.420447 0.097959
0.956636 0.410551 0.096159
0.942652 0.395297 0.094378
0.931881 0.382990 0.092984
0.917427 0.371892 0.088834
0.927711 0.382903 0.092598
0.933774 0.411831 0.141647
0.927775 0.437668 0.231627
0.938066 0.503623 0.277841
0.942313 0.544952 0.252966
0.941831 0.544545 0.235344
0.938878 0.540331 0.246290
0.979728 0.532462 0.111635
0.979374 0.529996 0.111602
0.979207 0.526765 0.111559
0.979100 0.522619 0.111366
0.978920 0.515503 0.110710
0.978731 0.507489 0.109970
0.978325 0.491301 0.110060
0.977720 0.472157 0.109172
0.974466 0.455072 0.107114
0.966009 0.443933 0.109550
0.963740 0.459300 0.105637
0.958043 0.505075 0.222960
0.952076 0.553815 0.363330
0.946515 0.600404 0.478110
0.945556 0.570228 0.399074
0.943924 0.537661 0.295330
0.978767 0.527460 0.110837
0.978706 0.527604 0.110838
0.978757 0.527936 0.110849
0.978817 0.528398 0.110882
0.978905 0.528981 0.110938
0.978942 0.529958 0.110985
0.978856 0.527776 0.111121
0.977789 0.518463 0.113878
0.977059 0.506369 0.110566
0.979798 0.528839 0.156875
0.981897 0.575662 0.330077
0.973737 0.654302 0.514778
0.961353 0.757342 0.764333
0.955369 0.803657 0.881018
0.953056 0.773551 0.839726
0.947352 0.705817 0.716099
0.978745 0.527208 0.110828
0.978745 0.527208 0.110828
0.978745 0.527208 0.110828
0.978745 0.527208 0.110828
0.978746 0.527210 0.110827
0.978770 0.527363 0.110816
0.978611 0.526996 0.110686
0.977690 0.519094 0.112853
0.976761 0.509525 0.111163
0.977500 0.514907 0.096540
0.984401 0.571088 0.292329
0.977297 0.658188 0.523766
0.967027 0.772969 0.805073
0.957831 0.864924 0.951493
0.952987 0.900854 0.962537
0.953758 0.892107 0.959703
0.978639 0.526392 0.110893
0.978639 0.526392 0.110893
0.978639 0.526392 0.110893
0.978639 0.526392 0.110893
0.978639 0.526392 0.110893
0.978652 0.526467 0.110889
0.978598 0.526515 0.110762
0.977821 0.519459 0.112404
0.976913 0.510577 0.113149
0.976667 0.506824 0.092115
0.982630 0.557354 0.243873
0.979356 0.630376 0.454988
0.967790 0.744420 0.737638
0.960001 0.834740 0.925420
0.952676 0.891347 0.952558
0.953123 0.887310 0.949395
1.019574 0.557424 0.113665
1.019469 0.557434 0.113198
1.018777 0.557303 0.112269
1.017054 0.557101 0.111113
1.014550 0.556730 0.109492
1.011465 0.556228 0.106464
1.007769 0.555703 0.101217
1.003327 0.548423 0.095885
0.998359 0.538978 0.090203
0.994341 0.530038 0.063966
0.997981 0.572338 0.193641
0.997949 0.636870 0.406174
0.986587 0.749164 0.684422
0.977833 0.851012 0.917758
0.967214 0.930912 0.984565
0.966249 0.936427 0.986184
-0.376866 -0.199688 0.043077
-0.377569 -0.198459 0.057130
-0.362627 -0.194804 0.080927
-0.236394 -0.181191 0.099478
0.247794 -0.164675 0.110935
0.407882 -0.127950 0.138256
0.529574 0.068067 0.169905
0.628955 0.166845 0.204703
0.704995 0.222931 0.233201
0.762107 0.258066 0.250948
0.787427 0.265552 0.247701
0.785762 0.239857 0.209527
0.786475 0.192976 -0.045258
0.787743 0.100431 -0.225847
0.788605 -0.130168 -0.272141
0.788966 -0.157820 -0.281761
-0.011202 0.056691 0.050769
-0.045805 0.054449 0.048932
0.084698 0.071022 0.075749
0.279343 0.096116 0.088134
0.389271 0.124066 0.101803
0.484480 0.158250 0.130469
0.577102 0.194662 0.161752
0.660902 0.232507 0.196722
0.729454 0.267848 0.226025
0.781943 0.296089 0.245322
0.807322 0.311146 0.251999
0.806371 0.310447 0.252945
0.806133 0.310210 0.253499
0.806042 0.310095 0.253999
0.806003 0.310056 0.254213
0.806011 0.310067 0.254176
-0.065893 0.057581 0.029182
-0.070471 0.053834 0.023050
-0.078967 0.065018 0.044544
0.187705 0.082014 0.060719
0.335082 0.107813 0.090422
0.445380 0.138331 0.122559
0.546263 0.175955 0.155290
0.636589 0.215335 0.190835
0.712824 0.255160 0.220175
0.765742 0.286575 0.243484
0.803991 0.309526 0.253496
0.806102 0.311312 0.254273
0.805653 0.310832 0.254151
0.805735 0.310647 0.254136
0.805798 0.310536 0.254129
0.805839 0.310470 0.254130
0.169963 0.065993 -0.011787
0.169969 0.063889 -0.013675
0.170236 0.062626 -0.019067
0.195923 0.073079 0.004671
0.288434 0.112022 0.059336
0.407384 0.145000 0.111121
0.513813 0.173038 0.156474
0.613406 0.205801 0.195746
0.699662 0.240575 0.224115
0.758025 0.269693 0.243743
0.806821 0.294706 0.254528
0.810593 0.299486 0.254177
0.808671 0.302349 0.253641
0.808116 0.304127 0.253567
0.807548 0.305902 0.253476
0.807090 0.307123 0.253540
0.320379 0.085522 0.018368
0.317587 0.084652 0.018133
0.306972 0.081497 0.016681
0.290257 0.074328 -0.006732
0.301300 0.085761 0.009485
0.378989 0.144634 0.070350
0.492003 0.196951 0.134925
0.589474 0.225966 0.197816
0.680725 0.251536 0.236018
0.745818 0.270782 0.257071
0.801476 0.289530 0.266946
0.817217 0.295390 0.265477
0.814589 0.294572 0.262226
0.814099 0.294500 0.260703
0.813656 0.294604 0.259338
0.812919 0.295085 0.258183
0.432960 0.116835 0.027411
0.430015 0.115812 0.027175
0.420826 0.112688 0.026391
0.402072 0.106313 0.024514
0.386633 0.101303 0.015606
0.402560 0.119025 0.037391
0.465883 0.179642 0.091384
0.583809 0.261411 0.155909
0.668067 0.293257 0.236391
0.740085 0.306233 0.279979
0.793723 0.308026 0.293337
0.825197 0.308462 0.290033
0.821346 0.303881 0.284799
0.819854 0.301935 0.282413
0.819087 0.300008 0.280006
0.817832 0.297486 0.276771
0.545895 0.158176 0.040390
0.542548 0.156737 0.039884
0.533831 0.152952 0.038566
0.522692 0.148215 0.037182
0.493354 0.139019 0.034506
0.485940 0.136654 0.031313
0.508506 0.162432 0.058522
0.555484 0.219750 0.115606
0.672783 0.324699 0.181282
0.745652 0.363580 0.268567
0.795911 0.368049 0.319941
0.837489 0.354142 0.325521
0.837345 0.341988 0.317278
0.834387 0.335415 0.312226
0.832258 0.329845 0.307938
0.829365 0.321832 0.302004
0.666606 0.213616 0.056710
0.662791 0.211835 0.056241
0.654248 0.207834 0.055200
0.644063 0.202740 0.053836
0.620005 0.193717 0.051918
0.597444 0.185821 0.050154
0.596496 0.187434 0.048706
0.621920 0.219389 0.076488
0.651525 0.270979 0.145797
0.752018 0.380102 0.208354
0.812443 0.426077 0.288011
0.854483 0.431738 0.344202
0.864970 0.414316 0.350684
0.858851 0.402434 0.346442
0.855180 0.391902 0.342676
0.849355 0.377711 0.336953
0.782823 0.273574 0.067536
0.779303 0.271549 0.067202
0.772342 0.267611 0.066535
0.764017 0.262760 0.065689
0.749510 0.256142 0.064667
0.725301 0.247569 0.064249
0.712370 0.242138 0.063600
0.715549 0.249295 0.060442
0.736940 0.284738 0.097202
0.747740 0.327485 0.185091
0.818644 0.429660 0.237961
0.880713 0.486077 0.292265
0.902168 0.482645 0.338067
0.893492 0.472643 0.342264
0.887654 0.464083 0.345261
0.879802 0.450734 0.349339
0.903173 0.352033 0.082495
0.899201 0.349576 0.081961
0.891172 0.344338 0.080794
0.882820 0.338725 0.079515
0.871940 0.331011 0.077855
0.847420 0.320182 0.076478
0.822914 0.310064 0.075641
0.809304 0.302979 0.073836
0.817937 0.314605 0.074017
0.836147 0.352328 0.129725
0.837182 0.384810 0.223326
0.887547 0.473202 0.259337
0.931144 0.531259 0.273906
0.927931 0.519697 0.290875
0.922840 0.511207 0.301102
0.914312 0.499719 0.315096
0.973259 0.441291 0.101957
0.971704 0.438078 0.101337
0.968941 0.432364 0.100230
0.965981 0.426622 0.099137
0.961739 0.418252 0.097495
0.955265 0.408540 0.095773
0.941273 0.393477 0.094017
0.929761 0.381428 0.092624
0.915290 0.370676 0.088624
0.926699 0.381855 0.092813
0.932571 0.410737 0.141983
0.927166 0.436865 0.231645
0.937897 0.502400 0.277079
0.942353 0.545141 0.253500
0.941717 0.544259 0.237449
0.938918 0.540452 0.246390
0.979533 0.531337 0.111629
0.979305 0.528868 0.111588
0.978947 0.524679 0.111529
0.978911 0.520402 0.111175
0.978781 0.513424 0.110527
0.978596 0.505501 0.109831
0.978140 0.489305 0.109972
0.977705 0.470468 0.108878
0.973448 0.453655 0.107088
0.965848 0.441982 0.107956
0.963250 0.456166 0.100112
0.957796 0.500667 0.214038
0.951788 0.549105 0.353842
0.946447 0.597427 0.472039
0.945565 0.569867 0.397129
0.943877 0.537489 0.294795
0.978693 0.527544 0.110836
0.978737 0.527747 0.110838
0.978796 0.528122 0.110860
0.978860 0.528546 0.110901
0.978944 0.529157 0.110954
0.978946 0.530010 0.110994
0.978813 0.527535 0.111096
0.977740 0.518085 0.113877
0.977035 0.505916 0.110667
0.979553 0.527607 0.156272
0.981557 0.573796 0.325834
0.973916 0.650072 0.504891
0.961536 0.752602 0.753799
0.955242 0.800382 0.874508
0.952707 0.771668 0.836102
0.947166 0.703902 0.713702
0.978745 0.527208 0.110828
0.978745 0.527208 0.110828
0.978745 0.527208 0.110828
0.978745 0.527208 0.110828
0.978746 0.527214 0.110828
0.978775 0.527390 0.110816
0.978594 0.526924 0.110704
0.977676 0.519008 0.112824
0.976778 0.509616 0.111362
0.977381 0.514457 0.095230
0.984379 0.570949 0.292061
0.977225 0.657353 0.521591
0.966881 0.772236 0.802083
0.958082 0.863753 0.950736
0.953034 0.900491 0.962447
0.953850 0.888782 0.957687
0.978639 0.526392 0.110893
0.978639 0.526392 0.110893
0.978639 0.526392 0.110893
0.978639 0.526392 0.110893
0.978639 0.526392 0.110893
0.978655 0.526481 0.110887
0.978575 0.526406 0.110775
0.977896 0.519353 0.112376
0.976904 0.510557 0.113260
0.976587 0.506459 0.090875
0.982714 0.557254 0.243947
0.979453 0.629822 0.453828
0.967932 0.743195 0.734803
0.960183 0.833296 0.924024
0.952667 0.891466 0.952704
0.953111 0.887467 0.949625
1.019575 0.556906 0.111569
1.019529 0.556895 0.110675
1.018869 0.556682 0.108483
1.016817 0.556312 0.105827
1.013644 0.555752 0.104208
1.010155 0.555321 0.103142
1.006583 0.554828 0.100355
1.002498 0.547682 0.097067
0.997861 0.538319 0.093758
0.994086 0.529980 0.072091
0.997728 0.572114 0.196378
0.997736 0.636586 0.406586
0.986488 0.747884 0.682626
0.977861 0.850130 0.916276
0.967229 0.930020 0.984260
0.966058 0.936364 0.986339
-0.376857 -0.172446 0.089787
-0.377266 -0.169854 0.096443
-0.374629 -0.164694 0.125085
-0.232225 -0.134381 0.151032
0.315725 0.019597 0.160787
0.464133 0.093161 0.159248
0.559743 0.143719 0.173536
0.645279 0.197981 0.199873
0.712604 0.239391 0.222060
0.767266 0.271549 0.236297
0.791193 0.275748 0.231660
0.789199 0.249901 0.190686
0.789560 0.204946 -0.110146
0.790266 0.124396 -0.239337
0.790932 -0.111598 -0.282414
0.790811 -0.146985 -0.290896
0.013170 0.113988 0.088411
-0.029196 0.115394 0.084083
-0.073818 0.125775 0.110290
0.284423 0.150514 0.138647
0.429217 0.184376 0.147755
0.524931 0.197259 0.147830
0.600209 0.218203 0.163015
0.674634 0.249204 0.190866
0.736143 0.278830 0.214061
0.785721 0.305109 0.231404
0.810430 0.317934 0.238259
0.808836 0.315783 0.240291
0.808188 0.314792 0.241701
0.807992 0.314124 0.242790
0.807703 0.313492 0.243995
0.807241 0.312805 0.245342
-0.009020 0.100388 0.089606
-0.019672 0.096990 0.085726
-0.078805 0.109373 0.103639
0.140647 0.139082 0.152019
0.373006 0.155553 0.141082
0.477770 0.170812 0.139559
0.566724 0.195949 0.156069
0.648060 0.228995 0.182391
0.717408 0.264800 0.208923
0.768473 0.293018 0.229746
0.806666 0.315519 0.240458
0.807791 0.315139 0.242615
0.807009 0.314056 0.244030
0.806853 0.313599 0.244996
0.806766 0.313103 0.246046
0.806514 0.312689 0.247134
-0.092184 0.100747 0.060201
-0.092139 0.098691 0.058014
-0.099022 0.097573 0.055648
-0.026573 0.126255 0.097063
0.275498 0.146557 0.118654
0.414203 0.165536 0.137571
0.520769 0.187877 0.162737
0.617132 0.217527 0.191329
0.699646 0.248439 0.215536
0.755904 0.273321 0.234485
0.806882 0.297585 0.244898
0.813630 0.302397 0.246182
0.811503 0.302578 0.246720
0.810946 0.303005 0.247117
0.810408 0.303480 0.247567
0.809993 0.303804 0.247768
0.251476 0.101070 -0.021167
0.253392 0.098804 -0.021381
0.246167 0.091987 -0.027619
0.272563 0.110943 -0.026959
0.309188 0.132687 0.069596
0.376477 0.170545 0.105408
0.486356 0.206574 0.150632
0.586844 0.232129 0.198739
0.678384 0.256163 0.231398
0.743808 0.273434 0.251094
0.799113 0.290542 0.263072
0.818709 0.296847 0.263881
0.815532 0.295634 0.261710
0.815068 0.295575 0.260723
0.814738 0.295524 0.259732
0.814238 0.295578 0.258620
0.424593 0.121405 0.026781
0.421715 0.119801 0.026528
0.412573 0.115736 0.025427
0.400317 0.116558 0.019219
0.397063 0.119652 0.007615
0.406634 0.134794 0.050900
0.463008 0.187737 0.099919
0.577352 0.261875 0.158623
0.663731 0.295061 0.234437
0.737687 0.308730 0.278127
0.791329 0.310541 0.293240
0.825635 0.310776 0.291599
0.822639 0.306768 0.287491
0.821094 0.304748 0.285251
0.820248 0.302932 0.283323
0.819195 0.300750 0.280701
0.541879 0.157061 0.037559
0.538529 0.155306 0.037508
0.530016 0.151622 0.037336
0.514838 0.145865 0.035265
0.490730 0.138998 0.031734
0.485705 0.139130 0.027264
0.504660 0.162566 0.058239
0.551519 0.217628 0.114486
0.667780 0.321003 0.177986
0.743737 0.362960 0.264121
0.794199 0.370484 0.319083
0.837138 0.357516 0.327415
0.838583 0.345487 0.319530
0.835639 0.339113 0.314718
0.833698 0.333876 0.310768
0.831320 0.327076 0.305653
0.662253 0.211506 0.055611
0.658394 0.209707 0.055567
0.650738 0.206066 0.054091
0.636907 0.199266 0.051387
