public/kits/editing-mini-guide/luts/cinematic-v1-log-15.cube
LUT_3D_SIZE 6
0.000252 0.001266 0.000570
0.243681 0.015720 0.023248
0.763987 0.049006 0.100381
0.893350 0.081297 0.177969
0.905657 0.088951 0.214114
0.916114 0.101614 0.226695
0.010325 0.136226 0.021551
0.120580 0.129948 0.015162
0.749487 0.078001 0.095060
0.893008 0.103348 0.177278
0.905703 0.113169 0.213988
0.916238 0.125107 0.226787
0.046918 0.467976 0.069467
0.056048 0.467362 0.069060
0.398306 0.467390 0.055694
0.872445 0.462989 0.131567
0.892779 0.425994 0.181279
0.906738 0.407900 0.198392
0.255662 0.671817 0.196722
0.262823 0.672153 0.196592
0.263716 0.667088 0.190604
0.592348 0.683800 0.165103
0.769783 0.692030 0.125594
0.803638 0.687420 0.147820
0.323780 0.745154 0.256387
0.330342 0.746257 0.256979
0.336631 0.747420 0.257181
0.384867 0.755421 0.252733
0.753723 0.823158 0.190260
0.807123 0.834390 0.169507
0.334450 0.764366 0.264446
0.341721 0.765627 0.264966
0.348590 0.766895 0.265189
0.358368 0.768541 0.264886
0.712094 0.836906 0.212834
0.817059 0.861426 0.171641
0.000839 0.025919 0.108326
0.242597 0.016893 0.103967
0.762282 0.048947 0.144977
0.893520 0.077030 0.215705
0.905809 0.089910 0.249817
0.916637 0.102829 0.261169
0.004532 0.131590 0.092185
0.136375 0.128633 0.094667
0.738481 0.131351 0.132380
0.893151 0.119768 0.211494
0.906271 0.118789 0.246850
0.916874 0.130654 0.257946
0.046315 0.466111 0.071847
0.055637 0.464849 0.071738
0.405973 0.464268 0.066429
0.877132 0.441930 0.177729
0.892729 0.436070 0.221096
0.905463 0.433281 0.235721
0.254143 0.670786 0.206145
0.260927 0.670519 0.205844
0.261311 0.665603 0.200141
0.598588 0.681431 0.170622
0.785541 0.685361 0.162822
0.819110 0.677625 0.181957
0.323461 0.745033 0.264383
0.330466 0.746239 0.265311
0.336469 0.747391 0.265508
0.398438 0.757842 0.260030
0.759432 0.824583 0.198710
0.808624 0.833815 0.179861
0.334097 0.764411 0.272540
0.341909 0.765771 0.273610
0.348397 0.766801 0.273798
0.358968 0.768562 0.273403
0.720240 0.838958 0.220692
0.822522 0.862949 0.181512
0.004565 0.098567 0.387442
0.160767 0.093757 0.396782
0.750358 0.064578 0.409617
0.890155 0.113337 0.416946
0.902192 0.125973 0.424944
0.913814 0.135871 0.425418
0.004497 0.098326 0.379076
0.091777 0.096129 0.381231
0.730897 0.075624 0.404882
0.891428 0.132084 0.409743
0.903392 0.146618 0.421890
0.914656 0.156723 0.423092
0.026824 0.442194 0.342495
0.036905 0.440409 0.343182
0.499410 0.459046 0.375159
0.876779 0.468505 0.376455
0.891786 0.463102 0.390605
0.903620 0.464330 0.396652
0.231543 0.656826 0.303218
0.237555 0.656317 0.307648
0.235724 0.649669 0.324598
0.643097 0.681288 0.310178
0.833234 0.683280 0.321887
0.857146 0.674861 0.333737
0.322963 0.744866 0.272620
0.329868 0.746098 0.274997
0.335113 0.746662 0.283875
0.392908 0.755997 0.324013
0.784550 0.832185 0.312982
0.840570 0.842662 0.310727
0.333808 0.764237 0.280988
0.341529 0.765625 0.281760
0.347505 0.766509 0.289470
0.354349 0.767070 0.317821
0.733927 0.843901 0.318265
0.846288 0.871313 0.303346
0.033436 0.261954 0.563597
0.150584 0.257515 0.563768
0.700528 0.263677 0.637437
0.867488 0.294933 0.643716
0.880542 0.301804 0.647090
0.893276 0.303858 0.644630
0.035106 0.269562 0.563029
0.114989 0.269118 0.563672
0.694466 0.277513 0.639171
0.868256 0.306728 0.645900
0.881811 0.310170 0.645553
0.894793 0.310117 0.640479
0.055175 0.408952 0.532011
0.067088 0.409194 0.533565
0.429154 0.425802 0.594394
0.865529 0.410042 0.624361
0.881042 0.401434 0.623418
0.893927 0.397613 0.621771
0.221075 0.628023 0.528258
0.227102 0.627419 0.529493
0.229968 0.622998 0.531917
0.718137 0.668469 0.586861
0.866255 0.679807 0.587654
0.882493 0.681728 0.589951
0.293677 0.731077 0.518938
0.300068 0.731682 0.521707
0.305947 0.732130 0.525862
0.357103 0.738152 0.539819
0.831428 0.831615 0.566415
0.885599 0.837180 0.565092
0.300311 0.751263 0.503718
0.306679 0.752159 0.506376
0.312380 0.752978 0.511867
0.319344 0.753599 0.523887
0.770466 0.853305 0.556620
0.887904 0.883520 0.546322
0.105979 0.353251 0.638126
0.176427 0.352743 0.640168
0.665153 0.371836 0.724165
0.854488 0.379199 0.727576
0.869233 0.380829 0.726980
0.882112 0.381916 0.725865
0.106026 0.358035 0.638063
0.157193 0.358964 0.640265
0.661925 0.379890 0.725194
0.855472 0.387044 0.729048
0.869664 0.388758 0.728745
0.882528 0.390018 0.727486
0.095477 0.412635 0.622916
0.107600 0.413230 0.624614
0.403073 0.419268 0.667954
0.852864 0.416705 0.727851
0.869624 0.399856 0.729265
0.882236 0.404913 0.728139
0.224582 0.608673 0.609432
0.230507 0.608626 0.611293
0.234885 0.606575 0.615088
0.710922 0.656257 0.714703
0.861304 0.653935 0.728366
0.876600 0.655487 0.729852
0.300208 0.724652 0.637576
0.306967 0.724532 0.639155
0.313396 0.723364 0.642638
0.356324 0.724495 0.657814
0.859011 0.816585 0.765085
0.910722 0.826941 0.774824
0.300346 0.754379 0.644070
0.307672 0.755425 0.646692
0.315036 0.756457 0.650796
0.322438 0.757671 0.658437
0.794243 0.859520 0.774279
0.913387 0.889369 0.788301
0.116318 0.374785 0.657313
0.183082 0.374378 0.659371
0.646033 0.391035 0.739020
0.850996 0.395100 0.744407
0.865504 0.396407 0.743735
0.879047 0.398248 0.743339
0.117028 0.379293 0.657775
0.169153 0.379845 0.659587
0.646414 0.398158 0.740448
0.851892 0.402949 0.746035
0.866327 0.404307 0.745451
0.879819 0.406146 0.745042
0.116771 0.411138 0.653262
0.127791 0.412726 0.654161
0.401281 0.422666 0.689108
0.849894 0.417795 0.746441
0.866437 0.414103 0.746202
0.879673 0.415243 0.745931
0.226269 0.602740 0.639126
0.231766 0.603304 0.640795
0.237996 0.603434 0.644697
0.694916 0.652896 0.741163
0.856347 0.649876 0.753193
0.871208 0.646847 0.753289
0.300330 0.718808 0.668217
0.307201 0.718482 0.669543
0.313635 0.718310 0.673066
0.356337 0.720032 0.688254
0.857224 0.812798 0.821737
0.908083 0.819315 0.832915
0.299783 0.756514 0.683402
0.307876 0.757558 0.685757
0.315432 0.758812 0.690426
0.322302 0.760350 0.699075
0.796854 0.861926 0.835682
0.915245 0.887845 0.862990
