public/kits/editing-mini-guide/luts/cinematic-v1-log-34.cube
LUT_3D_SIZE 6
-0.008934 -0.003345 -0.001048
0.261470 0.070273 0.059790
0.585955 0.195000 0.174767
0.786753 0.297471 0.249346
0.806017 0.310050 0.254132
0.806017 0.310050 0.254132
0.206209 0.061547 0.007407
0.200758 0.062589 -0.019349
0.517744 0.175220 0.159053
0.760731 0.270805 0.244189
0.808311 0.302894 0.253741
0.806578 0.308351 0.253605
0.550696 0.160206 0.041075
0.526868 0.150015 0.037744
0.513075 0.164584 0.059266
0.748099 0.365495 0.270403
0.837295 0.341908 0.317435
0.828979 0.320651 0.301494
0.907333 0.354500 0.083062
0.887505 0.341725 0.080196
0.826656 0.312320 0.076107
0.839513 0.354554 0.130949
0.932288 0.532304 0.273494
0.914594 0.499867 0.314868
0.978776 0.527392 0.110835
0.978823 0.528307 0.110875
0.978841 0.527742 0.111163
0.979931 0.529937 0.158916
0.961269 0.759927 0.770352
0.947252 0.708490 0.720610
1.019575 0.557588 0.114558
1.017560 0.557332 0.112916
1.008147 0.555858 0.099751
0.994433 0.530325 0.060735
0.986582 0.750612 0.687297
0.966264 0.936406 0.986159
-0.376857 -0.172446 0.089787
-0.232225 -0.134381 0.151032
0.559743 0.143719 0.173536
0.767266 0.271549 0.236297
0.789560 0.204946 -0.110146
0.790811 -0.146985 -0.290896
-0.092184 0.100747 0.060201
-0.026573 0.126255 0.097063
0.520769 0.187877 0.162737
0.755904 0.273321 0.234485
0.811503 0.302578 0.246720
0.809993 0.303804 0.247768
0.541879 0.157061 0.037559
0.514838 0.145865 0.035265
0.504660 0.162566 0.058239
0.743737 0.362960 0.264121
0.838583 0.345487 0.319530
0.831320 0.327076 0.305653
0.899717 0.349787 0.082002
0.875724 0.334156 0.078515
0.818567 0.307422 0.075114
0.832505 0.350114 0.128675
0.930731 0.531232 0.272968
0.915781 0.501419 0.313096
0.978727 0.527733 0.110839
0.978891 0.528868 0.110930
0.978690 0.526884 0.111149
0.979551 0.527292 0.158961
0.961562 0.747613 0.742223
0.947197 0.704939 0.714265
1.019571 0.556091 0.108916
1.017395 0.555092 0.099106
1.004948 0.552458 0.094935
0.993466 0.529843 0.076960
0.985813 0.748801 0.685954
0.965597 0.936145 0.986507
-0.375599 0.203011 0.174225
-0.378387 0.244732 0.203395
0.635096 0.426240 0.291250
0.815502 0.411122 0.281882
0.828405 0.340639 -0.098150
0.825860 0.237742 -0.302220
0.034186 0.219957 0.177346
-0.035755 0.226719 0.190879
0.591772 0.378077 0.281624
0.800484 0.374994 0.249645
0.838183 0.370714 0.230787
0.833443 0.359192 0.223460
-0.151281 0.234270 0.178072
-0.145744 0.221159 0.163750
0.334897 0.347257 0.305922
0.735207 0.409288 0.351472
0.849782 0.373558 0.314405
0.845230 0.365807 0.306676
0.888010 0.384271 0.059210
0.865288 0.366897 0.057461
0.822649 0.375325 0.068149
0.819785 0.409879 0.220213
0.925420 0.554983 0.295203
0.917746 0.532730 0.327603
0.978720 0.527433 0.086907
0.978726 0.527970 0.087475
0.978458 0.523825 0.085135
0.979340 0.524615 0.142395
0.963231 0.720469 0.668374
0.947806 0.711726 0.704187
1.019463 0.551513 0.082088
1.019610 0.550222 0.069309
1.005605 0.537460 -0.101427
0.990803 0.517935 -0.131960
0.983112 0.747124 0.684634
0.962815 0.933323 0.985110
-0.374868 0.336496 0.257185
-0.374426 0.357230 0.274324
0.279262 0.528391 0.470149
0.856619 0.591729 0.675608
0.878484 0.567648 0.611498
0.868816 0.524635 0.496899
0.054874 0.359762 0.272399
0.046974 0.358174 0.275156
0.079126 0.452467 0.396048
0.841123 0.570704 0.569971
0.877531 0.570442 0.557655
0.864428 0.549978 0.495711
0.036724 0.338379 0.343610
0.035703 0.326958 0.323977
0.086605 0.387215 0.436973
0.710670 0.504291 0.715781
0.880653 0.521885 0.579738
0.863217 0.494161 0.494478
-0.212365 0.441787 0.475102
-0.205319 0.426518 0.450740
-0.185700 0.435626 0.450703
0.628260 0.647703 0.607229
0.895338 0.662251 0.621236
0.904364 0.632934 0.596028
0.991921 0.659241 0.034421
0.992631 0.654001 0.036797
0.993944 0.645931 0.025755
0.991371 0.651434 0.185452
0.968381 0.760427 0.643039
0.953298 0.786878 0.731365
1.028934 0.642413 -0.084617
1.028847 0.640821 -0.093370
1.022136 0.632936 -0.170879
1.001878 0.654914 -0.213144
0.982624 0.801635 0.675726
0.957879 0.951397 0.946038
-0.317283 0.273111 0.243583
-0.323779 0.294355 0.257933
0.162926 0.475579 0.410004
0.846475 0.558591 0.683957
0.886736 0.556784 0.681855
0.889079 0.537590 0.655381
0.060779 0.365654 0.271036
0.053410 0.370368 0.280774
-0.080873 0.462620 0.382930
0.829368 0.569573 0.658883
0.895673 0.592144 0.685001
0.894940 0.594100 0.683351
0.047306 0.364340 0.367916
0.047208 0.362363 0.362818
0.049539 0.434438 0.498785
0.501383 0.531282 0.758421
0.900604 0.566982 0.813576
0.898647 0.565070 0.806395
0.054766 0.500254 0.645723
0.062232 0.492360 0.632689
0.107455 0.505048 0.641975
0.364404 0.597040 0.765904
0.862435 0.675360 0.911108
0.896559 0.656387 0.905428
0.205377 0.685035 0.840120
0.205587 0.686889 0.837302
0.212306 0.698096 0.809357
0.483202 0.807677 0.677328
0.880336 0.913188 0.826037
0.949824 0.913582 0.864475
0.505715 0.802630 0.401914
0.529514 0.801034 0.365012
0.563369 0.809319 0.267197
0.652787 0.851027 0.236572
0.923895 0.961194 0.710607
0.953776 1.002798 0.929593
-0.037997 0.313067 -0.231597
-0.034969 0.326123 -0.217165
0.299642 0.475148 0.225717
0.858777 0.561716 0.618064
0.900703 0.544088 0.654594
0.889876 0.530345 0.654358
0.063883 0.366316 0.268630
0.054371 0.370514 0.280299
-0.082149 0.450415 0.366813
0.808900 0.565367 0.644726
0.896532 0.591745 0.686717
0.894693 0.594948 0.683584
0.047080 0.363248 0.361124
0.046485 0.363718 0.361985
0.049676 0.433743 0.497549
0.415369 0.520491 0.722962
0.895208 0.566636 0.815822
0.898983 0.564802 0.805306
0.073823 0.474695 0.599722
0.074888 0.469103 0.590088
0.108068 0.491791 0.617721
0.362853 0.595217 0.764567
0.825427 0.676828 0.909737
0.886088 0.661082 0.906250
0.284430 0.672171 0.849989
0.305889 0.671597 0.850431
0.370406 0.667713 0.848662
0.622954 0.751899 0.901781
0.866209 0.899301 0.927744
0.947707 0.909986 0.926756
0.235796 0.685821 0.851847
0.235796 0.685821 0.851846
0.234371 0.685437 0.851826
0.468183 0.758542 0.890505
0.846418 0.934161 0.921874
0.943879 0.989972 0.922938
