public/kits/editing-mini-guide/luts/cinematic-v1-log-09.cube
LUT_3D_SIZE 6
0.002680 0.002380 0.002081
0.188285 0.025403 0.015728
0.519852 0.053014 0.062955
0.659092 0.079817 0.111485
0.678639 0.087185 0.129623
0.693564 0.093422 0.137939
0.032630 0.120489 0.055547
0.175009 0.150421 0.056231
0.543085 0.075535 0.069126
0.669885 0.092848 0.116991
0.688838 0.101001 0.136059
0.703448 0.107488 0.144592
0.133935 0.412280 0.180484
0.145334 0.414379 0.184107
0.573605 0.527651 0.233479
0.773604 0.494576 0.307622
0.777276 0.451612 0.315273
0.783189 0.431330 0.312939
0.264213 0.659760 0.301750
0.281905 0.661412 0.304827
0.298000 0.654805 0.307876
0.779365 0.757880 0.271201
0.886411 0.749028 0.247835
0.899661 0.738375 0.292738
0.256886 0.791353 0.271829
0.277135 0.793592 0.273038
0.297292 0.795905 0.273899
0.433079 0.819839 0.264177
0.907428 0.915083 0.166474
0.958099 0.920033 0.151827
0.248841 0.825689 0.258646
0.269450 0.827731 0.259569
0.290031 0.829626 0.260161
0.322767 0.833527 0.259933
0.861799 0.939152 0.163353
0.961787 0.952573 0.134542
0.014864 0.008117 0.036396
0.187161 0.030494 0.037152
0.528228 0.054971 0.079626
0.665156 0.082144 0.126948
0.684412 0.089582 0.142344
0.699135 0.096159 0.149950
0.031000 0.114403 0.100717
0.152733 0.137255 0.105991
0.586356 0.123742 0.107512
0.683455 0.106947 0.137500
0.696255 0.106837 0.150012
0.710518 0.113895 0.157937
0.133087 0.413290 0.193457
0.143920 0.414830 0.196364
0.573289 0.524341 0.253458
0.772127 0.468989 0.322976
0.784943 0.462289 0.342788
0.794498 0.459917 0.349104
0.262892 0.659213 0.316934
0.280628 0.660165 0.320302
0.295636 0.653614 0.322654
0.781304 0.754365 0.288481
0.884432 0.738241 0.317896
0.896383 0.724537 0.359470
0.255549 0.792030 0.288636
0.276570 0.794524 0.290658
0.295856 0.796746 0.291402
0.468055 0.826667 0.279700
0.911042 0.915555 0.187122
0.957674 0.918634 0.174596
0.247419 0.826352 0.275781
0.269152 0.828523 0.277723
0.288740 0.830540 0.278201
0.324230 0.834666 0.277915
0.868319 0.939952 0.183356
0.965548 0.953076 0.156140
0.042354 0.020406 0.078598
0.143428 0.039511 0.083558
0.564409 0.064668 0.100109
0.704159 0.095608 0.152906
0.718336 0.103709 0.160487
0.730393 0.111251 0.168212
0.042499 0.031960 0.088742
0.109046 0.046651 0.095352
0.565627 0.076011 0.103417
0.713377 0.112588 0.163256
0.727670 0.121153 0.170980
0.739195 0.128669 0.178747
0.075713 0.387005 0.399333
0.082709 0.391567 0.403537
0.550477 0.518399 0.480554
0.811031 0.501939 0.434413
0.822930 0.498785 0.438130
0.833514 0.500879 0.442849
0.238178 0.653085 0.457330
0.254124 0.655637 0.464448
0.264488 0.651377 0.485109
0.781436 0.751275 0.496897
0.891854 0.725794 0.497663
0.903823 0.712427 0.501854
0.254005 0.792661 0.305483
0.274558 0.795376 0.310113
0.292086 0.798680 0.328901
0.450818 0.828799 0.411403
0.911840 0.918151 0.417258
0.960825 0.919530 0.425047
0.245915 0.826657 0.292963
0.267615 0.829059 0.294120
0.286259 0.831746 0.310337
0.312605 0.838151 0.372016
0.865968 0.942615 0.385992
0.966852 0.955458 0.388779
0.062913 0.033043 0.107513
0.137199 0.050979 0.115806
0.569925 0.082365 0.111769
0.736792 0.126880 0.154392
0.749456 0.136338 0.162669
0.761054 0.144589 0.170270
0.063069 0.045198 0.119863
0.115032 0.059933 0.129042
0.582344 0.096913 0.121424
0.745091 0.145841 0.169364
0.756986 0.154391 0.177450
0.767956 0.161975 0.185052
0.062421 0.308212 0.384626
0.069013 0.313590 0.390181
0.516765 0.430245 0.462304
0.805637 0.416415 0.410154
0.811174 0.401931 0.396432
0.817831 0.395479 0.390788
0.211075 0.624016 0.625913
0.227122 0.627179 0.628492
0.239946 0.624976 0.629712
0.804964 0.760380 0.734623
0.915137 0.742438 0.710398
0.929707 0.739889 0.708446
0.218556 0.802019 0.650084
0.239483 0.805152 0.654326
0.259236 0.808013 0.660042
0.400329 0.830926 0.682208
0.914736 0.912501 0.700931
0.964809 0.907074 0.698304
0.212208 0.835059 0.630982
0.233893 0.838029 0.634969
0.254111 0.841179 0.642109
0.278826 0.845190 0.656683
0.864577 0.948981 0.673493
0.970799 0.962039 0.666676
0.073396 0.041605 0.123973
0.137664 0.058012 0.132046
0.569344 0.093052 0.126336
0.742734 0.143860 0.167524
0.755377 0.152878 0.175224
0.766850 0.161526 0.182745
0.073345 0.053451 0.136763
0.120136 0.067776 0.145980
0.583618 0.108122 0.137521
0.750576 0.162758 0.183659
0.762513 0.171551 0.191511
0.773764 0.179960 0.199179
0.068367 0.226586 0.317883
0.073773 0.231530 0.323338
0.489429 0.304013 0.340984
0.776798 0.268620 0.279176
0.773173 0.205970 0.222286
0.786349 0.228452 0.243379
0.198560 0.595624 0.654924
0.216091 0.600259 0.658231
0.231039 0.601947 0.660779
0.808334 0.748462 0.795104
0.924573 0.725658 0.793042
0.938343 0.723206 0.794500
0.216821 0.793401 0.771627
0.237854 0.794221 0.773718
0.257861 0.794057 0.777985
0.382424 0.808165 0.800934
0.919305 0.899204 0.878077
0.971933 0.899840 0.881764
0.203631 0.843044 0.784991
0.225408 0.845756 0.788539
0.245896 0.848602 0.793592
0.265918 0.851980 0.803045
0.869009 0.959566 0.878103
0.976190 0.970968 0.885650
0.076247 0.043810 0.128498
0.135179 0.059450 0.136265
0.561325 0.095035 0.129636
0.743453 0.147503 0.170912
0.756139 0.156508 0.178450
0.768094 0.165671 0.186364
0.076254 0.055642 0.141420
0.121505 0.069912 0.150495
0.578760 0.110146 0.141029
0.751357 0.166411 0.187265
0.763322 0.175112 0.194982
0.774798 0.183973 0.202920
0.073677 0.163330 0.256741
0.079546 0.172288 0.266997
0.476056 0.249369 0.288069
0.764278 0.218436 0.234155
0.772717 0.203844 0.220842
0.783130 0.210019 0.226792
0.191396 0.581671 0.657285
0.209886 0.587797 0.661981
0.227262 0.592720 0.666487
0.805550 0.741773 0.806457
0.923457 0.718196 0.802168
0.935706 0.710793 0.799263
0.218203 0.784222 0.803812
0.239113 0.784847 0.805405
0.258762 0.785979 0.809498
0.383635 0.801436 0.832938
0.921324 0.895377 0.926316
0.974121 0.892940 0.932596
0.201320 0.846499 0.831466
0.223175 0.849178 0.834347
0.243762 0.851938 0.840035
0.263785 0.855395 0.851045
0.868576 0.960013 0.940391
0.977207 0.968433 0.954309
