public/kits/editing-mini-guide/luts/cinematic-v1-log-02.cube
LUT_3D_SIZE 16
0.000710 0.023203 0.021630
0.000741 0.023494 0.021755
0.036167 0.025797 0.024394
0.150194 0.032324 0.030127
0.280309 0.035840 0.041166
0.413469 0.034324 0.059808
0.533568 0.031522 0.081807
0.647990 0.029129 0.106919
0.720891 0.028438 0.133025
0.727224 0.028768 0.150600
0.733683 0.028975 0.163829
0.740410 0.029087 0.174014
0.747640 0.029073 0.181548
0.755500 0.028886 0.187036
0.763505 0.028647 0.190881
0.771519 0.028369 0.193340
0.000728 0.026005 0.022290
0.000750 0.027117 0.022538
0.034399 0.028376 0.024778
0.149392 0.036117 0.030472
0.280084 0.040162 0.040835
0.413679 0.039777 0.059561
0.533404 0.037517 0.081604
0.647627 0.034882 0.106592
0.723616 0.034130 0.132791
0.729649 0.034372 0.151199
0.736033 0.034561 0.164456
0.742873 0.034582 0.174680
0.750085 0.034572 0.182200
0.757871 0.034463 0.187711
0.765926 0.034196 0.191523
0.773924 0.033864 0.194004
0.000446 0.054731 0.028532
0.000443 0.055517 0.028789
0.016179 0.060640 0.029397
0.156382 0.062447 0.033251
0.286849 0.053137 0.041094
0.413531 0.045362 0.058820
0.532858 0.043620 0.080999
0.646916 0.040652 0.105904
0.726110 0.039873 0.132361
0.732234 0.039981 0.151458
0.738628 0.040107 0.164793
0.745186 0.040136 0.175092
0.752430 0.040048 0.182680
0.760334 0.039945 0.188145
0.768354 0.039739 0.191942
0.776161 0.039390 0.194440
0.000575 0.111302 0.042002
0.000693 0.112343 0.042396
0.000770 0.113248 0.042733
0.079659 0.135122 0.042189
0.319157 0.159425 0.046021
0.455901 0.127259 0.064999
0.545577 0.076299 0.080497
0.647392 0.052229 0.103850
0.728707 0.045782 0.130221
0.734944 0.045583 0.149968
0.741481 0.045629 0.163651
0.748115 0.045643 0.174077
0.755235 0.045581 0.181740
0.762949 0.045402 0.187324
0.771189 0.045202 0.191169
0.779047 0.044902 0.193658
0.000888 0.172460 0.055791
0.000971 0.174641 0.056376
0.000992 0.176751 0.056967
0.000997 0.178044 0.057393
0.170329 0.243184 0.063228
0.471128 0.282547 0.060533
0.608256 0.258583 0.095795
0.709125 0.217846 0.117393
0.777016 0.161404 0.134996
0.757189 0.091230 0.148449
0.753858 0.070078 0.160921
0.756557 0.061028 0.171261
0.760200 0.053677 0.178545
0.766655 0.051009 0.184022
0.774729 0.050784 0.188039
0.782563 0.050488 0.190638
0.008787 0.242259 0.070215
0.009238 0.244779 0.070819
0.009660 0.247285 0.071420
0.010030 0.249370 0.071918
0.010030 0.249010 0.072084
0.298555 0.373353 0.093423
0.582016 0.412131 0.060683
0.728046 0.388690 0.114353
0.838595 0.356308 0.144235
0.861276 0.319413 0.166725
0.857259 0.287606 0.181225
0.852490 0.258982 0.190374
0.847164 0.231197 0.195235
0.843936 0.208021 0.197738
0.845363 0.195523 0.199386
0.845739 0.180393 0.199675
0.026179 0.313648 0.087957
0.026566 0.315812 0.089004
0.026990 0.318099 0.090055
0.027334 0.320160 0.091015
0.027170 0.320406 0.091331
0.038218 0.335975 0.097091
0.426022 0.487856 0.134683
0.676130 0.517921 0.061924
0.828348 0.497021 0.114387
0.904559 0.471118 0.158912
0.910843 0.451156 0.182036
0.916063 0.434800 0.196428
0.921264 0.420819 0.206076
0.926671 0.410786 0.213041
0.932317 0.402556 0.216928
0.936575 0.392633 0.218506
0.046339 0.376522 0.110773
0.046815 0.378235 0.111773
0.047394 0.380181 0.112848
0.047938 0.381965 0.113876
0.047879 0.382385 0.114287
0.047388 0.381564 0.114259
0.098464 0.415884 0.132209
0.543600 0.577967 0.163497
0.761876 0.607929 0.068785
0.904778 0.593596 0.103244
0.930403 0.577157 0.151843
0.939373 0.565037 0.174327
0.947906 0.555137 0.188904
0.956773 0.548256 0.198169
0.965189 0.542853 0.204155
0.972629 0.535468 0.207750
0.069070 0.431718 0.134977
0.069479 0.433160 0.135971
0.069869 0.434609 0.136949
0.070249 0.436054 0.137917
0.070138 0.436363 0.138328
0.069695 0.435836 0.138340
0.069242 0.435361 0.138488
0.217668 0.502751 0.180127
0.650639 0.653445 0.176066
0.843615 0.691266 0.070614
0.928292 0.686849 0.074948
0.941891 0.677961 0.118014
0.953552 0.670740 0.142679
0.964196 0.665934 0.156009
0.974261 0.661911 0.164096
0.983907 0.655780 0.170240
0.088773 0.478855 0.158774
0.089151 0.480042 0.159693
0.089510 0.481333 0.160616
0.089800 0.482579 0.161520
0.089743 0.482842 0.161959
0.089463 0.482735 0.162140
0.088875 0.481940 0.161920
0.089517 0.482371 0.162463
0.354417 0.585355 0.224959
0.744612 0.723441 0.184313
0.892580 0.768069 0.094134
0.932772 0.770564 0.069012
0.943043 0.766989 0.065715
0.954928 0.764746 0.085373
0.966069 0.762719 0.095020
0.977071 0.758555 0.103827
0.105479 0.515618 0.178745
0.105942 0.516984 0.179752
0.106394 0.518406 0.180770
0.106851 0.519745 0.181820
0.106930 0.520490 0.182456
0.106809 0.520711 0.182900
0.106535 0.520581 0.183084
0.106005 0.519970 0.182994
0.123669 0.529371 0.189509
0.562726 0.686546 0.262160
0.819642 0.783103 0.193858
0.919117 0.823042 0.129637
0.940424 0.827438 0.112818
0.949130 0.827766 0.105186
0.958217 0.827766 0.098348
0.967371 0.826221 0.090594
0.113071 0.532447 0.187983
0.113501 0.533931 0.189109
0.113949 0.535449 0.190208
0.114439 0.536975 0.191338
0.114901 0.538423 0.192442
0.115337 0.539887 0.193495
0.115746 0.541367 0.194531
0.116048 0.542619 0.195549
0.116059 0.543359 0.196165
0.293940 0.614454 0.245902
0.723694 0.767319 0.258278
0.874906 0.832965 0.203012
0.935655 0.861418 0.164093
0.947910 0.865821 0.153484
0.955703 0.867443 0.146371
0.963379 0.867827 0.138305
0.115163 0.537195 0.190610
0.115574 0.538663 0.191727
0.115997 0.540119 0.192817
0.116446 0.541636 0.193938
0.116885 0.543099 0.194999
0.117313 0.544578 0.196112
0.117776 0.546079 0.197156
0.118180 0.547472 0.198259
0.118520 0.548920 0.199316
0.159630 0.569969 0.215555
0.620526 0.733600 0.285015
0.826987 0.820007 0.236108
0.909761 0.859189 0.198036
0.945703 0.878374 0.175234
0.954614 0.882861 0.168796
0.961483 0.885792 0.163619
0.117108 0.541698 0.193111
0.117450 0.543153 0.194178
0.117857 0.544620 0.195266
0.118280 0.546090 0.196381
0.118736 0.547527 0.197501
0.119172 0.548960 0.198560
0.119610 0.550460 0.199631
0.120129 0.551843 0.200712
0.120541 0.553341 0.201868
0.129515 0.561476 0.206089
0.521604 0.701673 0.289320
0.787109 0.806998 0.252958
0.888759 0.853047 0.215759
0.932222 0.875487 0.191511
0.953434 0.887225 0.177107
0.960630 0.890779 0.171669
0.119043 0.546206 0.195565
0.119392 0.547594 0.196594
0.119727 0.549025 0.197720
0.120149 0.550469 0.198801
0.120575 0.551866 0.199899
0.121001 0.553368 0.200982
0.121431 0.554788 0.202084
0.121940 0.556223 0.203200
0.122455 0.557655 0.204337
0.123657 0.563304 0.209426
0.410211 0.667710 0.277483
0.751211 0.795050 0.266227
0.870575 0.849116 0.229884
0.920586 0.873796 0.205270
0.946820 0.888348 0.188932
0.959844 0.895334 0.179477
0.120879 0.550411 0.197897
0.121196 0.551804 0.198969
0.121538 0.553237 0.200026
0.121882 0.554660 0.201050
0.122291 0.556005 0.202186
0.122734 0.557430 0.203268
0.123175 0.558921 0.204347
0.123667 0.560334 0.205522
0.124174 0.561738 0.206650
0.125308 0.565296 0.209553
0.310375 0.635924 0.259944
0.711926 0.781441 0.279008
0.851145 0.845048 0.241912
0.911817 0.873505 0.216229
0.940667 0.889002 0.199705
0.956395 0.898482 0.189043
0.000744 0.023537 0.022431
0.000767 0.023600 0.022445
0.035239 0.025715 0.025226
0.149174 0.032259 0.031755
0.279543 0.035360 0.043318
0.412766 0.033491 0.063331
0.532548 0.030774 0.086293
0.647040 0.029095 0.112496
0.720020 0.028630 0.139495
0.725842 0.029002 0.156857
0.732098 0.029219 0.170035
0.738668 0.029344 0.180170
0.745901 0.029326 0.187721
0.753493 0.029149 0.193131
0.761635 0.028901 0.196922
0.769543 0.028629 0.199381
0.000756 0.025876 0.022948
0.000766 0.027188 0.023306
0.032903 0.028546 0.025881
0.146895 0.035994 0.032084
0.276837 0.039860 0.042666
0.409631 0.039458 0.062401
0.528532 0.037301 0.085163
0.642268 0.035240 0.110917
0.722933 0.034748 0.138230
0.728792 0.035089 0.156647
0.734952 0.035298 0.169905
0.741653 0.035366 0.180101
0.748880 0.035376 0.187654
0.756497 0.035244 0.193076
0.764609 0.034973 0.196757
0.772690 0.034677 0.199183
0.000461 0.054324 0.028899
0.000458 0.055396 0.029295
0.017080 0.060536 0.030319
0.158907 0.066288 0.036177
0.286779 0.055591 0.043469
0.411184 0.044729 0.061694
0.530458 0.043108 0.084354
0.644549 0.040630 0.110006
0.725561 0.040135 0.137153
0.731343 0.040306 0.156036
0.737546 0.040466 0.169258
0.744146 0.040491 0.179478
0.751452 0.040440 0.187037
0.759189 0.040321 0.192286
0.767304 0.040099 0.195623
0.775499 0.039748 0.197867
0.000543 0.111095 0.042285
0.000667 0.112216 0.042698
0.000737 0.113135 0.043028
0.083426 0.134703 0.042888
0.320355 0.153021 0.050599
0.459010 0.134075 0.071113
0.560881 0.106694 0.088976
0.650457 0.067178 0.109269
0.728280 0.049425 0.134884
0.734255 0.045780 0.154123
0.740717 0.045850 0.167514
0.747265 0.045869 0.177671
0.754492 0.045800 0.185209
0.762257 0.045641 0.190662
0.770428 0.045427 0.194186
0.778208 0.045127 0.196583
0.000866 0.172611 0.056200
0.000939 0.174748 0.056881
0.000961 0.176710 0.057443
0.000968 0.177904 0.057836
0.176748 0.243284 0.063773
0.472994 0.269541 0.068455
0.605252 0.239228 0.101535
0.710985 0.221163 0.124734
0.790271 0.193143 0.144522
0.788468 0.156470 0.161824
0.777423 0.120585 0.171824
0.762802 0.075977 0.176920
0.763880 0.063335 0.183490
0.770118 0.060342 0.188885
0.777090 0.057943 0.192608
0.783906 0.055518 0.195008
0.008650 0.242764 0.070816
0.008886 0.245041 0.071725
0.009276 0.247428 0.072322
0.009589 0.249401 0.072816
0.009518 0.248962 0.073091
0.303938 0.371708 0.093648
0.585101 0.400826 0.067189
0.727849 0.364084 0.124827
0.831843 0.324572 0.151420
0.855132 0.300895 0.174616
0.859601 0.291284 0.190583
0.863541 0.283133 0.201610
0.867052 0.274175 0.208782
0.870934 0.266358 0.213034
0.874838 0.258889 0.215157
0.877842 0.249779 0.215640
0.025387 0.313680 0.089046
0.025665 0.315674 0.090160
0.026073 0.317828 0.091148
0.026398 0.319773 0.092090
0.026220 0.319931 0.092415
0.039090 0.336136 0.098315
0.432889 0.486894 0.134344
0.679947 0.507839 0.074087
0.831002 0.475786 0.129447
0.897609 0.436589 0.171526
0.900979 0.410065 0.193109
0.904635 0.392096 0.207133
0.909234 0.380379 0.217417
0.915139 0.373815 0.223668
0.921685 0.369628 0.226875
0.927227 0.364351 0.228157
0.045388 0.376485 0.111697
0.045656 0.377890 0.112673
0.046217 0.379726 0.113687
0.046724 0.381448 0.114682
0.046624 0.381785 0.115117
0.046119 0.380966 0.115075
0.103391 0.417650 0.134379
0.550057 0.577207 0.162279
0.766368 0.599048 0.073549
0.906875 0.574874 0.123896
0.927652 0.548614 0.170431
0.935298 0.529817 0.192290
0.942642 0.515580 0.206284
0.950524 0.506100 0.215105
0.957948 0.498919 0.220879
0.964427 0.490607 0.224107
0.068317 0.431696 0.135815
0.068397 0.432758 0.136750
0.068757 0.434149 0.137676
0.069099 0.435511 0.138592
0.068930 0.435674 0.138970
0.068454 0.435112 0.138974
0.068052 0.434667 0.139144
0.232919 0.507703 0.184438
0.656325 0.653235 0.174260
0.848542 0.683245 0.070169
0.929942 0.671910 0.092806
0.943418 0.658397 0.140094
0.954371 0.647063 0.162926
0.964499 0.639160 0.176446
0.974065 0.633020 0.185042
0.983284 0.625092 0.191512
0.088101 0.478738 0.159456
0.088169 0.479674 0.160362
0.088472 0.480849 0.161234
0.088730 0.481937 0.162066
0.088653 0.482275 0.162485
0.088323 0.482093 0.162644
0.087718 0.481200 0.162449
0.088938 0.481937 0.163163
0.372850 0.591691 0.228547
0.750160 0.723815 0.181883
0.896229 0.762527 0.092335
0.933761 0.761034 0.068757
0.945670 0.755341 0.085812
0.957286 0.751240 0.100433
0.968582 0.747791 0.109058
0.979682 0.742217 0.125160
0.104690 0.515550 0.179432
0.104740 0.516568 0.180325
0.105166 0.517834 0.181323
0.105614 0.519139 0.182337
0.105636 0.519755 0.182887
0.105496 0.520028 0.183331
0.105225 0.519872 0.183483
0.104658 0.519161 0.183361
0.130097 0.532353 0.192885
0.581845 0.693105 0.262837
0.824962 0.783728 0.190628
0.921532 0.819736 0.126623
0.941069 0.821860 0.110548
0.950044 0.820771 0.102940
0.959427 0.819921 0.095726
0.968466 0.817749 0.087998
0.112322 0.532461 0.188769
0.112718 0.534189 0.190070
0.113125 0.535539 0.191148
0.113624 0.536981 0.192285
0.114093 0.538415 0.193310
0.114524 0.539915 0.194391
0.114946 0.541369 0.195448
0.115148 0.542414 0.196285
0.115406 0.543796 0.197486
0.316245 0.621107 0.250302
0.736305 0.772595 0.256510
0.880424 0.833880 0.199396
0.938568 0.859548 0.160067
0.948506 0.862009 0.150758
0.956652 0.863029 0.143291
0.964635 0.863276 0.135046
0.114421 0.537257 0.191420
0.114805 0.538862 0.192724
0.115212 0.540258 0.193771
0.115637 0.541703 0.194854
0.116090 0.543145 0.195941
0.116512 0.544641 0.197005
0.116977 0.546123 0.198050
0.117407 0.547527 0.199163
0.117771 0.548952 0.200211
0.172214 0.579440 0.223934
0.639722 0.741402 0.284283
0.836878 0.825031 0.234500
0.915569 0.862424 0.197595
0.946951 0.879205 0.177606
0.955312 0.883015 0.171494
0.961926 0.885664 0.165900
0.116317 0.541799 0.193894
0.116708 0.543305 0.195162
0.117108 0.544665 0.196236
0.117512 0.546213 0.197302
0.117994 0.547562 0.198383
0.118430 0.549081 0.199513
0.118897 0.550457 0.200551
0.119422 0.551927 0.201670
0.119839 0.553381 0.202775
0.130803 0.561997 0.207189
0.549503 0.712157 0.292682
0.799661 0.813409 0.251324
0.896782 0.857414 0.214420
0.937185 0.879016 0.191388
0.954506 0.888414 0.179742
0.961200 0.891560 0.174706
0.118266 0.546235 0.196381
0.118611 0.547762 0.197630
0.118941 0.549091 0.198620
0.119360 0.550550 0.199722
0.119827 0.551979 0.200806
0.120264 0.553386 0.201900
0.120726 0.554827 0.203008
0.121237 0.556284 0.204110
0.121762 0.557667 0.205285
0.123078 0.563499 0.210359
0.447922 0.680823 0.284929
0.765226 0.802105 0.264649
0.880049 0.854102 0.228123
0.927231 0.877833 0.204340
0.951119 0.891634 0.189379
0.960422 0.896272 0.182446
0.120099 0.550442 0.198675
0.120446 0.552002 0.200005
0.120780 0.553346 0.200967
0.121131 0.554701 0.201986
0.121562 0.556089 0.203119
0.122013 0.557500 0.204202
0.122449 0.558951 0.205272
0.122932 0.560371 0.206390
0.123470 0.561787 0.207523
0.124505 0.565475 0.210571
0.336248 0.645986 0.267146
0.726952 0.788728 0.277488
0.862118 0.850680 0.240082
0.919643 0.878137 0.214792
0.945870 0.892508 0.199576
0.959865 0.901115 0.190150
0.001232 0.026300 0.036249
0.001219 0.026365 0.036162
0.030699 0.026498 0.035867
0.146054 0.031776 0.039812
0.278538 0.034684 0.051029
0.411940 0.032242 0.070377
0.531464 0.030057 0.093539
0.645667 0.029232 0.120650
0.718565 0.028915 0.147839
0.724131 0.029310 0.164809
0.730041 0.029573 0.177622
0.736625 0.029727 0.187522
0.743471 0.029722 0.194896
0.751144 0.029522 0.200340
0.759200 0.029234 0.204149
0.767232 0.028928 0.206539
0.001066 0.027226 0.034623
0.001063 0.028131 0.035160
0.027148 0.028884 0.035698
0.139796 0.034879 0.039260
0.270505 0.038995 0.047711
0.400821 0.038769 0.066087
0.516389 0.036730 0.087913
0.627485 0.035298 0.113547
0.716184 0.034956 0.141340
0.728136 0.035203 0.159875
0.734232 0.035385 0.172895
0.740836 0.035481 0.182941
0.747929 0.035472 0.190417
0.755568 0.035325 0.195871
0.763582 0.035078 0.199583
0.771682 0.034794 0.202030
0.000764 0.050788 0.036169
0.000766 0.051987 0.037083
0.016539 0.057430 0.041302
0.155362 0.066347 0.045996
0.288008 0.059231 0.050629
0.416055 0.052680 0.069528
0.527518 0.042462 0.091073
0.641670 0.041000 0.117761
0.722918 0.040798 0.145691
0.729889 0.041075 0.164369
0.735833 0.041260 0.177511
0.742366 0.041396 0.187579
0.749423 0.041350 0.195130
0.756971 0.041197 0.200454
0.765251 0.040976 0.203566
0.773305 0.040684 0.205716
0.000490 0.110109 0.043439
0.000542 0.111355 0.044100
0.000552 0.112459 0.044935
0.087814 0.134870 0.050344
0.322238 0.157993 0.064135
0.466676 0.149896 0.084032
0.569919 0.122641 0.100112
0.657625 0.083047 0.119736
0.734082 0.064765 0.144885
0.736332 0.053262 0.162743
0.741874 0.052187 0.175886
0.747533 0.050518 0.185799
0.752818 0.046762 0.192859
0.760278 0.046207 0.198148
0.768463 0.045989 0.201203
0.776352 0.045723 0.203225
0.000851 0.172349 0.056525
0.000919 0.174495 0.057197
0.000942 0.176531 0.057827
0.000947 0.177650 0.058207
0.179311 0.243345 0.065935
0.474224 0.269847 0.084377
0.608418 0.251207 0.113679
0.716935 0.239671 0.136778
0.796404 0.207951 0.156129
0.792792 0.167178 0.172978
0.782513 0.133689 0.182587
0.769492 0.092741 0.187417
0.767490 0.074311 0.192764
0.772913 0.070007 0.197835
0.779341 0.066926 0.201222
0.785889 0.063854 0.203416
0.008486 0.243048 0.071372
0.008708 0.245342 0.072289
0.008966 0.247787 0.073168
0.009256 0.249633 0.073673
0.009198 0.249145 0.073919
0.303387 0.370714 0.095848
0.585967 0.399590 0.088900
0.728549 0.365082 0.136759
0.835280 0.333305 0.162581
0.864082 0.322871 0.187363
0.869089 0.314814 0.204065
0.871789 0.303068 0.214891
0.873807 0.290801 0.221669
0.876831 0.281143 0.225558
0.880576 0.272754 0.227504
0.883152 0.263034 0.227779
0.024737 0.313645 0.090129
0.025054 0.315679 0.091227
0.025393 0.317979 0.092358
0.025682 0.319807 0.093247
0.025470 0.319864 0.093545
0.039855 0.336123 0.099537
0.431838 0.486029 0.136942
0.679622 0.507236 0.086843
0.831066 0.475003 0.142688
0.898951 0.438243 0.182760
0.903067 0.415432 0.205269
0.908082 0.402556 0.220545
0.914465 0.396619 0.230754
0.921757 0.394085 0.236913
0.929094 0.391813 0.240227
0.935366 0.387930 0.241489
0.044438 0.376352 0.112647
0.044762 0.377842 0.113579
0.045325 0.379782 0.114795
0.045821 0.381459 0.115738
0.045693 0.381705 0.116145
0.045130 0.380879 0.116064
0.104123 0.417359 0.135404
0.548991 0.576337 0.165010
0.766252 0.598750 0.084232
0.907033 0.574165 0.138289
0.928327 0.548210 0.182662
0.936164 0.530397 0.203993
0.943471 0.517310 0.218426
0.951029 0.508690 0.228333
0.958562 0.502257 0.233903
0.965544 0.494653 0.237266
0.067488 0.431635 0.136606
0.067615 0.432677 0.137510
0.067889 0.434206 0.138614
0.068184 0.435428 0.139470
0.067996 0.435654 0.139806
0.067525 0.435031 0.139861
0.067197 0.434816 0.140148
0.232635 0.507396 0.185289
0.655286 0.652735 0.177406
0.848554 0.683234 0.080163
0.930930 0.672030 0.110576
0.944202 0.658315 0.153399
0.955029 0.647020 0.175313
0.965016 0.639128 0.188559
0.974730 0.633191 0.196997
0.983750 0.625384 0.203483
0.087392 0.478638 0.160166
0.087480 0.479538 0.161001
0.087664 0.480846 0.162025
0.087887 0.481831 0.162839
0.087798 0.482082 0.163243
0.087443 0.481938 0.163387
0.086854 0.481184 0.163233
0.088170 0.481941 0.164008
0.372449 0.591682 0.229765
0.749368 0.723691 0.185085
0.896337 0.762951 0.097512
0.934374 0.761489 0.078332
0.946401 0.756071 0.097020
0.958122 0.752005 0.112583
0.969420 0.748586 0.123407
0.980584 0.742930 0.139303
0.103893 0.515458 0.180156
0.103978 0.516472 0.181015
0.104262 0.517877 0.182152
0.104650 0.519087 0.183101
0.104676 0.519692 0.183667
0.104532 0.519943 0.184068
0.104252 0.519747 0.184239
0.103724 0.519097 0.184110
0.129695 0.532338 0.193592
0.580933 0.693105 0.264374
0.824474 0.783979 0.193358
0.921923 0.820222 0.131009
0.941678 0.822427 0.115294
0.950730 0.821246 0.107803
0.959829 0.820522 0.101017
0.969087 0.818254 0.093394
0.111609 0.532537 0.189546
0.112027 0.534200 0.190839
0.112376 0.535712 0.192093
0.112852 0.537123 0.193139
0.113299 0.538548 0.194194
0.113766 0.540006 0.195259
0.114151 0.541432 0.196332
0.114355 0.542400 0.197118
0.114611 0.543867 0.198255
0.317057 0.621903 0.251666
0.735881 0.772887 0.258478
0.880576 0.834371 0.201987
0.939474 0.860079 0.163514
0.949351 0.862724 0.154437
0.957208 0.863692 0.147346
0.965202 0.864007 0.139207
0.113680 0.537269 0.192224
0.114109 0.538903 0.193435
0.114469 0.540489 0.194700
0.114867 0.541822 0.195768
0.115340 0.543261 0.196800
0.115770 0.544683 0.197885
0.116210 0.546154 0.198977
0.116638 0.547592 0.200042
0.117041 0.548978 0.201059
0.172063 0.579402 0.224561
0.638684 0.741666 0.286111
0.836539 0.825518 0.236658
0.915993 0.863233 0.200117
0.947642 0.879796 0.180436
0.955734 0.883805 0.174798
0.962503 0.886302 0.169244
0.115590 0.541771 0.194689
0.116023 0.543305 0.195907
0.116383 0.544902 0.197159
0.116797 0.546307 0.198213
0.117234 0.547675 0.199269
0.117708 0.549086 0.200388
0.118138 0.550553 0.201398
0.118651 0.552004 0.202547
0.119118 0.553378 0.203614
0.130410 0.562604 0.208234
0.547764 0.711948 0.293851
0.799206 0.813829 0.253440
0.897129 0.858196 0.216707
0.937967 0.879471 0.194188
0.955173 0.889211 0.182974
0.961782 0.892086 0.177993
0.117470 0.546261 0.197149
0.117895 0.547834 0.198394
0.118253 0.549321 0.199632
0.118640 0.550606 0.200684
0.119113 0.552068 0.201712
0.119578 0.553528 0.202807
0.120032 0.554899 0.203894
0.120537 0.556343 0.204988
0.121095 0.557745 0.206140
0.122122 0.563580 0.211511
0.446439 0.680818 0.286023
0.764383 0.802461 0.266752
0.880182 0.854739 0.230255
0.927863 0.878748 0.206764
0.951591 0.892097 0.192220
0.961081 0.897151 0.185367
0.119318 0.550483 0.199514
0.119732 0.552078 0.200698
0.120067 0.553527 0.201923
0.120388 0.554824 0.202914
0.120859 0.556182 0.204017
0.121297 0.557581 0.205101
0.121762 0.558988 0.206184
0.122278 0.560410 0.207305
0.122817 0.561818 0.208446
0.123822 0.565585 0.211501
0.337083 0.646545 0.268325
0.725681 0.788797 0.279658
0.861976 0.851187 0.242127
0.920251 0.878929 0.216972
0.946492 0.893218 0.202101
0.960424 0.901856 0.193071
0.002406 0.035265 0.072934
0.002434 0.035533 0.073573
0.014569 0.033424 0.075129
0.130100 0.031024 0.074711
0.273014 0.033324 0.078986
0.409208 0.032605 0.095250
0.528138 0.030949 0.115866
0.641801 0.030263 0.141646
0.714627 0.029695 0.166158
0.719854 0.030153 0.180627
0.725857 0.030406 0.191897
0.732097 0.030524 0.201031
0.739006 0.030495 0.207929
0.746458 0.030269 0.213073
0.754520 0.029965 0.216665
0.762473 0.029612 0.218932
0.002243 0.035968 0.071115
0.002216 0.037309 0.072233
0.013546 0.035570 0.075118
0.125695 0.033821 0.075399
0.262712 0.037321 0.076663
0.395487 0.038000 0.091461
0.511756 0.036778 0.107403
0.622784 0.035881 0.127681
0.712731 0.035294 0.151203
0.726432 0.035463 0.167383
0.732572 0.035680 0.179329
0.739152 0.035777 0.188721
0.746307 0.035717 0.195789
0.754004 0.035589 0.200972
0.762126 0.035311 0.204572
0.770097 0.035004 0.206900
0.001914 0.042942 0.069630
0.001899 0.044440 0.070908
0.006657 0.046341 0.076134
0.125469 0.041431 0.078872
0.265148 0.042565 0.076823
0.398809 0.042978 0.088742
0.515337 0.042153 0.103767
0.625674 0.041389 0.126871
0.715123 0.041113 0.153089
0.728545 0.041277 0.170443
0.734534 0.041478 0.182569
0.741033 0.041611 0.192024
0.748155 0.041517 0.199169
0.755585 0.041387 0.204447
0.763620 0.041197 0.208131
0.771704 0.040874 0.210536
0.000998 0.099621 0.075554
0.001007 0.100936 0.077018
0.001020 0.102243 0.078889
0.079386 0.125759 0.099766
0.314227 0.155080 0.104689
0.465143 0.153367 0.114059
0.575883 0.139475 0.126960
0.669019 0.112594 0.144509
0.735415 0.074094 0.164030
0.735704 0.059373 0.179240
0.737527 0.051814 0.190405
0.743045 0.050187 0.199717
0.749847 0.049846 0.206858
0.757342 0.049676 0.212062
0.765412 0.049616 0.215371
0.773486 0.049438 0.217668
0.000453 0.171369 0.069447
0.000458 0.173566 0.071246
0.000443 0.175639 0.073719
0.000396 0.176351 0.079343
0.189033 0.241303 0.109903
0.475169 0.274245 0.130801
0.611015 0.267641 0.148076
0.721175 0.251216 0.165268
0.804494 0.228352 0.182070
0.812954 0.211051 0.199046
0.813288 0.198876 0.209994
0.815411 0.189597 0.218141
0.818831 0.182130 0.224077
0.823670 0.177341 0.228155
0.830886 0.176608 0.231208
0.837512 0.174953 0.232925
0.008192 0.242253 0.071697
0.008410 0.244600 0.072613
0.008631 0.247000 0.073495
0.008541 0.249636 0.075901
0.008154 0.249571 0.077423
0.304488 0.368419 0.120234
0.588133 0.397331 0.139657
0.729843 0.371389 0.170085
0.841889 0.357690 0.190747
0.873319 0.346022 0.214511
0.874648 0.329487 0.229364
0.875554 0.313312 0.238213
0.876598 0.299237 0.243326
0.879491 0.289462 0.246421
0.883378 0.282245 0.248110
0.887096 0.275010 0.248374
0.023893 0.312883 0.090966
0.024205 0.314887 0.092040
0.024542 0.317171 0.093146
0.024765 0.318992 0.094135
0.024531 0.318940 0.094361
0.041070 0.335489 0.100776
0.430574 0.483549 0.147951
0.681376 0.503999 0.132906
0.831978 0.472737 0.176794
0.901573 0.444454 0.210102
0.908659 0.435374 0.232802
0.916663 0.433071 0.246841
0.924436 0.431317 0.256010
0.932387 0.429327 0.261973
0.939773 0.426507 0.265253
0.945922 0.421586 0.266440
0.043269 0.375747 0.113389
0.043644 0.377250 0.114353
0.044226 0.379162 0.115513
0.044675 0.380924 0.116545
0.044526 0.381096 0.116917
0.043996 0.380195 0.116822
0.105205 0.416847 0.136326
0.547733 0.574622 0.169794
