public/kits/editing-mini-guide/luts/cinematic-v1-log-19.cube
LUT_3D_SIZE 16
0.002092 0.001882 0.000682
0.009653 0.003019 0.001988
0.057180 0.010229 0.007743
0.162904 0.026910 0.015721
0.303398 0.045762 0.030402
0.454778 0.066891 0.046440
0.593259 0.083248 0.067359
0.729746 0.096262 0.092817
0.816720 0.103499 0.116998
0.823751 0.104646 0.130352
0.831659 0.104740 0.141334
0.840258 0.104375 0.150660
0.849397 0.104311 0.157911
0.859396 0.104954 0.163160
0.869584 0.105870 0.167013
0.879449 0.106927 0.169687
0.003857 0.008841 0.002886
0.009950 0.010203 0.003188
0.055354 0.014718 0.007885
0.161180 0.030718 0.015058
0.300843 0.048692 0.030016
0.452113 0.068936 0.045916
0.590650 0.085492 0.066620
0.727229 0.099264 0.091965
0.818254 0.107029 0.116546
0.825047 0.108168 0.130461
0.832888 0.108260 0.141461
0.841536 0.107863 0.150808
0.850854 0.107809 0.158052
0.860563 0.108505 0.163342
0.870739 0.109387 0.167167
0.880599 0.110417 0.169852
0.017369 0.040123 0.012178
0.020354 0.040388 0.011985
0.049580 0.045666 0.011730
0.166887 0.056727 0.015310
0.303610 0.059508 0.029434
0.448906 0.071110 0.045042
0.587478 0.087478 0.065515
0.724318 0.101955 0.090832
0.819719 0.110571 0.115943
0.826500 0.111720 0.130329
0.834360 0.111774 0.141386
0.842881 0.111424 0.150734
0.852184 0.111358 0.157993
0.861947 0.112063 0.163242
0.871964 0.113007 0.167105
0.882083 0.114023 0.169817
0.042781 0.110197 0.036327
0.045786 0.109548 0.035627
0.048643 0.108794 0.034896
0.129750 0.122184 0.023656
0.331866 0.148434 0.030854
0.479235 0.131994 0.047577
0.591142 0.105157 0.063721
0.720925 0.106849 0.088044
0.821091 0.113958 0.114043
0.828124 0.115383 0.128894
0.835970 0.115471 0.140108
0.844493 0.115276 0.149414
0.853714 0.115223 0.156725
0.863578 0.115863 0.162073
0.873747 0.116929 0.165835
0.883397 0.117985 0.168514
0.041019 0.197348 0.070859
0.043094 0.196947 0.070539
0.045631 0.196714 0.070267
0.048153 0.195431 0.069606
0.251370 0.234320 0.034189
0.485802 0.271600 0.043340
0.637389 0.260996 0.068912
0.760836 0.238025 0.091261
0.853015 0.203509 0.113964
0.842917 0.144027 0.125427
0.844447 0.131143 0.136289
0.849936 0.126033 0.145714
0.856720 0.121347 0.153140
0.865730 0.120362 0.158609
0.875752 0.121338 0.162499
0.885646 0.122240 0.165316
0.061242 0.294175 0.103340
0.062351 0.293853 0.103062
0.063489 0.293453 0.102808
0.064663 0.292627 0.102428
0.065498 0.288704 0.101103
0.384179 0.363479 0.055649
0.602510 0.404189 0.046889
0.759133 0.396468 0.085986
0.894223 0.382316 0.113547
0.926679 0.352931 0.137670
0.925378 0.326154 0.155330
0.924299 0.301024 0.164146
0.922595 0.275738 0.168368
0.923080 0.259208 0.172252
0.927180 0.250293 0.175072
0.930397 0.238651 0.176197
0.092478 0.377683 0.136667
0.093386 0.377239 0.136035
0.094446 0.376970 0.135548
0.095440 0.376326 0.134962
0.095905 0.373827 0.133569
0.129219 0.376536 0.132834
0.504095 0.475561 0.080148
0.705461 0.519565 0.047453
0.869994 0.516780 0.090934
0.959380 0.499889 0.128569
0.966219 0.480363 0.145012
0.972272 0.465594 0.158326
0.977336 0.453800 0.170055
0.980560 0.445899 0.179426
0.983609 0.439774 0.185112
0.987660 0.432198 0.188509
0.130055 0.448710 0.174934
0.131210 0.448424 0.174275
0.132511 0.448238 0.173750
0.133724 0.447785 0.173126
0.133955 0.445859 0.171490
0.133052 0.442229 0.168865
0.236693 0.464555 0.171665
0.596020 0.568880 0.107629
0.804815 0.625476 0.048032
0.961622 0.628166 0.080983
0.980426 0.612147 0.122299
0.985437 0.599482 0.141210
0.989239 0.589309 0.153434
0.991174 0.582410 0.161014
0.992979 0.577137 0.165985
0.995315 0.570229 0.169080
0.179570 0.514387 0.220472
0.180622 0.514192 0.219766
0.181949 0.514130 0.219250
0.183265 0.513986 0.218716
0.183345 0.512404 0.217125
0.182792 0.509937 0.214864
0.182787 0.506562 0.211970
0.381477 0.556419 0.217952
0.675824 0.653239 0.134955
0.902602 0.727484 0.043073
0.987172 0.733662 0.049061
0.989880 0.724069 0.085249
0.992011 0.716238 0.107721
0.993560 0.711086 0.120180
0.995101 0.706830 0.127994
0.996303 0.700469 0.134318
0.241586 0.576611 0.271508
0.242975 0.576724 0.270824
0.244223 0.576853 0.270339
0.245494 0.576860 0.269537
0.245742 0.575826 0.268212
0.245126 0.574051 0.266282
0.243714 0.571388 0.263694
0.248839 0.569863 0.261675
0.496835 0.636106 0.266306
0.749269 0.733298 0.159200
0.943534 0.812945 0.054568
0.988272 0.825315 0.032183
0.991365 0.822498 0.030833
0.993401 0.820715 0.045713
0.995284 0.818601 0.055193
0.996768 0.813969 0.064042
0.296943 0.627239 0.315470
0.298573 0.627679 0.315591
0.300295 0.628120 0.315760
0.301991 0.628566 0.315934
0.303012 0.628213 0.315289
0.303555 0.627376 0.314271
0.303394 0.625829 0.312577
0.302585 0.623530 0.310114
0.332096 0.628562 0.311501
0.624237 0.715554 0.297536
0.809460 0.800486 0.173383
0.949585 0.867151 0.083168
0.980876 0.879697 0.064674
0.987712 0.882987 0.056541
0.992038 0.885308 0.050177
0.995282 0.885460 0.043480
0.321175 0.650062 0.336917
0.323040 0.650818 0.337413
0.324893 0.651576 0.337894
0.326803 0.652275 0.338240
0.328719 0.652996 0.338618
0.330578 0.653796 0.339076
0.332667 0.654453 0.339453
0.334630 0.655002 0.339730
0.335831 0.654670 0.339147
0.486846 0.695463 0.353450
0.723829 0.783957 0.290481
0.854043 0.851722 0.180618
0.943055 0.897715 0.117025
0.965079 0.908316 0.102898
0.977053 0.914202 0.094285
0.987148 0.918577 0.085241
0.327356 0.656387 0.342866
0.329255 0.657223 0.343319
0.331141 0.657974 0.343794
0.333003 0.658692 0.344217
0.334858 0.659372 0.344626
0.336786 0.660165 0.344990
0.338646 0.660785 0.345432
0.340704 0.661541 0.345838
0.342896 0.662215 0.346238
0.404452 0.678415 0.355807
0.665043 0.764198 0.337914
0.798261 0.831013 0.247936
0.890023 0.881055 0.165467
0.947645 0.912935 0.126990
0.963868 0.922149 0.117514
0.976153 0.928564 0.110190
0.331847 0.662013 0.347885
0.333899 0.662830 0.348490
0.335794 0.663636 0.348978
0.337676 0.664329 0.349478
0.339499 0.665160 0.349889
0.341378 0.665914 0.350297
0.343269 0.666612 0.350645
0.345203 0.667335 0.351180
0.347242 0.668028 0.351566
0.366482 0.673283 0.354377
0.617086 0.749197 0.362346
0.768988 0.819710 0.281687
0.857585 0.867906 0.201060
0.918822 0.901706 0.151498
0.957649 0.923469 0.127030
0.970913 0.930641 0.119138
0.336264 0.667660 0.352881
0.338272 0.668415 0.353475
0.340293 0.669174 0.354049
0.342204 0.669980 0.354508
0.344035 0.670650 0.354966
0.345909 0.671585 0.355486
0.347773 0.672222 0.355879
0.349681 0.672978 0.356326
0.351563 0.673601 0.356790
0.362859 0.676985 0.358603
0.575674 0.738418 0.376548
0.747526 0.812699 0.305480
0.833876 0.859563 0.232803
0.895910 0.893757 0.175637
0.939954 0.918270 0.143985
0.965618 0.932577 0.127932
0.340437 0.672787 0.357545
0.342434 0.673658 0.358181
0.344436 0.674428 0.358764
0.346454 0.675361 0.359429
0.348341 0.676067 0.359878
0.350202 0.676916 0.360342
0.352046 0.677550 0.360815
0.353878 0.678215 0.361288
0.355798 0.678969 0.361712
0.361306 0.680828 0.362844
0.530723 0.727945 0.384451
0.724177 0.804848 0.327939
0.814764 0.853433 0.260085
0.879054 0.888716 0.197484
0.923051 0.913230 0.161402
0.954812 0.931196 0.140355
0.002108 0.002929 0.002599
0.009005 0.003954 0.005398
0.055486 0.010228 0.010794
0.161348 0.025649 0.019248
0.302068 0.044263 0.033597
0.453607 0.065965 0.049516
0.591790 0.082659 0.070998
0.727833 0.096333 0.096899
0.815310 0.103754 0.121575
0.822275 0.104040 0.135288
0.830165 0.103719 0.146653
0.838747 0.102986 0.156290
0.848047 0.102901 0.163589
0.857865 0.103190 0.169311
0.868126 0.103938 0.173360
0.877910 0.105027 0.175996
0.003389 0.010432 0.006141
0.009119 0.011395 0.007005
0.053225 0.015186 0.011121
0.158152 0.029310 0.018444
0.296607 0.046976 0.032897
0.446773 0.067513 0.048322
0.584382 0.084460 0.069250
0.720136 0.098871 0.094787
0.817062 0.107593 0.120329
0.823872 0.107991 0.134719
0.831714 0.107732 0.146055
0.840443 0.107059 0.155704
0.849640 0.106975 0.163027
0.859577 0.107339 0.168638
0.869636 0.108118 0.172522
0.879751 0.109215 0.175119
0.015142 0.041198 0.014161
0.018492 0.041480 0.014097
0.048383 0.046305 0.013864
0.168605 0.059781 0.018965
0.302590 0.060121 0.032515
0.445718 0.069881 0.047415
0.584297 0.086889 0.068153
0.720951 0.101781 0.093710
0.818709 0.110911 0.119304
0.825487 0.111429 0.133882
0.833371 0.111233 0.145124
0.841923 0.110596 0.154722
0.851176 0.110532 0.161981
0.861029 0.111065 0.167343
0.871284 0.111983 0.170849
0.881250 0.113089 0.173292
0.037195 0.110885 0.038321
0.040106 0.110250 0.037942
0.042817 0.109599 0.037302
0.128525 0.122059 0.026008
0.332689 0.141894 0.034721
0.481303 0.136491 0.051843
0.602306 0.129367 0.069732
0.719196 0.114337 0.090876
0.819723 0.116305 0.117033
0.827359 0.115164 0.132025
0.835313 0.115085 0.143155
0.843813 0.114567 0.152600
0.853126 0.114563 0.159830
0.862726 0.115174 0.165136
0.872989 0.116074 0.168923
0.882926 0.117154 0.171494
0.038377 0.198624 0.073511
0.039439 0.197956 0.072991
0.041721 0.197676 0.072677
0.043942 0.196221 0.071913
0.252015 0.233560 0.035160
0.488122 0.259119 0.048297
0.635719 0.242588 0.074588
0.761259 0.241446 0.098306
0.861954 0.231724 0.121710
0.867971 0.204038 0.137744
0.861366 0.168652 0.144189
0.853799 0.134264 0.149290
0.858786 0.126575 0.156751
0.867286 0.125359 0.162161
0.876692 0.124945 0.166074
0.885861 0.124598 0.168810
0.060197 0.295620 0.106800
0.060546 0.294755 0.106175
0.061578 0.294377 0.105882
0.062608 0.293404 0.105418
0.062515 0.289160 0.103669
0.384552 0.361805 0.055967
0.604641 0.393499 0.050763
0.761761 0.372351 0.092283
0.890900 0.351611 0.120534
0.921060 0.336448 0.147865
0.926446 0.330110 0.164016
0.932518 0.324459 0.174267
0.937960 0.317961 0.181321
0.943141 0.313753 0.186919
0.948561 0.309440 0.190411
0.953287 0.303310 0.192222
0.090786 0.378452 0.140687
0.090998 0.377568 0.139643
0.091897 0.377242 0.139110
0.092689 0.376527 0.138347
0.092201 0.373651 0.136171
0.126813 0.376332 0.133648
0.506380 0.474282 0.079888
0.708802 0.510331 0.055451
0.873867 0.495482 0.102127
0.954797 0.465164 0.136700
0.959522 0.440279 0.156297
0.964820 0.425508 0.175317
0.969985 0.416424 0.186804
0.973714 0.412069 0.194008
0.977944 0.409986 0.198040
0.983212 0.407124 0.200665
0.127341 0.448966 0.179077
0.127393 0.448047 0.177997
0.128590 0.447842 0.177472
0.129653 0.447330 0.176775
0.129331 0.445139 0.174602
0.128615 0.441714 0.171989
0.238241 0.465063 0.172942
0.599554 0.568106 0.106439
0.809082 0.617135 0.052061
0.962345 0.608013 0.098586
0.978541 0.581271 0.137823
0.983686 0.561664 0.155152
0.987724 0.547340 0.166133
0.989805 0.538231 0.173712
0.992135 0.531715 0.179739
0.994376 0.524349 0.183998
0.175663 0.514098 0.224456
0.175532 0.513307 0.223308
0.176754 0.513225 0.222835
0.177905 0.512970 0.222207
0.177445 0.511209 0.220144
0.176713 0.508610 0.217709
0.176738 0.505218 0.214675
0.384618 0.557319 0.217817
0.680680 0.653125 0.132061
0.908674 0.720027 0.042756
0.987087 0.716809 0.065703
0.989772 0.702399 0.106267
0.991944 0.690154 0.127254
0.993378 0.681559 0.139813
0.995001 0.674838 0.147757
0.996341 0.666609 0.154019
0.237902 0.576341 0.275803
0.237924 0.575798 0.274770
0.239135 0.575904 0.274302
0.240238 0.575834 0.273369
0.239979 0.574603 0.271511
0.239564 0.572918 0.269789
0.238626 0.570400 0.267422
0.243204 0.568579 0.263941
0.507134 0.639348 0.267016
0.755617 0.734368 0.154879
0.950648 0.808870 0.052861
0.988678 0.815319 0.033527
0.991957 0.809978 0.047105
0.993875 0.805909 0.061123
0.995291 0.802158 0.070079
0.996693 0.795997 0.084328
0.293390 0.626848 0.318508
0.293713 0.626567 0.318088
0.295258 0.626993 0.318257
0.296826 0.627378 0.318303
0.297198 0.626885 0.317337
0.297520 0.625937 0.316182
0.297297 0.624280 0.314363
0.295821 0.621835 0.311590
0.333589 0.628876 0.313049
0.632091 0.718689 0.296276
0.816757 0.802321 0.167487
0.956281 0.865969 0.079624
0.983817 0.875421 0.062218
0.989087 0.876965 0.054948
0.992577 0.878108 0.048495
0.995695 0.877307 0.042343
0.316589 0.649418 0.339183
0.317932 0.650049 0.339741
0.319649 0.650811 0.340236
0.321496 0.651573 0.340597
0.323226 0.652270 0.340943
0.325046 0.652901 0.341316
0.327159 0.653757 0.341723
0.328331 0.653763 0.341430
0.330342 0.653644 0.340828
0.498460 0.699352 0.355529
0.731385 0.788067 0.288220
0.861699 0.854162 0.174699
0.950940 0.898191 0.112239
0.969018 0.906326 0.100086
0.979765 0.911716 0.091385
0.989812 0.915777 0.082186
0.323016 0.655792 0.345158
0.324309 0.656493 0.345758
0.325997 0.657225 0.346141
0.327797 0.657913 0.346545
0.329510 0.658643 0.346865
0.331317 0.659219 0.347169
0.333207 0.660028 0.347546
0.334872 0.660701 0.347805
0.336850 0.661266 0.348127
0.414296 0.682152 0.359186
0.674008 0.768920 0.337363
0.806339 0.836167 0.244587
0.896800 0.885272 0.163595
0.949020 0.914156 0.129414
0.964295 0.922352 0.120432
0.976634 0.928732 0.112728
0.328051 0.661504 0.350337
0.329257 0.662202 0.350874
0.330973 0.662901 0.351292
0.332796 0.663657 0.351651
0.334285 0.664275 0.351913
0.336115 0.664989 0.352252
0.337967 0.665729 0.352563
0.339651 0.666415 0.352872
0.341534 0.667088 0.353206
0.363193 0.672939 0.356114
0.627592 0.754201 0.362852
0.776749 0.824808 0.280045
0.866220 0.873492 0.197267
0.925343 0.906092 0.151063
0.958573 0.924756 0.130108
0.970877 0.931201 0.122809
0.332472 0.667058 0.355350
0.333706 0.667770 0.355937
0.335476 0.668539 0.356357
0.337325 0.669214 0.356857
0.338911 0.669970 0.357034
0.340640 0.670665 0.357402
0.342497 0.671455 0.357761
0.344189 0.672037 0.358048
0.345961 0.672698 0.358463
0.357978 0.676318 0.360224
0.586565 0.743261 0.378270
0.755660 0.817824 0.304220
0.842175 0.864980 0.229336
0.904647 0.899155 0.172501
0.948021 0.923423 0.142528
0.965830 0.933108 0.131500
0.336645 0.672327 0.360034
0.337885 0.673003 0.360603
0.339675 0.673820 0.361159
0.341624 0.674537 0.361633
0.343187 0.675340 0.361850
0.344917 0.676035 0.362349
0.346752 0.676820 0.362808
0.348392 0.677383 0.363039
0.350155 0.678029 0.363357
0.355975 0.679954 0.364482
0.542654 0.732490 0.387205
0.732667 0.809970 0.327013
0.823145 0.858893 0.256575
0.888892 0.895011 0.193138
0.931875 0.918902 0.159142
0.960784 0.935044 0.140240
0.002514 0.008737 0.013488
0.006191 0.011144 0.018306
0.043949 0.016701 0.032336
0.154023 0.023718 0.035899
0.299840 0.040773 0.041627
0.452099 0.063685 0.055803
0.590034 0.081296 0.076821
0.725848 0.095919 0.102726
0.813438 0.103581 0.127748
0.820427 0.103109 0.141685
0.828334 0.101870 0.153768
0.837182 0.100867 0.163692
0.846478 0.100283 0.171705
0.856304 0.100639 0.177304
0.866401 0.101601 0.181051
0.876302 0.102754 0.183580
0.003040 0.013975 0.017090
0.006359 0.015583 0.019709
0.041467 0.020364 0.031121
0.147169 0.026952 0.033758
0.288628 0.042984 0.038908
0.436364 0.064330 0.051385
0.570059 0.082066 0.071165
0.701805 0.096918 0.095790
0.808865 0.107080 0.122078
0.823163 0.107642 0.137268
0.831169 0.107125 0.148740
0.839787 0.106419 0.158308
0.848961 0.106176 0.165737
0.858835 0.106457 0.171487
0.869081 0.107225 0.175476
0.878981 0.108290 0.178124
0.008258 0.048666 0.034516
0.010375 0.048831 0.034624
0.035622 0.051319 0.037510
0.162523 0.058392 0.036428
0.302713 0.059760 0.040376
0.446955 0.072542 0.053273
0.580361 0.085424 0.073381
0.716678 0.101332 0.099181
0.815147 0.111074 0.125303
0.823745 0.110832 0.140455
0.831541 0.109781 0.152498
0.840297 0.108840 0.162449
0.849573 0.108238 0.170437
0.859500 0.108651 0.175963
0.869588 0.109825 0.179092
0.879657 0.111042 0.181309
0.026614 0.113167 0.046308
0.029084 0.112639 0.046042
0.030493 0.112857 0.047382
0.120643 0.125404 0.044300
0.336650 0.144157 0.047530
0.488822 0.147491 0.061472
0.608882 0.139689 0.077846
0.722329 0.122957 0.097328
0.821917 0.125482 0.123130
0.827631 0.118868 0.138277
0.835240 0.117422 0.149995
0.843387 0.115570 0.159705
0.851563 0.112895 0.167264
0.861317 0.113030 0.172811
0.871464 0.114093 0.176039
0.881556 0.115277 0.178309
0.035299 0.199450 0.075889
0.036426 0.198787 0.075279
0.037823 0.198382 0.074828
0.039860 0.196889 0.074018
0.247991 0.233391 0.039672
0.491623 0.258375 0.061757
0.637705 0.252820 0.085644
0.764332 0.258426 0.108613
0.865649 0.245787 0.131810
0.870955 0.212495 0.146698
0.865013 0.177339 0.152588
0.857716 0.142711 0.156954
0.860445 0.131592 0.164031
0.868476 0.129208 0.169675
0.877370 0.128070 0.173728
0.886262 0.127338 0.176429
0.059116 0.296825 0.110169
0.059455 0.295904 0.109387
0.059898 0.295380 0.108897
0.060775 0.294358 0.108334
0.060390 0.289982 0.106352
0.381838 0.361236 0.057533
0.607048 0.392896 0.062428
0.762561 0.372787 0.101220
0.892775 0.359729 0.130997
0.927889 0.357383 0.159139
0.933830 0.352229 0.175400
0.938403 0.343040 0.185709
0.942795 0.333306 0.192780
0.946946 0.326987 0.198106
0.952319 0.322342 0.201736
0.956750 0.316126 0.203573
0.088860 0.379106 0.144409
0.089084 0.378204 0.143139
0.089455 0.377777 0.142343
0.090129 0.377005 0.141538
0.089631 0.374103 0.139329
0.122780 0.376188 0.134614
0.504387 0.474005 0.082018
0.709158 0.510166 0.063096
0.875006 0.494368 0.111219
0.956374 0.466527 0.145507
0.960847 0.446043 0.169795
0.966675 0.435860 0.187972
0.973067 0.432037 0.198708
0.977283 0.431305 0.205697
0.981884 0.430921 0.209928
0.986079 0.428929 0.212263
0.124856 0.449213 0.183349
0.125024 0.448361 0.182038
0.125501 0.448022 0.181316
0.126419 0.447575 0.180547
0.126031 0.445313 0.178376
0.124987 0.441721 0.175404
0.231285 0.463954 0.173798
0.598215 0.568005 0.108848
0.808737 0.617156 0.059278
0.963118 0.607318 0.109992
0.979664 0.580529 0.147197
0.984379 0.562033 0.164166
0.988316 0.549074 0.177007
0.990027 0.540981 0.187912
0.992227 0.535419 0.194811
0.994460 0.528618 0.199331
0.172379 0.514001 0.228882
0.172572 0.513258 0.227541
0.173059 0.513101 0.226967
0.173950 0.512762 0.226243
0.173414 0.510938 0.224085
0.171888 0.508134 0.221095
0.171856 0.504761 0.217677
0.379237 0.556422 0.220210
0.679614 0.652992 0.134723
0.908341 0.720095 0.049227
0.987283 0.717147 0.079145
0.990200 0.702153 0.117365
0.992352 0.689791 0.137561
0.994039 0.681265 0.149775
0.995471 0.674840 0.157666
0.996713 0.666590 0.163991
0.234801 0.576244 0.280510
0.235137 0.575763 0.279246
0.235864 0.575881 0.278911
0.236798 0.575744 0.278003
0.236417 0.574549 0.276122
0.235203 0.572601 0.273641
0.233895 0.569982 0.270826
0.237946 0.567970 0.266694
0.502267 0.638424 0.269293
0.754947 0.734450 0.158070
0.950281 0.809146 0.056784
0.988746 0.815808 0.039738
0.992003 0.810656 0.056353
0.993734 0.806498 0.070772
0.995434 0.802810 0.081117
0.996876 0.796547 0.095828
0.289821 0.626420 0.321525
0.290326 0.626161 0.320983
0.291333 0.626595 0.321172
0.292742 0.626948 0.321161
0.293027 0.626392 0.320215
0.292755 0.625293 0.318790
0.292433 0.623641 0.317067
0.291064 0.621268 0.314566
0.328218 0.628080 0.314858
0.629788 0.718320 0.299701
0.815793 0.802557 0.171243
0.955814 0.866099 0.083455
0.983763 0.875885 0.066274
0.989112 0.877375 0.059079
0.992451 0.878509 0.052950
0.995659 0.877856 0.046829
0.312015 0.648687 0.341423
0.313630 0.649440 0.341955
0.314899 0.650129 0.342521
0.316663 0.650875 0.342901
0.318346 0.651565 0.343211
0.320003 0.652244 0.343490
0.321978 0.652893 0.343901
0.323139 0.652927 0.343509
0.324633 0.652755 0.342748
0.493975 0.698770 0.357463
0.730338 0.788164 0.292607
0.860817 0.854487 0.178847
0.950625 0.898718 0.115802
0.968948 0.906911 0.103725
0.979629 0.912112 0.095280
0.989793 0.916242 0.086141
0.318404 0.655030 0.347363
0.319970 0.655785 0.347801
0.321199 0.656511 0.348414
0.322890 0.657218 0.348805
0.324499 0.657882 0.349087
0.326215 0.658570 0.349394
0.328027 0.659214 0.349739
0.329713 0.659883 0.349913
0.331280 0.660488 0.350098
0.409806 0.681597 0.360872
0.671952 0.768895 0.342136
0.805029 0.836346 0.249525
0.896363 0.885623 0.167527
0.949115 0.914554 0.132774
0.964168 0.922707 0.123939
0.976839 0.929094 0.116221
0.323691 0.660813 0.352585
0.325044 0.661561 0.352956
0.326234 0.662282 0.353515
0.327929 0.662911 0.353958
0.329407 0.663636 0.354093
0.331047 0.664299 0.354382
0.332829 0.664989 0.354718
0.334502 0.665644 0.354920
0.336100 0.666276 0.355171
0.357454 0.672099 0.357460
0.624747 0.753880 0.366667
0.775603 0.824838 0.284978
0.865512 0.873783 0.201772
0.924940 0.906295 0.154739
0.958600 0.925166 0.133585
0.970844 0.931624 0.126307
0.328691 0.666617 0.357804
0.330058 0.667324 0.358055
0.331158 0.668024 0.358614
0.332825 0.668586 0.358959
0.334318 0.669205 0.359186
0.335779 0.669971 0.359383
0.337536 0.670619 0.359739
0.339144 0.671352 0.359986
0.340756 0.671941 0.360134
0.352674 0.675562 0.361604
0.583599 0.743093 0.381462
0.754141 0.817755 0.309683
0.841128 0.865239 0.234611
0.904076 0.899659 0.176842
0.947531 0.923620 0.146420
0.965761 0.933627 0.134992
0.332886 0.671851 0.362529
0.334282 0.672539 0.362843
0.335337 0.673287 0.363406
0.337103 0.673936 0.363849
0.338641 0.674601 0.364070
0.340087 0.675347 0.364218
0.341802 0.676029 0.364561
0.343433 0.676615 0.364866
0.344976 0.677337 0.364996
0.350630 0.679255 0.365862
0.538735 0.732162 0.389645
0.730649 0.809570 0.332383
0.821879 0.858909 0.262164
0.888223 0.895254 0.197949
0.931433 0.919165 0.163251
0.960893 0.935590 0.143760
0.004002 0.031681 0.045778
0.004721 0.033125 0.048238
0.015431 0.047686 0.074488
0.113034 0.045040 0.101694
0.289617 0.033732 0.075924
0.447677 0.055051 0.080801
0.586369 0.074709 0.097015
0.721288 0.092039 0.119790
0.809220 0.101008 0.142994
0.817033 0.098883 0.157162
0.825584 0.097011 0.169324
0.834434 0.095620 0.179766
0.843783 0.095189 0.187822
0.853719 0.095444 0.193534
0.863724 0.096295 0.197351
0.873602 0.097648 0.199544
0.004249 0.035434 0.047896
0.005026 0.036826 0.050010
0.015306 0.049795 0.073248
0.104699 0.048662 0.100269
0.274939 0.034642 0.074720
0.428834 0.054785 0.076786
0.564312 0.075803 0.088458
0.695742 0.094107 0.106596
0.804599 0.106253 0.129368
0.821472 0.106635 0.143435
0.829723 0.105455 0.154875
0.838550 0.104543 0.164328
0.847916 0.104045 0.171918
0.857699 0.104566 0.177228
0.867917 0.105552 0.180884
0.877910 0.106778 0.183189
0.005476 0.051024 0.059630
0.006023 0.051879 0.060886
0.012512 0.059247 0.073220
0.099865 0.058324 0.100578
0.275346 0.037851 0.074483
0.429793 0.057610 0.072650
0.565718 0.079694 0.084012
0.696932 0.097514 0.105217
0.805593 0.109760 0.130348
0.822432 0.109729 0.145703
0.830708 0.108280 0.157487
0.839304 0.107201 0.167386
0.848813 0.106602 0.175115
0.858542 0.107082 0.180538
0.868751 0.108168 0.184179
0.878425 0.109432 0.186539
0.011598 0.125561 0.104030
0.012030 0.124737 0.103335
0.012419 0.124481 0.103557
0.068442 0.132725 0.119030
0.335597 0.134233 0.097014
0.491420 0.140752 0.090080
0.615732 0.148805 0.100329
0.730001 0.142521 0.115538
0.820551 0.129976 0.137048
0.826004 0.118867 0.152420
0.832043 0.112269 0.164630
0.840258 0.109740 0.175094
0.849396 0.109027 0.182986
0.859251 0.109311 0.188766
0.869436 0.110535 0.192291
0.879250 0.112009 0.194480
0.026620 0.209157 0.110850
0.027107 0.209062 0.111191
0.027331 0.209438 0.113179
0.026362 0.209105 0.119830
0.224209 0.241499 0.132823
0.503048 0.255151 0.105931
0.642290 0.262131 0.115903
0.765872 0.266544 0.132322
0.871265 0.264856 0.153750
0.887190 0.250834 0.169785
0.891124 0.237399 0.179677
0.896230 0.226616 0.187526
0.902284 0.219691 0.193914
0.908627 0.218393 0.199402
0.916928 0.222256 0.203916
0.924932 0.225565 0.207292
0.057530 0.296582 0.113003
0.057825 0.295623 0.112099
0.058144 0.295022 0.111408
0.058336 0.296368 0.116503
0.057426 0.294100 0.119070
0.375288 0.362976 0.103246
0.615427 0.389155 0.107070
0.763089 0.377777 0.133186
0.895209 0.383128 0.157991
0.934479 0.379620 0.183303
0.937859 0.365827 0.197566
0.941109 0.351730 0.206774
0.944978 0.340356 0.213795
0.949029 0.334046 0.219284
0.954841 0.331083 0.223201
0.960197 0.327727 0.225442
0.086774 0.378978 0.147904
0.087089 0.378077 0.146646
0.087466 0.377555 0.145684
0.087663 0.376640 0.144601
0.087241 0.373692 0.142368
0.119732 0.375739 0.137224
0.501167 0.473842 0.088873
0.713429 0.508267 0.091234
0.878082 0.491343 0.135995
0.958863 0.473091 0.172259
0.964756 0.466005 0.196940
0.972153 0.465299 0.212023
0.978780 0.465093 0.221740
0.982325 0.464602 0.228295
0.986282 0.463511 0.232752
0.989457 0.460478 0.235188
0.122149 0.448959 0.187517
0.122446 0.448159 0.186127
0.122934 0.447749 0.185199
0.123178 0.447064 0.184107
0.122815 0.444858 0.181975
0.121671 0.441238 0.178879
0.225542 0.462565 0.174807
0.596707 0.567436 0.111868
