public/kits/editing-mini-guide/luts/cinematic-v1-log-23.cube
LUT_3D_SIZE 6
0.019219 0.017310 0.014367
0.129689 0.024835 0.043575
0.486600 0.052439 0.141680
0.624660 0.106529 0.241829
0.629522 0.127179 0.277019
0.634796 0.147852 0.294951
0.050423 0.094900 0.044162
0.117314 0.108113 0.034611
0.485837 0.087853 0.140811
0.632574 0.122066 0.242016
0.638493 0.141707 0.278878
0.643993 0.162428 0.297949
0.185110 0.324350 0.162051
0.184614 0.324028 0.161476
0.402751 0.376103 0.080526
0.730663 0.403928 0.205070
0.755667 0.383642 0.261427
0.777374 0.373157 0.278778
0.263027 0.448399 0.246458
0.266599 0.449549 0.245890
0.268969 0.448789 0.244245
0.589713 0.547103 0.112163
0.741153 0.593008 0.081686
0.766905 0.596463 0.136777
0.273431 0.471908 0.264338
0.277117 0.473861 0.265629
0.281069 0.475704 0.267221
0.341612 0.491298 0.269828
0.680309 0.636239 0.179519
0.702167 0.652822 0.208861
0.274150 0.478964 0.270265
0.277550 0.482155 0.269962
0.281364 0.484346 0.271430
0.299477 0.492352 0.277994
0.637769 0.614239 0.181924
0.695314 0.658529 0.249166
0.069132 0.063209 0.099650
0.120040 0.050359 0.115879
0.479256 0.049400 0.182618
0.620811 0.107865 0.269417
0.624224 0.126626 0.298912
0.630140 0.147027 0.313904
0.077338 0.107625 0.110308
0.093301 0.115828 0.121096
0.495597 0.139043 0.188061
0.635598 0.134694 0.269213
0.635753 0.144200 0.300959
0.641942 0.165124 0.316483
0.183483 0.320258 0.165244
0.183157 0.319615 0.164105
0.406256 0.377730 0.102672
0.734566 0.393774 0.256268
0.760084 0.397106 0.297934
0.781582 0.398147 0.312992
0.258886 0.445277 0.251647
0.262616 0.446041 0.251331
0.265545 0.445435 0.249647
0.595448 0.550081 0.120235
0.747765 0.595542 0.160324
0.774985 0.594804 0.213894
0.270329 0.470881 0.271098
0.274030 0.472730 0.272309
0.277664 0.474341 0.273574
0.365994 0.503893 0.286820
0.680525 0.637974 0.201871
0.704352 0.654799 0.228609
0.271035 0.478314 0.277453
0.274761 0.480576 0.277865
0.278300 0.482900 0.278209
0.296942 0.491473 0.285408
0.640851 0.618372 0.200422
0.709586 0.674838 0.257685
0.182828 0.166902 0.293098
0.195939 0.180723 0.313971
0.327074 0.146051 0.310925
0.563373 0.117573 0.370453
0.577254 0.129896 0.379674
0.592743 0.143035 0.386984
0.181165 0.172087 0.290876
0.192096 0.183561 0.308342
0.316018 0.156821 0.310496
0.578140 0.128608 0.373669
0.589010 0.143522 0.384367
0.602827 0.159981 0.392371
0.196066 0.312852 0.316573
0.196142 0.312652 0.316673
0.346472 0.375274 0.360929
0.742574 0.432581 0.434604
0.764573 0.429794 0.447600
0.785415 0.432387 0.454512
0.239374 0.423106 0.306234
0.238174 0.421619 0.306607
0.234398 0.417326 0.313081
0.630655 0.606955 0.385844
0.774175 0.618049 0.398586
0.794543 0.611249 0.411420
0.267368 0.469998 0.277568
0.270948 0.471520 0.279399
0.271441 0.471709 0.286603
0.370377 0.523277 0.359998
0.728846 0.706438 0.384104
0.771194 0.730052 0.401700
0.268354 0.477472 0.283163
0.272596 0.478931 0.283684
0.274346 0.480239 0.289386
0.273957 0.478967 0.309266
0.675767 0.677695 0.377468
0.762945 0.739018 0.413083
0.253149 0.243508 0.423557
0.253119 0.247825 0.420378
0.328077 0.236159 0.392769
0.403754 0.232155 0.388941
0.416975 0.233477 0.392858
0.432029 0.234430 0.396186
0.252994 0.249796 0.422223
0.252397 0.252968 0.419653
0.336494 0.251135 0.400441
0.413977 0.246035 0.396794
0.427467 0.247447 0.400232
0.443222 0.248908 0.403492
0.243976 0.333120 0.402633
0.243573 0.332901 0.402349
0.309380 0.374373 0.443689
0.569966 0.427567 0.530405
0.578529 0.420540 0.529758
0.593989 0.420171 0.535063
0.234843 0.402537 0.390490
0.234937 0.402896 0.390725
0.235967 0.402835 0.392551
0.622950 0.627365 0.624953
0.785700 0.640098 0.640654
0.806695 0.640331 0.642656
0.253324 0.451134 0.395570
0.255399 0.455297 0.399812
0.257345 0.459277 0.404443
0.328762 0.509051 0.453747
0.777599 0.768551 0.640949
0.812964 0.769098 0.624011
0.258332 0.461112 0.392921
0.260501 0.465269 0.397581
0.262679 0.469568 0.403301
0.265355 0.475231 0.412192
0.742918 0.777330 0.638639
0.808162 0.794086 0.621722
0.260515 0.262421 0.433839
0.260261 0.267827 0.431188
0.390377 0.315874 0.473942
0.449878 0.297188 0.455234
0.455223 0.295755 0.455235
0.461906 0.294181 0.455507
0.259436 0.268571 0.431540
0.259847 0.271492 0.431358
0.399362 0.331323 0.484857
0.462076 0.313752 0.467698
0.467986 0.312776 0.468127
0.474786 0.311555 0.468843
0.255230 0.322988 0.424988
0.255474 0.323809 0.425183
0.300590 0.359041 0.468236
0.520570 0.392806 0.524994
0.490489 0.343663 0.490019
0.506998 0.354422 0.500094
0.269961 0.424581 0.450288
0.270941 0.425750 0.452076
0.273190 0.426862 0.456532
0.630640 0.645352 0.693421
0.747151 0.660723 0.743230
0.761130 0.657862 0.744662
0.278842 0.472595 0.468943
0.280215 0.475825 0.472561
0.282379 0.479537 0.477946
0.302931 0.502699 0.502471
0.775453 0.771821 0.773547
0.813422 0.778179 0.776330
0.278596 0.480547 0.469249
0.280504 0.484883 0.473944
0.282949 0.489819 0.479686
0.286988 0.496219 0.488117
0.741645 0.768906 0.751257
0.822423 0.812411 0.783795
0.262872 0.268120 0.436570
0.262160 0.273471 0.436457
0.405968 0.339469 0.501065
0.466821 0.315309 0.478537
0.470727 0.312701 0.476698
0.475303 0.310478 0.475450
0.262812 0.274053 0.434571
0.262066 0.277188 0.435369
0.415244 0.353968 0.511942
0.478316 0.332878 0.491220
0.482736 0.330893 0.489790
0.488016 0.329250 0.488838
0.260540 0.310857 0.433693
0.260639 0.313090 0.433786
0.302930 0.354146 0.475815
0.507447 0.373882 0.521546
0.502404 0.357857 0.508030
0.506732 0.355094 0.506441
0.284117 0.430366 0.478161
0.285127 0.432380 0.480353
0.287314 0.435101 0.484825
0.623941 0.641480 0.692995
0.738139 0.663915 0.744599
0.748201 0.659798 0.744629
0.290590 0.484014 0.495443
0.292103 0.487174 0.498452
0.294544 0.491369 0.503159
0.310393 0.510813 0.518281
0.769894 0.770425 0.772974
0.806778 0.778179 0.786992
0.293404 0.496050 0.499300
0.295623 0.500427 0.503203
0.298854 0.505822 0.508750
0.303329 0.512470 0.516410
0.738272 0.764438 0.749671
0.820956 0.809806 0.797764
