public/kits/editing-mini-guide/luts/cinematic-v1-log-04.cube
LUT_3D_SIZE 16
0.000000 0.000227 0.000196
0.008910 0.007485 0.006034
0.083736 0.034530 0.028750
0.216579 0.061310 0.056726
0.360627 0.072446 0.079619
0.520515 0.080920 0.112368
0.669511 0.086670 0.150353
0.806309 0.088224 0.189022
0.888983 0.087951 0.222356
0.896245 0.090278 0.242806
0.904101 0.092062 0.258453
0.912453 0.093382 0.270492
0.921070 0.094143 0.279479
0.930517 0.094407 0.286105
0.940243 0.094331 0.290681
0.949579 0.094020 0.293748
0.000000 0.004626 0.002946
0.006786 0.010212 0.006977
0.075474 0.034919 0.027318
0.209131 0.063080 0.055264
0.353812 0.075741 0.078333
0.515489 0.085562 0.111323
0.665341 0.092336 0.149283
0.802751 0.094714 0.188041
0.889444 0.094554 0.221623
0.896713 0.096948 0.243024
0.904356 0.098770 0.258671
0.912685 0.099959 0.270742
0.921527 0.100766 0.279699
0.930946 0.101106 0.286332
0.940410 0.101008 0.290935
0.949843 0.100631 0.293989
0.000000 0.022219 0.013650
0.000743 0.025449 0.015522
0.045146 0.042833 0.024731
0.193193 0.075384 0.051194
0.346357 0.084227 0.076131
0.509867 0.090090 0.109606
0.660529 0.097698 0.147582
0.798806 0.100962 0.186495
0.889764 0.101166 0.220740
0.896933 0.103539 0.242836
0.904695 0.105321 0.258549
0.912957 0.106603 0.270666
0.921757 0.107308 0.279702
0.931269 0.107658 0.286275
0.940687 0.107635 0.290880
0.950143 0.107249 0.293940
0.000000 0.072318 0.042021
0.000000 0.074121 0.042367
0.000000 0.075875 0.042746
0.128103 0.115708 0.052736
0.336671 0.154913 0.066639
0.507242 0.148194 0.105694
0.654817 0.123010 0.143300
0.793505 0.111950 0.182343
0.890352 0.107559 0.217705
0.897653 0.109881 0.240664
0.905436 0.111596 0.256671
0.913678 0.112880 0.268973
0.922454 0.113662 0.278090
0.931870 0.113954 0.284775
0.941380 0.113956 0.289430
0.950773 0.113590 0.292544
0.000000 0.183181 0.085159
0.000642 0.184368 0.084942
0.000625 0.185756 0.084649
0.000965 0.185513 0.083807
0.259419 0.246170 0.100500
0.492239 0.274808 0.080872
0.649314 0.265427 0.131250
0.783857 0.244443 0.171949
0.890313 0.209231 0.208548
0.901287 0.155314 0.234380
0.907786 0.138874 0.251321
0.915529 0.130192 0.264199
0.923812 0.122518 0.273501
0.932932 0.119924 0.280348
0.942618 0.119893 0.285222
0.951864 0.119580 0.288455
0.005836 0.333042 0.147351
0.014800 0.333042 0.147758
0.023790 0.333061 0.148190
0.031606 0.332428 0.148288
0.037855 0.327038 0.146335
0.387080 0.383618 0.150526
0.604153 0.400087 0.076510
0.758338 0.387913 0.137611
0.888472 0.369483 0.184878
0.920849 0.344926 0.222142
0.925441 0.322133 0.244046
0.930909 0.301427 0.259047
0.937425 0.280790 0.269191
0.944969 0.262228 0.275895
0.953318 0.252505 0.280427
0.961539 0.239841 0.283318
0.071906 0.447098 0.203583
0.078544 0.446831 0.203852
0.085659 0.446585 0.204098
0.092618 0.446049 0.204237
0.097729 0.442828 0.202959
0.173584 0.444839 0.210215
0.497308 0.497134 0.193086
0.695958 0.509665 0.076395
0.850813 0.496627 0.130868
0.933602 0.478304 0.187173
0.941235 0.462335 0.218822
0.948536 0.449459 0.238738
0.956175 0.439025 0.252464
0.964292 0.431825 0.261491
0.972863 0.425971 0.267204
0.980748 0.418640 0.271050
0.140225 0.543772 0.254902
0.144552 0.543319 0.255037
0.149264 0.543066 0.255206
0.153960 0.542492 0.255271
0.157253 0.539900 0.254221
0.159577 0.535227 0.252050
0.287036 0.545326 0.270084
0.592820 0.598054 0.229562
0.781390 0.609749 0.084254
0.922645 0.595527 0.116870
0.946782 0.581123 0.173134
0.955759 0.570441 0.199937
0.964661 0.561762 0.217505
0.973899 0.555826 0.228804
0.982782 0.551046 0.236021
0.991376 0.544674 0.240983
0.204750 0.635744 0.306423
0.207881 0.635167 0.306503
0.211148 0.634821 0.306651
0.214520 0.634444 0.306704
0.216617 0.632066 0.305689
0.217898 0.628247 0.303827
0.221039 0.623259 0.301561
0.405961 0.642776 0.332461
0.680812 0.692850 0.264224
0.863989 0.704700 0.086656
0.946772 0.692884 0.085596
0.957082 0.683271 0.138324
0.966515 0.675897 0.167687
0.976261 0.670939 0.182733
0.985659 0.667029 0.191351
0.994785 0.660743 0.197409
0.267883 0.722934 0.358460
0.270327 0.722447 0.358627
0.272928 0.722191 0.358728
0.275541 0.721742 0.358830
0.277037 0.719770 0.357931
0.277978 0.716816 0.356429
0.278152 0.712635 0.354226
0.286345 0.708718 0.353157
0.518588 0.736321 0.397098
0.763420 0.783980 0.300064
0.912902 0.798697 0.122192
0.954862 0.792484 0.082304
0.964991 0.786022 0.077244
0.974602 0.781472 0.101446
0.984543 0.777451 0.112678
0.993870 0.771018 0.122770
0.318445 0.793825 0.403918
0.320742 0.793528 0.403989
0.323066 0.793369 0.404122
0.325447 0.793022 0.404371
0.326997 0.791593 0.403721
0.328144 0.789631 0.402730
0.328780 0.786563 0.401110
0.328935 0.782759 0.398973
0.364564 0.782512 0.404357
0.644568 0.819337 0.455419
0.831993 0.859985 0.334546
0.937900 0.876261 0.182175
0.961402 0.873924 0.149499
0.971120 0.870923 0.135778
0.980951 0.868104 0.124483
0.990359 0.863115 0.112414
0.340831 0.825622 0.425054
0.343270 0.825888 0.425529
0.345764 0.825991 0.425882
0.348224 0.826188 0.426237
0.350782 0.826245 0.426705
0.353302 0.826428 0.427148
0.355831 0.826593 0.427524
0.358331 0.826371 0.427758
0.360023 0.825098 0.427298
0.526211 0.844664 0.468368
0.749436 0.881748 0.487461
0.881676 0.916298 0.365795
0.951536 0.932045 0.257331
0.967645 0.932533 0.229932
0.977653 0.931578 0.213445
0.986966 0.928917 0.196250
0.347187 0.834861 0.431229
0.349575 0.834983 0.431635
0.352034 0.835142 0.432005
0.354446 0.835177 0.432363
0.356932 0.835382 0.432899
0.359496 0.835636 0.433281
0.362050 0.835662 0.433689
0.364643 0.835780 0.434110
0.367366 0.836093 0.434642
0.437567 0.844473 0.452377
0.687610 0.881715 0.511621
0.832547 0.914963 0.460055
0.916914 0.941862 0.351398
0.962709 0.954604 0.282937
0.975143 0.956980 0.264919
0.984607 0.958100 0.250837
0.353312 0.843587 0.437249
0.355619 0.843678 0.437587
0.358012 0.843921 0.438011
0.360451 0.844152 0.438381
0.362932 0.844193 0.438730
0.365423 0.844324 0.439213
0.367929 0.844449 0.439660
0.370504 0.844560 0.440080
0.373233 0.844825 0.440506
0.402664 0.848020 0.447164
0.644295 0.881765 0.512145
0.798552 0.912636 0.496477
0.891467 0.940403 0.406087
0.942733 0.957034 0.331340
0.973294 0.964958 0.286127
0.983513 0.966472 0.270964
0.359327 0.852475 0.443153
0.361652 0.852476 0.443459
0.364020 0.852626 0.443904
0.366379 0.852806 0.444326
0.368827 0.853006 0.444630
0.371303 0.852981 0.445151
0.373834 0.853163 0.445504
0.376385 0.853427 0.446001
0.378992 0.853450 0.446416
0.395931 0.855046 0.449998
0.608406 0.883669 0.508929
0.772412 0.913513 0.518075
0.870974 0.939887 0.449263
0.926230 0.959003 0.373829
0.962344 0.970081 0.320728
0.982458 0.974416 0.290805
0.365022 0.860707 0.448759
0.367292 0.860841 0.449048
0.369685 0.860995 0.449510
0.372001 0.860989 0.449872
0.374462 0.861094 0.450349
0.376877 0.861407 0.450731
0.379288 0.861436 0.451149
0.381864 0.861597 0.451651
0.384452 0.861773 0.452045
0.392279 0.862475 0.453605
0.569833 0.885156 0.502360
0.746403 0.914720 0.532582
0.851764 0.940097 0.483290
0.914180 0.961047 0.408496
0.951037 0.973488 0.354986
0.976762 0.981128 0.317175
0.000000 0.002503 0.003891
0.009459 0.009260 0.009269
0.082354 0.035915 0.031421
0.216906 0.062727 0.060096
0.360438 0.073686 0.083933
0.518878 0.081833 0.117707
0.667615 0.087549 0.156609
0.804704 0.089179 0.196108
0.887860 0.089025 0.229830
0.895142 0.091514 0.250189
0.902705 0.093350 0.265750
0.910960 0.094714 0.277757
0.919810 0.095497 0.286738
0.929171 0.095857 0.293261
0.938826 0.095827 0.297837
0.948269 0.095511 0.300809
0.000000 0.006571 0.006255
0.006202 0.012004 0.009897
0.072586 0.036187 0.029858
0.207216 0.064241 0.058268
0.350309 0.076901 0.082040
0.509244 0.086551 0.115471
0.658220 0.093336 0.153847
0.795907 0.096110 0.193220
0.888530 0.096037 0.227843
0.895628 0.098624 0.249334
0.903297 0.100516 0.264994
0.911535 0.101822 0.277080
0.920290 0.102648 0.286057
0.929653 0.103034 0.292597
0.939462 0.102918 0.296971
0.948552 0.102598 0.299920
0.000000 0.023122 0.015370
0.000722 0.026491 0.016853
0.044345 0.043646 0.026981
0.190682 0.078392 0.054573
0.343466 0.086836 0.079796
0.506118 0.090815 0.113790
0.656750 0.098459 0.152251
0.795527 0.101873 0.191581
0.889119 0.102134 0.226237
0.896109 0.104612 0.248125
0.903861 0.106455 0.263736
0.912008 0.107752 0.275815
0.920861 0.108536 0.284790
0.930357 0.108865 0.291153
0.939879 0.108760 0.295154
0.949362 0.108330 0.297930
0.000000 0.072704 0.043201
0.000000 0.074417 0.043571
0.000000 0.076183 0.043979
0.129236 0.115175 0.054735
0.335580 0.149955 0.073339
0.504614 0.154062 0.111769
0.652802 0.147996 0.149579
0.788485 0.126567 0.187609
0.888236 0.112416 0.222865
0.896837 0.110730 0.245446
0.904592 0.112446 0.261101
0.912797 0.113722 0.273143
0.921669 0.114500 0.282117
0.931061 0.114806 0.288655
0.940870 0.114758 0.293014
0.950066 0.114440 0.295900
0.000000 0.183079 0.087339
0.000000 0.184077 0.086952
0.000156 0.185332 0.086644
0.000788 0.184924 0.085733
0.260798 0.244823 0.102045
0.492663 0.263420 0.092128
0.647727 0.250021 0.141960
0.781249 0.248479 0.180509
0.889579 0.236992 0.215311
0.904807 0.212245 0.241624
0.910100 0.184740 0.257957
0.915583 0.147232 0.269289
0.923507 0.134451 0.278342
0.932741 0.131538 0.285119
0.942147 0.128988 0.289830
0.951380 0.126179 0.293028
0.004295 0.332631 0.149079
0.011392 0.332095 0.149260
0.019722 0.332072 0.149624
0.027198 0.331323 0.149673
0.034285 0.325837 0.147667
0.388690 0.381141 0.150735
0.606985 0.389900 0.084245
0.761186 0.366360 0.154382
0.887442 0.343633 0.200472
0.918037 0.330887 0.234022
0.924852 0.326508 0.253385
0.932343 0.322506 0.267130
0.940119 0.317371 0.277029
0.948561 0.312731 0.283889
0.957360 0.307925 0.288399
0.965598 0.301361 0.291240
0.068388 0.446748 0.205136
0.075721 0.445840 0.205255
0.082590 0.445653 0.205518
0.089371 0.444956 0.205513
0.094822 0.441668 0.204201
0.178405 0.444554 0.212526
0.500165 0.494457 0.191760
0.699408 0.500075 0.091034
0.855717 0.477000 0.150158
0.930987 0.447341 0.207602
0.937295 0.426519 0.238241
0.944100 0.413354 0.256690
0.951572 0.405291 0.268829
0.960061 0.401400 0.276714
0.968504 0.399355 0.281508
0.977050 0.396100 0.284554
0.138155 0.543391 0.256432
0.142527 0.542282 0.256340
0.147058 0.542038 0.256515
0.151623 0.541418 0.256522
0.154902 0.538663 0.255408
0.157163 0.533950 0.253211
0.294500 0.545331 0.272654
0.596499 0.595439 0.227040
0.785536 0.599958 0.089517
0.924838 0.577443 0.140750
0.945927 0.554088 0.196127
0.954090 0.537382 0.223135
0.962443 0.525027 0.240765
0.971390 0.517048 0.251807
0.980014 0.511163 0.258857
0.988572 0.504261 0.263495
0.203283 0.635302 0.307952
0.206144 0.634171 0.307791
0.209300 0.633797 0.307878
0.212530 0.633256 0.307881
0.214606 0.630810 0.306847
0.215816 0.626888 0.304973
0.219471 0.621884 0.302745
0.413367 0.642930 0.334794
0.685035 0.690134 0.259555
0.868716 0.694633 0.085421
0.946743 0.676951 0.106902
0.956990 0.663172 0.164043
0.966266 0.652114 0.190279
0.975801 0.644455 0.204941
0.985213 0.638440 0.213706
0.994362 0.630788 0.219857
0.266656 0.722543 0.360232
0.268742 0.721341 0.360004
0.271202 0.721155 0.360053
0.273720 0.720636 0.360047
0.275188 0.718557 0.359110
0.276101 0.715543 0.357520
0.276220 0.711401 0.355350
0.286016 0.707487 0.354643
0.529878 0.737141 0.400234
0.768376 0.781308 0.292888
0.916465 0.789907 0.118706
0.955279 0.779687 0.081780
0.965158 0.771030 0.102473
0.975168 0.764766 0.119859
0.984962 0.759460 0.129480
0.994427 0.752025 0.149050
0.317409 0.793607 0.405500
0.319254 0.792511 0.405366
0.321408 0.792213 0.405531
0.323676 0.792020 0.405604
0.325298 0.790738 0.405044
0.326405 0.788392 0.403896
0.327022 0.785452 0.402329
0.327115 0.781462 0.400079
0.374371 0.782466 0.408057
0.654079 0.820027 0.456033
0.837166 0.857504 0.324459
0.940191 0.869045 0.175031
0.961531 0.864430 0.144814
0.971388 0.859991 0.131564
0.981429 0.855879 0.120113
0.990956 0.850110 0.108063
0.339937 0.825833 0.427006
0.342604 0.826001 0.427668
0.344907 0.826144 0.427970
0.347341 0.826148 0.428416
0.349915 0.826344 0.428771
0.352445 0.826535 0.429283
0.354980 0.826652 0.429653
0.357120 0.825995 0.429520
0.360495 0.824621 0.429244
0.540603 0.846485 0.474189
0.758443 0.883232 0.484993
0.886945 0.914317 0.353777
0.954629 0.926407 0.245740
0.968044 0.925272 0.222151
0.978064 0.923493 0.205746
0.987529 0.920164 0.188277
0.346271 0.834953 0.433134
0.348957 0.835079 0.433845
0.351240 0.835123 0.434155
0.353619 0.835314 0.434568
0.356119 0.835561 0.434979
0.358660 0.835634 0.435350
0.361142 0.835755 0.435827
0.363881 0.835981 0.436253
0.366526 0.836262 0.436749
0.455587 0.846671 0.458842
0.697623 0.883885 0.514348
0.840765 0.917550 0.454606
0.922343 0.943668 0.347977
0.963625 0.954343 0.286778
0.975118 0.956156 0.269578
0.984474 0.957039 0.254711
0.352406 0.843668 0.439128
0.355024 0.843876 0.439742
0.357287 0.844085 0.440160
0.359658 0.844110 0.440491
0.362156 0.844319 0.440970
0.364652 0.844427 0.441338
0.367155 0.844441 0.441785
0.369708 0.844720 0.442276
0.372351 0.844977 0.442719
0.404996 0.848611 0.450157
0.655519 0.884038 0.516556
0.808174 0.915403 0.493632
0.898979 0.943135 0.400386
0.947831 0.958493 0.328878
0.974048 0.965106 0.291033
0.983354 0.966611 0.277023
0.358427 0.852567 0.445087
0.361038 0.852593 0.445643
0.363221 0.852741 0.446088
0.365575 0.852992 0.446440
0.368035 0.852991 0.446863
0.370495 0.853178 0.447246
0.372939 0.853343 0.447608
0.375557 0.853603 0.448220
0.378175 0.853690 0.448605
0.396979 0.855477 0.452618
0.620452 0.885850 0.514537
0.782291 0.916011 0.517047
0.879306 0.943008 0.443465
0.933597 0.961430 0.368579
0.968488 0.971936 0.317423
0.982426 0.974501 0.296545
0.364195 0.860746 0.450681
0.366719 0.860965 0.451434
0.368922 0.860939 0.451681
0.371217 0.861091 0.452125
0.373616 0.861345 0.452445
0.376086 0.861509 0.452849
0.378527 0.861479 0.453344
0.380978 0.861775 0.453744
0.383641 0.861957 0.454132
0.392168 0.862549 0.455835
0.583273 0.887535 0.508823
0.756125 0.917100 0.533331
0.860802 0.943024 0.477908
0.922411 0.963994 0.401645
0.958169 0.975823 0.350321
0.981234 0.982594 0.316400
0.000000 0.011725 0.014995
0.003118 0.018085 0.023823
0.074701 0.043686 0.044674
0.217763 0.068182 0.071424
0.360418 0.076790 0.094235
0.516404 0.083634 0.127013
0.665057 0.088991 0.165899
0.802450 0.090618 0.205862
0.886484 0.090533 0.239575
0.893370 0.093098 0.259534
0.901125 0.095051 0.274647
0.909269 0.096460 0.286313
0.918063 0.097390 0.295041
0.927426 0.097727 0.301634
0.936980 0.097634 0.306281
0.946461 0.097306 0.309276
0.000000 0.013223 0.015914
0.002044 0.018721 0.022547
0.064752 0.042601 0.042082
0.202925 0.068364 0.067782
0.344196 0.078866 0.088964
0.497492 0.087230 0.119690
0.642379 0.093821 0.156725
0.777936 0.097086 0.195779
0.880960 0.096977 0.231384
0.894855 0.099252 0.253105
0.902731 0.101110 0.268506
0.910976 0.102434 0.280394
0.919861 0.103268 0.289273
0.929206 0.103649 0.295783
0.938696 0.103594 0.300317
0.948099 0.103286 0.303306
0.000000 0.028543 0.026403
0.000503 0.031558 0.028270
0.034548 0.048011 0.039272
0.185855 0.081898 0.065606
0.340890 0.091681 0.088614
0.502351 0.099301 0.122438
0.651711 0.100017 0.160587
0.791217 0.103673 0.200758
0.885915 0.104188 0.235971
0.894433 0.106804 0.257833
0.902290 0.108766 0.273312
0.910318 0.110230 0.285187
0.919090 0.111108 0.294037
0.928484 0.111477 0.300500
0.938244 0.111321 0.304355
0.947691 0.110931 0.306961
0.000000 0.073673 0.046312
0.000000 0.075389 0.046684
0.000000 0.077493 0.047760
0.125760 0.115681 0.065101
0.331673 0.154925 0.087439
0.502365 0.167000 0.123707
0.651569 0.162641 0.160863
0.787342 0.142744 0.198244
0.887504 0.130799 0.232975
0.895796 0.120639 0.254701
0.903387 0.121154 0.270246
0.911569 0.120536 0.282182
0.920136 0.117025 0.290885
0.929514 0.116905 0.297320
0.939264 0.116752 0.301042
0.948682 0.116398 0.303619
0.000000 0.182389 0.089150
0.000000 0.183505 0.088735
0.000000 0.184736 0.088456
0.000784 0.184215 0.087523
0.259602 0.244262 0.107560
0.489863 0.263943 0.111335
0.644665 0.260894 0.154544
0.778430 0.265172 0.191413
0.888235 0.251419 0.226748
0.904297 0.223565 0.252876
0.909506 0.198723 0.268703
0.915142 0.166172 0.279613
0.922625 0.148410 0.288014
0.931618 0.144149 0.294462
0.941032 0.140885 0.298941
0.950164 0.137341 0.301967
0.002874 0.331903 0.150641
0.009769 0.331418 0.150754
0.016451 0.331399 0.151136
0.023107 0.330543 0.151137
0.030174 0.324995 0.149102
0.387695 0.380611 0.154611
0.605273 0.389755 0.112144
0.759171 0.368075 0.169230
0.885984 0.352706 0.212629
0.919456 0.350880 0.244124
0.926204 0.347492 0.263468
0.933203 0.340539 0.277532
0.940484 0.332713 0.287732
0.948695 0.326687 0.294678
0.957365 0.321151 0.299243
0.965711 0.314183 0.302122
0.064371 0.446139 0.206598
0.072083 0.445319 0.206638
0.080006 0.445110 0.207002
0.086645 0.444394 0.206996
0.092014 0.441025 0.205662
0.178737 0.444329 0.214292
0.499128 0.494014 0.195932
0.698439 0.500136 0.107303
0.854738 0.477109 0.166622
0.930497 0.450059 0.221154
0.936877 0.432443 0.250566
0.944321 0.423487 0.268036
0.952455 0.420284 0.279345
0.960934 0.419767 0.286663
0.969954 0.419228 0.291293
0.978501 0.417176 0.294159
0.135764 0.542895 0.257869
0.140290 0.541918 0.257720
0.145356 0.541572 0.258056
0.149768 0.540967 0.258037
0.152958 0.538226 0.256896
0.155301 0.533513 0.254708
0.294214 0.545145 0.274331
0.595512 0.595099 0.231399
0.784819 0.600103 0.103546
0.924182 0.577390 0.158266
0.945368 0.554210 0.211083
0.953796 0.538613 0.237068
0.962049 0.527394 0.253975
0.970967 0.520194 0.264688
0.979616 0.515064 0.271397
0.988011 0.508743 0.276019
0.201673 0.634872 0.309445
0.204709 0.633804 0.309212
0.208118 0.633449 0.309474
0.211198 0.632839 0.309442
0.213178 0.630339 0.308363
0.214403 0.626454 0.306487
0.218666 0.621541 0.304370
0.413265 0.642742 0.336549
0.684157 0.689924 0.264272
0.868204 0.694912 0.098564
0.946706 0.677383 0.129033
0.956688 0.663616 0.180459
0.966049 0.652270 0.205287
0.975580 0.644857 0.219382
0.985062 0.639056 0.227885
0.993987 0.631451 0.233936
0.265404 0.722372 0.361730
0.267588 0.721142 0.361407
0.270269 0.720791 0.361730
0.272654 0.720203 0.361684
0.274052 0.718274 0.360704
0.274990 0.715192 0.359205
0.275127 0.711214 0.357086
0.285598 0.707413 0.356334
0.529288 0.737033 0.402089
0.767555 0.781316 0.298002
0.915980 0.790233 0.126392
0.955442 0.780199 0.094543
0.965183 0.771814 0.117292
0.974967 0.765581 0.135850
0.984667 0.760410 0.148230
0.994000 0.752987 0.167340
0.316331 0.793497 0.407262
0.318264 0.792274 0.407008
0.320670 0.792118 0.407352
0.322823 0.791924 0.407493
0.324364 0.790531 0.406784
0.325482 0.788312 0.405769
0.326130 0.785397 0.404076
0.326186 0.781406 0.401952
0.374127 0.782477 0.410017
0.653496 0.820002 0.458183
0.836477 0.857395 0.329591
0.939879 0.869472 0.182306
0.961363 0.864935 0.152068
0.971342 0.860228 0.138881
0.981311 0.856419 0.127729
0.990741 0.850576 0.115734
0.339097 0.825953 0.428998
0.341796 0.826096 0.429469
0.344296 0.826295 0.430005
0.346677 0.826363 0.430419
0.349142 0.826467 0.430807
0.351694 0.826643 0.431180
0.354235 0.826640 0.431645
0.356332 0.826018 0.431455
0.359656 0.824739 0.431176
0.540065 0.846518 0.476206
0.757749 0.883169 0.487732
0.886076 0.914250 0.359467
0.954151 0.926706 0.252355
0.967979 0.925742 0.228923
0.977803 0.923745 0.212692
0.987310 0.920699 0.195289
0.345459 0.835043 0.435104
0.348124 0.835084 0.435585
0.350632 0.835271 0.436148
0.352916 0.835493 0.436643
0.355389 0.835707 0.436994
0.357905 0.835731 0.437374
0.360417 0.835872 0.437759
0.363118 0.836188 0.438307
0.365810 0.836250 0.438715
0.455714 0.847028 0.461161
0.696795 0.884073 0.516613
0.839715 0.917696 0.459011
0.921664 0.943627 0.353681
0.963478 0.954404 0.292607
0.974895 0.956350 0.275784
0.984378 0.957071 0.260894
0.351563 0.843870 0.441053
0.354197 0.844032 0.441527
0.356673 0.844069 0.442238
0.358945 0.844223 0.442555
0.361418 0.844327 0.443021
0.363907 0.844612 0.443366
0.366414 0.844677 0.443724
0.368939 0.844941 0.444205
0.371666 0.845032 0.444738
0.405059 0.848594 0.452280
0.654496 0.884159 0.518665
0.807274 0.915386 0.497174
0.898111 0.943006 0.405760
0.947244 0.958463 0.334995
0.973666 0.965236 0.297113
0.983133 0.966626 0.283131
0.357578 0.852511 0.447039
0.360259 0.852699 0.447484
0.362620 0.852939 0.448225
0.364922 0.853038 0.448479
0.367292 0.853097 0.448832
0.369749 0.853262 0.449301
0.372257 0.853496 0.449713
0.374869 0.853579 0.450131
0.377431 0.853755 0.450560
0.396609 0.855514 0.454659
0.619678 0.886027 0.516623
0.780872 0.915932 0.520204
0.878312 0.942861 0.448491
0.933013 0.961290 0.374112
0.967965 0.971755 0.323550
0.982137 0.974744 0.302383
0.363323 0.860880 0.452574
0.365926 0.860885 0.453130
0.368427 0.861053 0.453805
0.370526 0.861238 0.454069
0.372919 0.861409 0.454596
0.375335 0.861470 0.454903
0.377778 0.861675 0.455233
0.380265 0.861906 0.455786
0.382890 0.861912 0.456232
0.391641 0.862754 0.457931
0.582294 0.887616 0.510716
0.754710 0.917009 0.535963
0.859674 0.943157 0.482245
0.921644 0.963887 0.407078
0.957458 0.975739 0.356121
0.980863 0.982717 0.322102
0.000000 0.027070 0.034126
0.000000 0.030984 0.039134
0.035158 0.058165 0.071289
0.196952 0.087550 0.099207
0.358317 0.088791 0.123687
0.510058 0.090444 0.153483
0.658482 0.093773 0.190761
0.797302 0.094875 0.229563
0.882772 0.094301 0.260910
0.889812 0.096771 0.277856
0.897573 0.098666 0.291008
0.906035 0.100117 0.301746
0.914666 0.101021 0.309915
0.923967 0.101363 0.316115
0.933590 0.101253 0.320506
0.943154 0.100856 0.323438
0.000000 0.028443 0.034857
0.000000 0.032025 0.039121
0.032456 0.057314 0.069060
0.182264 0.086963 0.095601
0.339564 0.090790 0.118642
0.488247 0.094032 0.146575
0.633832 0.097830 0.178535
0.771248 0.099782 0.211717
0.877087 0.098872 0.242782
0.893545 0.100735 0.261903
0.901348 0.102569 0.275998
0.909654 0.103815 0.287058
0.918314 0.104609 0.295410
0.927808 0.104961 0.301682
0.937470 0.104852 0.306153
0.946775 0.104481 0.309013
0.000000 0.034847 0.039637
0.000000 0.037280 0.042356
0.014111 0.054975 0.063418
0.164727 0.087459 0.092106
0.332810 0.093487 0.116690
0.486578 0.097387 0.142897
0.634258 0.102334 0.174065
0.771356 0.105709 0.210214
0.877283 0.105874 0.244364
0.893277 0.108036 0.264907
0.900953 0.109926 0.279150
0.909248 0.111316 0.290259
0.917965 0.112092 0.298687
0.927393 0.112464 0.305045
0.936979 0.112471 0.309648
0.946550 0.112104 0.312737
0.000000 0.083733 0.074524
0.000394 0.084435 0.074744
0.000370 0.085688 0.075774
0.082793 0.117211 0.093677
0.313802 0.157382 0.123076
0.492653 0.173250 0.152819
0.645082 0.179017 0.186613
0.782451 0.169908 0.221805
0.884367 0.143226 0.253809
0.892890 0.130354 0.273086
0.899893 0.123314 0.287048
0.908206 0.122790 0.298135
0.916869 0.123342 0.306599
0.926102 0.123738 0.312849
0.935790 0.123884 0.316912
0.945439 0.123673 0.319802
0.000000 0.182585 0.107115
0.000000 0.183701 0.107227
0.000000 0.185112 0.108280
0.000213 0.185460 0.111952
0.247834 0.241399 0.149810
0.479805 0.267512 0.155909
0.636137 0.275939 0.186748
0.772243 0.277645 0.219632
0.885584 0.272012 0.252174
0.904946 0.263316 0.275656
0.911809 0.256516 0.290325
0.919471 0.251445 0.301444
0.927699 0.247332 0.309649
0.936568 0.244945 0.315534
0.946377 0.245414 0.319738
0.955496 0.244831 0.322553
0.001891 0.329058 0.151480
0.008589 0.328643 0.151589
0.014856 0.328567 0.151894
0.014883 0.327821 0.154013
0.020893 0.322603 0.153679
0.383367 0.378889 0.187789
0.601270 0.388209 0.168626
0.753707 0.375291 0.204720
0.882105 0.376480 0.238896
0.919686 0.373295 0.268127
0.925339 0.362796 0.286992
0.931346 0.352252 0.300236
0.938895 0.343032 0.309674
0.946989 0.336870 0.316153
0.955808 0.332456 0.320474
0.964200 0.327696 0.323153
0.059355 0.444382 0.207495
0.067362 0.443679 0.207512
0.075492 0.443385 0.207859
0.083109 0.442646 0.207851
0.088364 0.439128 0.206453
0.178644 0.442968 0.215709
0.497122 0.492576 0.213098
0.696233 0.498910 0.166183
0.852388 0.477036 0.208066
0.929387 0.458056 0.250544
0.936917 0.452113 0.274507
0.945446 0.451895 0.289139
0.953952 0.452073 0.299243
0.962610 0.451890 0.306210
0.971485 0.450796 0.310872
0.979956 0.447781 0.313841
0.132696 0.541540 0.258850
0.137363 0.540655 0.258743
0.142536 0.540378 0.258991
0.147344 0.539534 0.258999
0.150473 0.536776 0.257846
0.152683 0.532014 0.255624
0.293964 0.543935 0.275500
0.594145 0.593940 0.239030
