public/kits/editing-mini-guide/luts/cinematic-v1-log-15.cube
LUT_3D_SIZE 16
0.000252 0.001266 0.000570
0.015166 0.001893 0.001864
0.088501 0.005376 0.009523
0.243681 0.015720 0.023248
0.462915 0.032351 0.044475
0.640290 0.043087 0.071551
0.763987 0.049006 0.100381
0.849085 0.058249 0.130352
0.889279 0.079485 0.158816
0.893350 0.081297 0.177969
0.897571 0.083242 0.193238
0.901693 0.085793 0.205255
0.905657 0.088951 0.214114
0.909250 0.092971 0.220237
0.912923 0.097305 0.224275
0.916114 0.101614 0.226695
0.000800 0.011848 0.002075
0.011387 0.011706 0.002075
0.083684 0.009863 0.008954
0.235912 0.017906 0.022789
0.455274 0.033493 0.043799
0.635454 0.044151 0.071018
0.760801 0.052026 0.099881
0.846601 0.064961 0.130022
0.889199 0.086801 0.158660
0.893255 0.088931 0.178651
0.897493 0.091197 0.193963
0.901766 0.093914 0.205970
0.905773 0.097083 0.214865
0.909306 0.100997 0.221010
0.912752 0.105218 0.225013
0.916217 0.109380 0.227429
0.003295 0.054695 0.008906
0.006855 0.054275 0.008691
0.053877 0.051803 0.008012
0.224263 0.043503 0.019802
0.447196 0.040528 0.042610
0.629956 0.045208 0.069862
0.757310 0.053849 0.098829
0.844337 0.070962 0.129192
0.889006 0.094178 0.158319
0.893158 0.096119 0.178977
0.897436 0.099112 0.194325
0.901651 0.101896 0.206389
0.905755 0.105178 0.215249
0.909321 0.109090 0.221418
0.912804 0.113212 0.225474
0.916251 0.117332 0.227888
0.010325 0.136226 0.021551
0.011508 0.135304 0.021398
0.012752 0.134238 0.021216
0.120580 0.129948 0.015162
0.409212 0.126738 0.030712
0.614088 0.104435 0.063728
0.749487 0.078001 0.095060
0.840395 0.082067 0.126299
0.888735 0.101872 0.156144
0.893008 0.103348 0.177278
0.897360 0.106715 0.192873
0.901589 0.109855 0.205001
0.905703 0.113169 0.213988
0.909256 0.117180 0.220216
0.912777 0.121188 0.224326
0.916238 0.125107 0.226787
0.019520 0.249615 0.037360
0.019484 0.249255 0.037304
0.019447 0.248914 0.037253
0.019338 0.247117 0.036981
0.211073 0.242173 0.029268
0.547398 0.242897 0.034350
0.714724 0.228941 0.076609
0.818537 0.212632 0.112004
0.880840 0.194555 0.145662
0.891149 0.149739 0.170716
0.896231 0.136226 0.187480
0.900975 0.129672 0.200211
0.905451 0.124072 0.209303
0.909227 0.124659 0.215694
0.912712 0.128678 0.220008
0.915973 0.132185 0.222671
0.033081 0.374151 0.055468
0.033195 0.373865 0.055409
0.033289 0.373460 0.055353
0.033436 0.372366 0.055202
0.034793 0.367571 0.054448
0.317302 0.368714 0.043159
0.608868 0.373853 0.025315
0.776273 0.367316 0.081809
0.865056 0.354853 0.124594
0.885128 0.331425 0.154404
0.890088 0.308230 0.173164
0.894832 0.288473 0.187048
0.899856 0.270758 0.197380
0.904483 0.255654 0.204568
0.908588 0.248644 0.209469
0.912351 0.239620 0.212709
0.046918 0.467976 0.069467
0.050302 0.467939 0.069333
0.053273 0.467730 0.069214
0.056048 0.467362 0.069060
0.058817 0.464553 0.068553
0.112315 0.461895 0.067080
0.398306 0.467390 0.055694
0.643507 0.474893 0.029631
0.809926 0.475357 0.086946
0.872445 0.462989 0.131567
0.880996 0.447922 0.153985
0.887285 0.435730 0.169827
0.892779 0.425994 0.181279
0.897674 0.419418 0.189317
0.902284 0.414263 0.194685
0.906738 0.407900 0.198392
0.099542 0.546560 0.087213
0.103388 0.546527 0.087273
0.107847 0.546602 0.087149
0.112282 0.546464 0.086875
0.113971 0.544521 0.085869
0.113892 0.540947 0.084030
0.222336 0.542419 0.082659
0.460962 0.548503 0.073936
0.671580 0.557631 0.051543
0.817889 0.561008 0.097718
0.846825 0.551760 0.131007
0.858567 0.543590 0.146383
0.867994 0.536754 0.157820
0.875383 0.532152 0.166131
0.882474 0.528549 0.171995
0.888628 0.523449 0.176428
0.185733 0.614587 0.137421
0.188878 0.614649 0.137448
0.191958 0.614660 0.137484
0.195034 0.614676 0.137470
0.196503 0.613334 0.136078
0.196662 0.610876 0.133780
0.198089 0.607543 0.130532
0.321500 0.611440 0.126772
0.525452 0.619071 0.117077
0.704142 0.628326 0.091696
0.786061 0.630022 0.106880
0.805140 0.626015 0.132323
0.818381 0.622426 0.145618
0.828565 0.620084 0.152379
0.837167 0.618115 0.156710
0.845828 0.614554 0.159447
0.255662 0.671817 0.196722
0.258084 0.671958 0.196626
0.260539 0.672052 0.196618
0.262823 0.672153 0.196592
0.263921 0.671212 0.195295
0.264312 0.669549 0.193345
0.263716 0.667088 0.190604
0.267203 0.664643 0.187100
0.408136 0.671752 0.180593
0.592348 0.683800 0.165103
0.725070 0.695038 0.137642
0.760561 0.695063 0.127304
0.769783 0.692030 0.125594
0.782624 0.691257 0.137644
0.793323 0.690217 0.143332
0.803638 0.687420 0.147820
0.306151 0.716737 0.238985
0.307787 0.716946 0.239013
0.309474 0.717214 0.239085
0.311166 0.717169 0.239139
0.312373 0.716519 0.238420
0.313152 0.715296 0.237274
0.313752 0.713660 0.235729
0.313651 0.711325 0.233577
0.332523 0.710753 0.229805
0.510195 0.728770 0.215020
0.657703 0.745682 0.191264
0.746507 0.756026 0.165432
0.765285 0.755411 0.158218
0.772698 0.753894 0.154662
0.779945 0.752612 0.151622
0.786638 0.749788 0.148182
0.320120 0.738636 0.252963
0.322337 0.739045 0.253136
0.324454 0.739482 0.253327
0.326502 0.739869 0.253547
0.328550 0.740102 0.253630
0.330623 0.740451 0.253707
0.332664 0.740770 0.253780
0.334630 0.740925 0.253606
0.336160 0.740195 0.252975
0.439994 0.755543 0.242531
0.606503 0.781185 0.224479
0.716157 0.799615 0.196917
0.772746 0.808547 0.176548
0.784390 0.808457 0.171378
0.791099 0.807683 0.168266
0.797150 0.805455 0.165221
0.323780 0.745154 0.256387
0.326016 0.745524 0.256587
0.328206 0.745920 0.256762
0.330342 0.746257 0.256979
0.332481 0.746720 0.257046
0.334570 0.747005 0.257113
0.336631 0.747420 0.257181
0.338777 0.747660 0.257166
0.340933 0.748051 0.257118
0.384867 0.755421 0.252733
0.563584 0.786333 0.235978
0.681615 0.808276 0.213755
0.753723 0.823158 0.190260
0.790644 0.831525 0.175965
0.800193 0.833475 0.172270
0.807123 0.834390 0.169507
0.327419 0.751684 0.259141
0.329883 0.752177 0.259338
0.332108 0.752511 0.259538
0.334281 0.752932 0.259708
0.336537 0.753305 0.259805
0.338671 0.753651 0.259876
0.340775 0.754149 0.259937
0.342901 0.754343 0.259948
0.344996 0.754788 0.259884
0.362872 0.757850 0.258111
0.532926 0.788007 0.241624
0.657998 0.811255 0.222740
0.737151 0.827466 0.198850
0.780065 0.837100 0.182426
0.804138 0.842635 0.172704
0.811660 0.843866 0.169756
0.331069 0.758084 0.261853
0.333491 0.758530 0.262045
0.335932 0.759005 0.262221
0.338127 0.759472 0.262392
0.340440 0.759810 0.262505
0.342696 0.760283 0.262554
0.344878 0.760491 0.262638
0.346971 0.761084 0.262632
0.349085 0.761303 0.262593
0.359943 0.763115 0.261688
0.507490 0.790127 0.246601
0.640951 0.815343 0.229401
0.724387 0.832350 0.205952
0.771671 0.842954 0.188268
0.800842 0.850030 0.176281
0.816102 0.852980 0.169934
0.334450 0.764366 0.264446
0.336877 0.764767 0.264614
0.339318 0.765232 0.264788
0.341721 0.765627 0.264966
0.344051 0.765990 0.265063
0.346357 0.766405 0.265106
0.348590 0.766895 0.265189
0.350806 0.767296 0.265193
0.352889 0.767561 0.265175
0.358368 0.768541 0.264886
0.479107 0.791080 0.251772
0.623350 0.818801 0.235576
0.712094 0.836906 0.212834
0.766069 0.849028 0.193122
0.796869 0.856316 0.180305
0.817059 0.861426 0.171641
0.000252 0.002561 0.007397
0.015053 0.002555 0.007836
0.087690 0.005493 0.013671
0.242668 0.015490 0.027618
0.461876 0.032167 0.048958
0.639466 0.043011 0.076414
0.763462 0.049066 0.106053
0.848504 0.057209 0.136724
0.889224 0.078889 0.165795
0.893382 0.080617 0.185456
0.897593 0.082723 0.200894
0.901823 0.085414 0.213085
0.905789 0.088650 0.221936
0.909357 0.093639 0.228191
0.912885 0.098380 0.232287
0.916274 0.102717 0.234679
0.000624 0.011834 0.007351
0.011690 0.012175 0.007791
0.081939 0.010498 0.013195
0.232204 0.017582 0.026887
0.449883 0.033139 0.047742
0.630112 0.043877 0.074873
0.756711 0.051417 0.104267
0.843535 0.063402 0.134891
0.889105 0.086877 0.164464
0.893339 0.089355 0.185101
0.897578 0.091646 0.200618
0.901839 0.094457 0.212797
0.905807 0.097679 0.221686
0.909454 0.102132 0.227949
0.912943 0.106720 0.231840
0.916428 0.110977 0.234154
0.003118 0.054819 0.011379
0.006927 0.054619 0.011313
0.054236 0.052157 0.010710
0.223352 0.047653 0.024237
0.443242 0.042676 0.046577
0.626885 0.044977 0.073673
0.755197 0.053629 0.103015
0.843112 0.070075 0.133818
0.888968 0.093894 0.163453
0.893229 0.096413 0.184329
0.897540 0.099136 0.199712
0.901864 0.102063 0.211915
0.905847 0.105314 0.220818
0.909437 0.109553 0.226776
0.912929 0.113954 0.230267
0.916426 0.118072 0.232338
0.010145 0.136260 0.022859
0.011334 0.135136 0.022792
0.012554 0.134190 0.022627
0.122584 0.128916 0.016570
0.412627 0.121724 0.037167
0.611430 0.110356 0.068199
0.744052 0.102869 0.098616
0.836558 0.096119 0.130597
0.887997 0.105198 0.160907
0.893064 0.103442 0.182035
0.897327 0.106839 0.197406
0.901666 0.109925 0.209459
0.905782 0.113233 0.218292
0.909367 0.117312 0.224433
0.912931 0.121566 0.228249
0.916463 0.125609 0.230578
0.019477 0.249594 0.037860
0.019402 0.248891 0.037914
0.019357 0.248508 0.037879
0.019231 0.246581 0.037625
0.214938 0.240108 0.028894
0.555149 0.230496 0.043954
0.717932 0.211397 0.084700
0.817313 0.215289 0.118056
0.878832 0.219884 0.150085
0.889007 0.199862 0.174753
0.894552 0.177038 0.191820
0.900481 0.146078 0.205079
0.905146 0.135990 0.214440
0.908957 0.136335 0.220864
0.912688 0.137689 0.225058
0.916015 0.138658 0.227624
0.033056 0.374045 0.055540
0.033168 0.373120 0.055502
0.033257 0.372749 0.055456
0.033400 0.371670 0.055280
0.034848 0.366667 0.054517
0.321672 0.365800 0.042446
0.619779 0.364084 0.030799
0.784485 0.344491 0.093224
0.867786 0.327361 0.135533
0.885787 0.316271 0.163982
0.889928 0.312011 0.180994
0.894442 0.308750 0.193556
0.898687 0.304575 0.202917
0.903026 0.301361 0.209675
0.907180 0.298276 0.214311
0.911035 0.293688 0.217362
0.046836 0.467816 0.070559
0.050300 0.467225 0.070559
0.053142 0.467013 0.070428
0.055819 0.466472 0.070191
0.058649 0.463647 0.069483
0.117174 0.461129 0.067926
0.403755 0.464552 0.055584
0.656109 0.467664 0.037742
0.821115 0.457693 0.098867
0.877916 0.433517 0.144918
0.885193 0.413239 0.168280
0.890878 0.400447 0.183759
0.895597 0.392882 0.194700
0.899917 0.389484 0.201990
0.904100 0.388063 0.206695
0.908328 0.385657 0.209810
0.099230 0.546479 0.092446
0.102554 0.545864 0.092602
0.106850 0.545884 0.092451
0.111119 0.545681 0.092063
0.112717 0.543678 0.090514
0.112639 0.540018 0.087841
0.228145 0.541824 0.086450
0.467312 0.545996 0.076244
0.683804 0.551303 0.055364
0.830118 0.547230 0.109585
0.857938 0.529276 0.141986
0.870027 0.515365 0.159643
0.879314 0.504848 0.173019
0.886378 0.498143 0.182368
0.892526 0.493426 0.188886
0.898084 0.487548 0.193514
0.185452 0.614390 0.141914
0.188202 0.613967 0.141842
0.191107 0.614035 0.141883
0.194067 0.613963 0.141765
0.195401 0.612480 0.140275
0.195500 0.609980 0.137969
0.197189 0.606613 0.134645
0.326492 0.610705 0.130458
0.531454 0.616703 0.117859
0.713969 0.622622 0.089585
0.795962 0.620093 0.113970
0.816670 0.612869 0.140296
0.830880 0.606259 0.151673
0.841886 0.601665 0.158826
0.850798 0.598017 0.164030
0.860033 0.593104 0.167553
0.255389 0.671630 0.199863
0.257354 0.671275 0.199519
0.259647 0.671486 0.199514
0.261893 0.671481 0.199384
0.262802 0.670289 0.198058
0.263241 0.668714 0.196228
0.262493 0.666289 0.193510
0.266874 0.663815 0.189954
0.415713 0.671526 0.182897
0.597930 0.681384 0.164813
0.730185 0.689489 0.135858
0.763533 0.686681 0.125126
0.777259 0.683120 0.135383
0.789249 0.680829 0.143515
0.799819 0.678883 0.147558
0.811444 0.675498 0.155603
0.305885 0.716667 0.241613
0.307172 0.716030 0.241404
0.308761 0.716238 0.241460
0.310467 0.716467 0.241490
0.311556 0.715621 0.240737
0.312347 0.714666 0.239601
0.312928 0.712817 0.238013
0.312753 0.710431 0.235834
0.338276 0.710532 0.231660
0.517538 0.728483 0.216598
0.662338 0.742758 0.190938
0.748512 0.750024 0.165105
0.765333 0.747974 0.158023
0.772689 0.745444 0.154383
0.780113 0.743440 0.150967
0.787187 0.740237 0.147277
0.320056 0.738647 0.255623
0.322450 0.738990 0.256050
0.324456 0.739427 0.256225
0.326481 0.739824 0.256439
0.328507 0.740065 0.256519
0.330522 0.740443 0.256583
0.332579 0.740877 0.256654
0.334364 0.740511 0.256323
0.336868 0.739912 0.255616
0.449848 0.756802 0.244278
0.614076 0.781881 0.225977
0.719823 0.796653 0.197722
0.773408 0.802642 0.177871
0.782637 0.801473 0.173476
0.789369 0.800024 0.170374
0.795338 0.797464 0.167104
0.323677 0.745087 0.259069
0.326179 0.745530 0.259534
0.328212 0.745881 0.259687
0.330300 0.746291 0.259887
0.332433 0.746756 0.259974
0.334503 0.747027 0.260018
0.336546 0.747364 0.260078
0.338647 0.747635 0.260067
0.340818 0.748042 0.260032
0.397496 0.757499 0.254702
0.572064 0.787969 0.238050
0.689471 0.809974 0.214982
0.758993 0.824295 0.191948
0.791822 0.831394 0.179309
0.800609 0.832809 0.175828
0.807413 0.833272 0.173063
0.327313 0.751699 0.261842
0.330054 0.752051 0.262309
0.332115 0.752537 0.262491
0.334236 0.752942 0.262701
0.336443 0.753270 0.262761
0.338606 0.753603 0.262838
0.340663 0.754095 0.262903
0.342728 0.754297 0.262893
0.344895 0.754761 0.262841
0.364578 0.757938 0.260913
0.542271 0.789615 0.243907
0.666711 0.812949 0.224054
0.744588 0.829090 0.199979
0.785021 0.838442 0.184587
0.805499 0.843101 0.176448
0.812404 0.844040 0.173727
0.330932 0.758100 0.264572
0.333652 0.758610 0.265061
0.335926 0.759038 0.265212
0.338106 0.759486 0.265384
0.340348 0.759790 0.265492
0.342607 0.760235 0.265523
0.344737 0.760439 0.265606
0.346816 0.761045 0.265598
0.348957 0.761279 0.265577
0.360764 0.763381 0.264584
0.517422 0.792102 0.248835
0.649748 0.817048 0.230989
0.732218 0.834185 0.206988
0.778532 0.844496 0.189561
0.806408 0.851470 0.178119
0.816938 0.853325 0.173872
0.334370 0.764382 0.267160
0.337068 0.764746 0.267605
0.339321 0.765267 0.267812
0.341687 0.765643 0.267935
0.343958 0.766064 0.268033
0.346243 0.766501 0.268104
0.348529 0.766844 0.268179
0.350665 0.767256 0.268180
0.352765 0.767528 0.268147
0.358702 0.768565 0.267845
0.490205 0.793196 0.253852
0.632238 0.820567 0.237248
0.720806 0.838890 0.213631
0.773775 0.850924 0.193936
0.803156 0.857982 0.181795
0.821441 0.862383 0.174061
0.000000 0.009312 0.040399
0.010603 0.008428 0.039759
0.085002 0.007242 0.039975
0.242200 0.015078 0.043962
0.461064 0.031828 0.060284
0.638703 0.042865 0.085955
0.762855 0.049107 0.115213
0.848078 0.056809 0.146031
0.889184 0.078182 0.175313
0.893444 0.079762 0.195020
0.897754 0.081847 0.210616
0.901757 0.084549 0.222771
0.905884 0.089253 0.231733
0.909502 0.094512 0.237927
0.913044 0.099596 0.241914
0.916435 0.103989 0.244206
0.000324 0.012577 0.037911
0.008972 0.012486 0.037465
0.078637 0.010976 0.037851
0.225166 0.016676 0.041224
0.440178 0.032159 0.055690
0.619497 0.043052 0.079577
0.745728 0.050746 0.107839
0.834253 0.060952 0.137984
0.886063 0.084247 0.168011
0.893371 0.089092 0.188966
0.897616 0.091503 0.204350
0.901726 0.094258 0.216405
0.905975 0.097734 0.225274
0.909551 0.102444 0.231533
0.913091 0.107133 0.235550
0.916489 0.111458 0.237928
0.001775 0.052124 0.035292
0.005229 0.051905 0.035157
0.054527 0.050630 0.035606
0.220676 0.048785 0.039777
0.440043 0.045893 0.056487
0.624042 0.049473 0.082256
0.752635 0.053381 0.111321
0.841272 0.069439 0.142602
0.888305 0.093347 0.172855
0.893327 0.096864 0.194274
0.897582 0.099492 0.209999
0.901834 0.102195 0.222340
0.905991 0.106534 0.231406
0.909590 0.111251 0.237491
0.913383 0.115737 0.240650
0.916573 0.120002 0.242562
0.009363 0.136115 0.028875
0.010548 0.135113 0.028847
0.011662 0.134459 0.030057
0.124732 0.130112 0.028165
0.409773 0.126965 0.049723
0.608073 0.124243 0.077038
0.742210 0.117028 0.107634
0.835255 0.111847 0.139910
0.887116 0.122684 0.170414
0.893011 0.112988 0.191661
0.897372 0.114722 0.207190
0.901833 0.115468 0.219320
0.905815 0.114325 0.228056
0.909491 0.118444 0.234126
0.913208 0.122843 0.237286
0.916435 0.126877 0.239217
0.019365 0.249060 0.038429
0.019302 0.248440 0.038484
0.019247 0.247935 0.038513
0.019127 0.245928 0.038273
0.215078 0.240160 0.030478
0.555048 0.231574 0.057161
0.714405 0.223547 0.092820
0.814039 0.233021 0.125592
0.877655 0.233003 0.159076
0.888768 0.209887 0.184794
0.894440 0.189498 0.201880
0.900211 0.163673 0.215214
0.905062 0.149142 0.224427
0.908996 0.148180 0.230787
0.912712 0.148385 0.234922
0.916126 0.148707 0.237349
0.032998 0.373545 0.055571
0.033117 0.372676 0.055545
0.033255 0.372285 0.055565
0.033409 0.371110 0.055404
0.034842 0.366102 0.054622
0.321145 0.365549 0.042925
0.621056 0.364555 0.048944
0.783169 0.346035 0.102882
0.866773 0.336380 0.144375
0.885138 0.336463 0.172262
0.889430 0.333136 0.189559
0.893950 0.326542 0.202735
0.898450 0.319487 0.212575
0.902822 0.314569 0.219537
0.906968 0.310721 0.224197
0.910964 0.305610 0.227297
0.046718 0.467519 0.071262
0.050191 0.466893 0.071250
0.053350 0.466676 0.071295
0.055916 0.466172 0.071060
0.058683 0.463246 0.070294
0.118514 0.460865 0.068642
0.403416 0.464467 0.056526
0.656986 0.467958 0.047616
0.821472 0.457469 0.109180
0.877610 0.435631 0.154835
0.884694 0.418370 0.178236
0.890182 0.409711 0.193339
0.894918 0.406900 0.203656
0.898964 0.406723 0.210692
0.903155 0.406808 0.215339
0.907359 0.405442 0.218388
0.098741 0.546232 0.096338
0.102132 0.545636 0.096142
0.106789 0.545672 0.096374
0.110845 0.545443 0.095950
0.112344 0.543400 0.094369
0.112515 0.539808 0.091856
0.228405 0.541577 0.090385
0.467573 0.546111 0.080012
0.685188 0.551758 0.064553
0.831333 0.547078 0.119485
0.858684 0.529263 0.151434
0.870552 0.516151 0.169720
0.879460 0.506575 0.183198
0.886349 0.500535 0.192656
0.892064 0.496365 0.199020
0.897745 0.491140 0.203601
0.185001 0.614122 0.146429
0.187828 0.613735 0.146161
0.190986 0.613828 0.146562
0.193804 0.613721 0.146396
0.195013 0.612171 0.144903
0.195135 0.609758 0.142568
0.197301 0.606415 0.139297
0.326893 0.610686 0.134694
0.531952 0.616862 0.121854
0.715487 0.623221 0.097119
0.798505 0.620765 0.125059
0.818419 0.613165 0.148010
0.832556 0.606443 0.159131
0.843186 0.601940 0.166680
0.852197 0.598384 0.172118
0.861043 0.593553 0.176192
0.255032 0.671466 0.203057
0.257070 0.670931 0.202628
0.259592 0.671244 0.202973
0.261661 0.671240 0.202817
0.262564 0.670090 0.201534
0.262861 0.668534 0.199698
0.262187 0.666097 0.197020
0.266958 0.663650 0.193489
0.415943 0.671533 0.186141
0.598349 0.681651 0.167875
0.730840 0.689977 0.139301
0.765265 0.687610 0.131130
0.779103 0.683979 0.142213
0.791077 0.681746 0.150219
0.801911 0.679749 0.155497
0.813369 0.676383 0.163234
0.305540 0.716525 0.244208
0.306925 0.716032 0.243863
0.308694 0.716206 0.244199
0.310339 0.716171 0.244205
0.311426 0.715504 0.243478
0.312221 0.714435 0.242355
0.312780 0.712716 0.240817
0.312599 0.710359 0.238729
0.338440 0.710482 0.234554
0.517686 0.728434 0.219299
0.662751 0.742775 0.193812
0.749266 0.750643 0.168237
0.766271 0.748612 0.161227
0.773579 0.745923 0.157560
0.781083 0.744199 0.154274
0.788116 0.740859 0.150605
0.319920 0.738529 0.258248
0.322370 0.739049 0.258505
0.324617 0.739433 0.258972
0.326504 0.739864 0.259150
0.328514 0.740035 0.259257
0.330519 0.740465 0.259298
0.332576 0.740821 0.259374
0.334319 0.740416 0.259045
0.336790 0.739843 0.258374
0.449875 0.756776 0.247018
0.614246 0.781858 0.228821
0.720053 0.796804 0.200895
0.774033 0.802949 0.181018
0.783543 0.802041 0.176666
0.790120 0.800581 0.173626
0.796180 0.798020 0.170326
0.323567 0.745071 0.261684
0.326058 0.745463 0.261970
0.328325 0.745891 0.262437
0.330371 0.746250 0.262593
0.332415 0.746693 0.262703
0.334461 0.746988 0.262742
0.336489 0.747328 0.262819
0.338633 0.747776 0.262794
0.340769 0.748031 0.262760
0.397833 0.757650 0.257408
0.572037 0.788008 0.240879
0.689434 0.809804 0.218132
0.759198 0.824550 0.195300
0.792446 0.831674 0.182671
0.801272 0.833199 0.179301
0.807961 0.833570 0.176536
0.327243 0.751666 0.264528
0.329924 0.752015 0.264813
0.332268 0.752560 0.265291
0.334287 0.752929 0.265430
0.336458 0.753237 0.265501
0.338590 0.753573 0.265584
0.340620 0.754068 0.265647
0.342705 0.754270 0.265634
0.344800 0.754747 0.265610
0.364928 0.758067 0.263660
0.542016 0.789622 0.246760
0.666707 0.813071 0.227197
0.744571 0.829235 0.203373
0.785412 0.838606 0.188088
0.806163 0.843295 0.179943
0.812889 0.844337 0.177180
0.330797 0.758114 0.267287
0.333555 0.758620 0.267585
0.336117 0.759119 0.268071
0.338139 0.759516 0.268217
0.340345 0.759801 0.268279
0.342550 0.760213 0.268359
0.344694 0.760400 0.268421
0.346780 0.761003 0.268410
0.348848 0.761246 0.268412
0.360940 0.763459 0.267369
0.517431 0.792083 0.251829
0.649454 0.817140 0.234264
0.732100 0.834218 0.210554
0.778645 0.844723 0.193214
0.806771 0.851479 0.181946
0.817472 0.853458 0.177623
0.334233 0.764399 0.269835
0.336966 0.764760 0.270172
0.339527 0.765363 0.270646
0.341778 0.765686 0.270791
0.343961 0.765988 0.270861
0.346217 0.766488 0.270940
0.348434 0.766816 0.270987
0.350576 0.767215 0.270985
0.352671 0.767493 0.270971
0.358781 0.768573 0.270658
0.489765 0.793115 0.256860
0.631678 0.820509 0.240492
0.720496 0.838945 0.217168
0.773939 0.851102 0.197576
0.803490 0.857999 0.185569
0.822111 0.862708 0.177817
0.000839 0.025919 0.108326
0.003962 0.025382 0.107138
0.068039 0.020386 0.108634
0.242597 0.016893 0.103967
0.461889 0.030974 0.104326
0.638439 0.042204 0.121033
0.762282 0.048947 0.144977
0.847674 0.056605 0.171880
0.889357 0.075768 0.197695
0.893520 0.077030 0.215705
0.897745 0.080434 0.229889
0.901856 0.085058 0.241393
0.905809 0.089910 0.249817
0.909459 0.094224 0.255615
0.913313 0.098395 0.259262
0.916637 0.102829 0.261169
0.000812 0.026255 0.104473
0.003818 0.025833 0.103274
0.065422 0.021072 0.104975
0.228515 0.017320 0.100955
0.437279 0.030453 0.099735
0.616185 0.041599 0.115037
0.742955 0.049886 0.133502
0.832176 0.060524 0.155044
0.885338 0.083582 0.179441
0.893437 0.088370 0.198029
0.897577 0.090650 0.212626
0.901825 0.093564 0.224115
0.905906 0.098133 0.232595
0.909611 0.102929 0.238468
0.913202 0.107907 0.242262
0.916471 0.112325 0.244393
0.000950 0.036436 0.100520
0.003022 0.036272 0.099865
0.044543 0.033507 0.101211
0.217545 0.023973 0.098677
0.431261 0.032111 0.098175
0.613731 0.042547 0.109679
0.742412 0.051905 0.127739
0.831806 0.066211 0.153605
0.885301 0.091063 0.181557
0.893477 0.096359 0.201761
0.897737 0.098705 0.216689
0.901989 0.102124 0.228339
0.906070 0.106852 0.236974
0.909694 0.111560 0.242957
0.913177 0.116167 0.246798
0.916633 0.120672 0.249007
0.004532 0.131590 0.092185
0.005399 0.130388 0.091663
0.006514 0.129652 0.092020
0.136375 0.128633 0.094667
0.405760 0.128526 0.091426
0.604263 0.128608 0.107003
0.738481 0.131351 0.132380
0.832145 0.135030 0.162013
0.886798 0.132058 0.190983
0.893151 0.119768 0.211494
0.897750 0.112443 0.226284
0.902205 0.114678 0.238116
0.906271 0.118789 0.246850
0.909937 0.122654 0.252736
0.913437 0.126709 0.256031
0.916874 0.130654 0.257946
0.016697 0.250002 0.069262
0.016590 0.249588 0.070222
0.016389 0.249460 0.072670
0.015694 0.248387 0.080526
0.230320 0.244751 0.074712
0.552362 0.237804 0.091074
0.708716 0.240797 0.118360
0.811491 0.245709 0.149676
0.876435 0.251665 0.181206
0.887896 0.246487 0.204587
0.892762 0.241614 0.220022
0.897592 0.238694 0.231957
0.902010 0.236895 0.240716
0.906155 0.236745 0.246762
0.910015 0.239581 0.250436
0.913639 0.241457 0.252646
0.032725 0.371405 0.055551
0.032852 0.370524 0.055538
0.032978 0.370117 0.055575
0.033038 0.369171 0.057896
0.034418 0.364498 0.059101
0.327575 0.367046 0.068591
0.625712 0.363882 0.088235
0.780108 0.352961 0.128800
0.863264 0.359776 0.165261
0.884398 0.358339 0.192913
0.889358 0.347565 0.210639
0.893990 0.337268 0.223802
0.898684 0.328894 0.233563
0.903121 0.323847 0.240267
0.907232 0.320898 0.244674
0.910952 0.317605 0.247485
0.046315 0.466111 0.071847
0.049717 0.465607 0.071803
0.052851 0.465472 0.071848
0.055637 0.464849 0.071738
0.058257 0.461739 0.070935
0.119612 0.459468 0.069464
0.405973 0.464268 0.066429
0.665238 0.468084 0.086680
0.822962 0.456621 0.136911
0.877132 0.441930 0.177729
0.883399 0.436029 0.198313
0.888143 0.435756 0.211492
0.892729 0.436070 0.221096
0.897144 0.436169 0.227961
0.901324 0.435583 0.232618
0.905463 0.433281 0.235721
0.097227 0.545213 0.099618
0.100805 0.544722 0.099402
0.105436 0.544765 0.099530
0.109560 0.544416 0.099424
0.111017 0.542395 0.097871
0.111837 0.538643 0.095626
0.228539 0.540590 0.093611
0.468833 0.545659 0.086169
