public/kits/editing-mini-guide/luts/cinematic-v1-log-28.cube
LUT_3D_SIZE 16
-0.001589 -0.001589 -0.001589
-0.007779 -0.007779 -0.007779
-0.007963 -0.007963 -0.007963
0.059341 0.059341 0.059341
0.132305 0.132305 0.132305
0.229125 0.229125 0.229125
0.344082 0.344082 0.344082
0.470887 0.470887 0.470887
0.605474 0.605474 0.605474
0.729261 0.729261 0.729261
0.780547 0.780547 0.780547
0.789692 0.789692 0.789692
0.797713 0.797713 0.797713
0.809475 0.809475 0.809475
0.818360 0.818360 0.818360
0.828748 0.828748 0.828748
-0.002617 -0.002617 -0.002617
-0.007592 -0.007592 -0.007592
-0.011492 -0.011492 -0.011492
0.049389 0.049389 0.049389
0.118078 0.118078 0.118078
0.213848 0.213848 0.213848
0.329594 0.329594 0.329594
0.454971 0.454971 0.454971
0.590039 0.590039 0.590039
0.717819 0.717819 0.717819
0.780329 0.780329 0.780329
0.789050 0.789050 0.789050
0.799036 0.799036 0.799036
0.809530 0.809530 0.809530
0.817645 0.817645 0.817645
0.827743 0.827743 0.827743
0.002582 0.002582 0.002582
-0.004633 -0.004633 -0.004633
-0.015578 -0.015578 -0.015578
0.034012 0.034012 0.034012
0.104139 0.104139 0.104139
0.193816 0.193816 0.193816
0.307673 0.307673 0.307673
0.430665 0.430665 0.430665
0.565957 0.565957 0.565957
0.698375 0.698375 0.698375
0.778662 0.778662 0.778662
0.791468 0.791468 0.791468
0.798782 0.798782 0.798782
0.809013 0.809013 0.809013
0.817700 0.817700 0.817700
0.827222 0.827222 0.827222
0.015874 0.015874 0.015874
0.016635 0.016635 0.016635
0.018020 0.018020 0.018020
0.023167 0.023167 0.023167
0.081115 0.081115 0.081115
0.171588 0.171588 0.171588
0.280171 0.280171 0.280171
0.405004 0.405004 0.405004
0.538419 0.538419 0.538419
0.672557 0.672557 0.672557
0.775852 0.775852 0.775852
0.790278 0.790278 0.790278
0.801238 0.801238 0.801238
0.808822 0.808822 0.808822
0.818141 0.818141 0.818141
0.827250 0.827250 0.827250
0.036369 0.036369 0.036369
0.037842 0.037842 0.037842
0.036637 0.036637 0.036637
0.051971 0.051971 0.051971
0.064981 0.064981 0.064981
0.145637 0.145637 0.145637
0.253921 0.253921 0.253921
0.374653 0.374653 0.374653
0.509024 0.509024 0.509024
0.646002 0.646002 0.646002
0.760080 0.760080 0.760080
0.793580 0.793580 0.793580
0.800362 0.800362 0.800362
0.811176 0.811176 0.811176
0.819440 0.819440 0.819440
0.828454 0.828454 0.828454
0.064962 0.064962 0.064962
0.067035 0.067035 0.067035
0.066945 0.066945 0.066945
0.079685 0.079685 0.079685
0.100853 0.100853 0.100853
0.122229 0.122229 0.122229
0.222382 0.222382 0.222382
0.342722 0.342722 0.342722
0.477248 0.477248 0.477248
0.614918 0.614918 0.614918
0.739167 0.739167 0.739167
0.796542 0.796542 0.796542
0.802865 0.802865 0.802865
0.811916 0.811916 0.811916
0.820530 0.820530 0.820530
0.830385 0.830385 0.830385
0.102638 0.102638 0.102638
0.105393 0.105393 0.105393
0.106140 0.106140 0.106140
0.110389 0.110389 0.110389
0.138400 0.138400 0.138400
0.166555 0.166555 0.166555
0.194828 0.194828 0.194828
0.308961 0.308961 0.308961
0.442080 0.442080 0.442080
0.582215 0.582215 0.582215
0.713001 0.713001 0.713001
0.793713 0.793713 0.793713
0.803601 0.803601 0.803601
0.812213 0.812213 0.812213
0.821191 0.821191 0.821191
0.830514 0.830514 0.830514
0.149419 0.149419 0.149419
0.152420 0.152420 0.152420
0.154117 0.154117 0.154117
0.152148 0.152148 0.152148
0.179118 0.179118 0.179118
0.212764 0.212764 0.212764
0.244291 0.244291 0.244291
0.279394 0.279394 0.279394
0.404153 0.404153 0.404153
0.545551 0.545551 0.545551
0.680036 0.680036 0.680036
0.784440 0.784440 0.784440
0.807318 0.807318 0.807318
0.814322 0.814322 0.814322
0.822184 0.822184 0.822184
0.831701 0.831701 0.831701
0.204067 0.204067 0.204067
0.207352 0.207352 0.207352
0.209029 0.209029 0.209029
0.207159 0.207159 0.207159
0.219763 0.219763 0.219763
0.260328 0.260328 0.260328
0.295636 0.295636 0.295636
0.330732 0.330732 0.330732
0.371164 0.371164 0.371164
0.505880 0.505880 0.505880
0.649066 0.649066 0.649066
0.765593 0.765593 0.765593
0.808330 0.808330 0.808330
0.815234 0.815234 0.815234
0.823487 0.823487 0.823487
0.832665 0.832665 0.832665
0.264308 0.264308 0.264308
0.269030 0.269030 0.269030
0.271083 0.271083 0.271083
0.273559 0.273559 0.273559
0.271826 0.271826 0.271826
0.309514 0.309514 0.309514
0.349705 0.349705 0.349705
0.388585 0.388585 0.388585
0.427217 0.427217 0.427217
0.470019 0.470019 0.470019
0.609320 0.609320 0.609320
0.738835 0.738835 0.738835
0.809687 0.809687 0.809687
0.816303 0.816303 0.816303
0.824394 0.824394 0.824394
0.833494 0.833494 0.833494
0.332906 0.332906 0.332906
0.335258 0.335258 0.335258
0.337320 0.337320 0.337320
0.338212 0.338212 0.338212
0.338797 0.338797 0.338797
0.358341 0.358341 0.358341
0.403123 0.403123 0.403123
0.446050 0.446050 0.446050
0.487176 0.487176 0.487176
0.527121 0.527121 0.527121
0.574669 0.574669 0.574669
0.702874 0.702874 0.702874
0.805864 0.805864 0.805864
0.817934 0.817934 0.817934
0.825185 0.825185 0.825185
0.835090 0.835090 0.835090
0.404433 0.404433 0.404433
0.406624 0.406624 0.406624
0.409756 0.409756 0.409756
0.411751 0.411751 0.411751
0.411503 0.411503 0.411503
0.411241 0.411241 0.411241
0.459445 0.459445 0.459445
0.503840 0.503840 0.503840
0.546680 0.546680 0.546680
0.590386 0.590386 0.590386
0.627780 0.627780 0.627780
0.671178 0.671178 0.671178
0.786747 0.786747 0.786747
0.820359 0.820359 0.820359
0.826284 0.826284 0.826284
0.835806 0.835806 0.835806
0.464037 0.464037 0.464037
0.469533 0.469533 0.469533
0.475230 0.475230 0.475230
0.480447 0.480447 0.480447
0.482782 0.482782 0.482782
0.482044 0.482044 0.482044
0.515343 0.515343 0.515343
0.564511 0.564511 0.564511
0.611255 0.611255 0.611255
0.651398 0.651398 0.651398
0.686542 0.686542 0.686542
0.722064 0.722064 0.722064
0.755727 0.755727 0.755727
0.821120 0.821120 0.821120
0.827331 0.827331 0.827331
0.835779 0.835779 0.835779
0.472218 0.472218 0.472218
0.478404 0.478404 0.478404
0.484139 0.484139 0.484139
0.489239 0.489239 0.489239
0.494064 0.494064 0.494064
0.500768 0.500768 0.500768
0.518411 0.518411 0.518411
0.570551 0.570551 0.570551
0.623624 0.623624 0.623624
0.669749 0.669749 0.669749
0.713105 0.713105 0.713105
0.752074 0.752074 0.752074
0.788392 0.788392 0.788392
0.819283 0.819283 0.819283
0.828769 0.828769 0.828769
0.837357 0.837357 0.837357
0.481996 0.481996 0.481996
0.488842 0.488842 0.488842
0.494255 0.494255 0.494255
0.500329 0.500329 0.500329
0.504482 0.504482 0.504482
0.507999 0.507999 0.507999
0.519097 0.519097 0.519097
0.571554 0.571554 0.571554
0.622285 0.622285 0.622285
0.668140 0.668140 0.668140
0.712088 0.712088 0.712088
0.752244 0.752244 0.752244
0.789400 0.789400 0.789400
0.821753 0.821753 0.821753
0.829376 0.829376 0.829376
0.838022 0.838022 0.838022
0.512967 0.512967 0.512967
0.519755 0.519755 0.519755
0.525519 0.525519 0.525519
0.530614 0.530614 0.530614
0.535773 0.535773 0.535773
0.537965 0.537965 0.537965
0.544461 0.544461 0.544461
0.592002 0.592002 0.592002
0.634663 0.634663 0.634663
0.674848 0.674848 0.674848
0.716680 0.716680 0.716680
0.757219 0.757219 0.757219
0.798127 0.798127 0.798127
0.828029 0.828029 0.828029
0.838196 0.838196 0.838196
0.840417 0.840417 0.840417
-0.190037 -0.190037 -0.190037
-0.191774 -0.191774 -0.191774
-0.194028 -0.194028 -0.194028
-0.193471 -0.193471 -0.193471
-0.169367 -0.169367 -0.169367
0.124473 0.124473 0.124473
0.295285 0.295285 0.295285
0.441539 0.441539 0.441539
0.585809 0.585809 0.585809
0.717996 0.717996 0.717996
0.774352 0.774352 0.774352
0.782500 0.782500 0.782500
0.789975 0.789975 0.789975
0.797648 0.797648 0.797648
0.807185 0.807185 0.807185
0.817982 0.817982 0.817982
-0.002732 -0.002732 -0.002732
-0.006693 -0.006693 -0.006693
0.009064 0.009064 0.009064
0.052777 0.052777 0.052777
0.124176 0.124176 0.124176
0.221746 0.221746 0.221746
0.337398 0.337398 0.337398
0.463425 0.463425 0.463425
0.597277 0.597277 0.597277
0.723589 0.723589 0.723589
0.786320 0.786320 0.786320
0.794409 0.794409 0.794409
0.805498 0.805498 0.805498
0.814065 0.814065 0.814065
0.823178 0.823178 0.823178
0.833295 0.833295 0.833295
0.002005 0.002005 0.002005
-0.002227 -0.002227 -0.002227
-0.013875 -0.013875 -0.013875
0.039692 0.039692 0.039692
0.107593 0.107593 0.107593
0.200540 0.200540 0.200540
0.313119 0.313119 0.313119
0.438126 0.438126 0.438126
0.572545 0.572545 0.572545
0.702757 0.702757 0.702757
0.784631 0.784631 0.784631
0.795475 0.795475 0.795475
0.805479 0.805479 0.805479
0.814385 0.814385 0.814385
0.822157 0.822157 0.822157
0.831690 0.831690 0.831690
0.015460 0.015460 0.015460
0.018903 0.018903 0.018903
0.019874 0.019874 0.019874
0.022737 0.022737 0.022737
0.085579 0.085579 0.085579
0.177703 0.177703 0.177703
0.286339 0.286339 0.286339
0.412404 0.412404 0.412404
0.545504 0.545504 0.545504
0.678713 0.678713 0.678713
0.779872 0.779872 0.779872
0.796337 0.796337 0.796337
0.803746 0.803746 0.803746
0.813457 0.813457 0.813457
0.822582 0.822582 0.822582
0.831567 0.831567 0.831567
0.036508 0.036508 0.036508
0.041911 0.041911 0.041911
0.041313 0.041313 0.041313
0.055612 0.055612 0.055612
0.068599 0.068599 0.068599
0.149946 0.149946 0.149946
0.259769 0.259769 0.259769
0.381038 0.381038 0.381038
0.515467 0.515467 0.515467
0.651367 0.651367 0.651367
0.766698 0.766698 0.766698
0.799439 0.799439 0.799439
0.805981 0.805981 0.805981
0.816281 0.816281 0.816281
0.823859 0.823859 0.823859
0.832560 0.832560 0.832560
0.065246 0.065246 0.065246
0.071554 0.071554 0.071554
0.070544 0.070544 0.070544
0.084034 0.084034 0.084034
0.106918 0.106918 0.106918
0.127563 0.127563 0.127563
0.229203 0.229203 0.229203
0.349952 0.349952 0.349952
0.483928 0.483928 0.483928
0.621457 0.621457 0.621457
0.744121 0.744121 0.744121
0.801041 0.801041 0.801041
0.806852 0.806852 0.806852
0.816330 0.816330 0.816330
0.824594 0.824594 0.824594
0.834363 0.834363 0.834363
0.102870 0.102870 0.102870
0.111164 0.111164 0.111164
0.112195 0.112195 0.112195
0.114903 0.114903 0.114903
0.144445 0.144445 0.144445
0.169960 0.169960 0.169960
0.201801 0.201801 0.201801
0.315873 0.315873 0.315873
0.449179 0.449179 0.449179
0.588512 0.588512 0.588512
0.719471 0.719471 0.719471
0.799124 0.799124 0.799124
0.807915 0.807915 0.807915
0.818179 0.818179 0.818179
0.825884 0.825884 0.825884
0.835050 0.835050 0.835050
0.150410 0.150410 0.150410
0.158174 0.158174 0.158174
0.158812 0.158812 0.158812
0.157263 0.157263 0.157263
0.185435 0.185435 0.185435
0.217479 0.217479 0.217479
0.250683 0.250683 0.250683
0.285417 0.285417 0.285417
0.411915 0.411915 0.411915
0.552543 0.552543 0.552543
0.687050 0.687050 0.687050
0.789597 0.789597 0.789597
0.810903 0.810903 0.810903
0.818105 0.818105 0.818105
0.826756 0.826756 0.826756
0.836256 0.836256 0.836256
0.203669 0.203669 0.203669
0.213493 0.213493 0.213493
0.215378 0.215378 0.215378
0.214285 0.214285 0.214285
0.226667 0.226667 0.226667
0.265340 0.265340 0.265340
0.302399 0.302399 0.302399
0.337863 0.337863 0.337863
0.378347 0.378347 0.378347
0.512402 0.512402 0.512402
0.654817 0.654817 0.654817
0.770354 0.770354 0.770354
0.814062 0.814062 0.814062
0.818870 0.818870 0.818870
0.827924 0.827924 0.827924
0.836699 0.836699 0.836699
0.265790 0.265790 0.265790
0.275200 0.275200 0.275200
0.278409 0.278409 0.278409
0.278710 0.278710 0.278710
0.277636 0.277636 0.277636
0.315672 0.315672 0.315672
0.356604 0.356604 0.356604
0.395115 0.395115 0.395115
0.433918 0.433918 0.433918
0.477273 0.477273 0.477273
0.615479 0.615479 0.615479
0.742890 0.742890 0.742890
0.815197 0.815197 0.815197
0.820137 0.820137 0.820137
0.829044 0.829044 0.829044
0.837868 0.837868 0.837868
0.332666 0.332666 0.332666
0.342326 0.342326 0.342326
0.343389 0.343389 0.343389
0.344772 0.344772 0.344772
0.344876 0.344876 0.344876
0.364516 0.364516 0.364516
0.411049 0.411049 0.411049
0.452773 0.452773 0.452773
0.494054 0.494054 0.494054
0.533986 0.533986 0.533986
0.580042 0.580042 0.580042
0.709713 0.709713 0.709713
0.811099 0.811099 0.811099
0.821594 0.821594 0.821594
0.829276 0.829276 0.829276
0.839244 0.839244 0.839244
0.403477 0.403477 0.403477
0.415870 0.415870 0.415870
0.418355 0.418355 0.418355
0.418974 0.418974 0.418974
0.418306 0.418306 0.418306
0.420595 0.420595 0.420595
0.466253 0.466253 0.466253
0.510278 0.510278 0.510278
0.553692 0.553692 0.553692
0.596511 0.596511 0.596511
0.635141 0.635141 0.635141
0.676120 0.676120 0.676120
0.791488 0.791488 0.791488
0.824942 0.824942 0.824942
0.830884 0.830884 0.830884
0.840283 0.840283 0.840283
0.464425 0.464425 0.464425
0.477182 0.477182 0.477182
0.482655 0.482655 0.482655
0.487339 0.487339 0.487339
0.490119 0.490119 0.490119
0.488270 0.488270 0.488270
0.522711 0.522711 0.522711
0.572121 0.572121 0.572121
0.616808 0.616808 0.616808
0.657020 0.657020 0.657020
0.693435 0.693435 0.693435
0.726210 0.726210 0.726210
0.760999 0.760999 0.760999
0.824181 0.824181 0.824181
0.831984 0.831984 0.831984
0.840346 0.840346 0.840346
0.473129 0.473129 0.473129
0.486187 0.486187 0.486187
0.492238 0.492238 0.492238
0.497019 0.497019 0.497019
0.502488 0.502488 0.502488
0.506780 0.506780 0.506780
0.525373 0.525373 0.525373
0.579118 0.579118 0.579118
0.630434 0.630434 0.630434
0.676601 0.676601 0.676601
0.718385 0.718385 0.718385
0.757690 0.757690 0.757690
0.793057 0.793057 0.793057
0.823556 0.823556 0.823556
0.833130 0.833130 0.833130
0.841708 0.841708 0.841708
0.483428 0.483428 0.483428
0.496073 0.496073 0.496073
0.499983 0.499983 0.499983
0.507301 0.507301 0.507301
0.513536 0.513536 0.513536
0.518853 0.518853 0.518853
0.526884 0.526884 0.526884
0.578607 0.578607 0.578607
0.629621 0.629621 0.629621
0.675124 0.675124 0.675124
0.717928 0.717928 0.717928
0.757860 0.757860 0.757860
0.793911 0.793911 0.793911
0.825364 0.825364 0.825364
0.832743 0.832743 0.832743
0.841392 0.841392 0.841392
0.514708 0.514708 0.514708
0.527133 0.527133 0.527133
0.533080 0.533080 0.533080
0.540126 0.540126 0.540126
0.545724 0.545724 0.545724
0.549718 0.549718 0.549718
0.555552 0.555552 0.555552
0.602875 0.602875 0.602875
0.646379 0.646379 0.646379
0.685193 0.685193 0.685193
0.723963 0.723963 0.723963
0.764554 0.764554 0.764554
0.803150 0.803150 0.803150
0.834017 0.834017 0.834017
0.842429 0.842429 0.842429
0.844841 0.844841 0.844841
-0.191264 -0.191264 -0.191264
-0.193941 -0.193941 -0.193941
-0.196834 -0.196834 -0.196834
-0.199325 -0.199325 -0.199325
-0.196104 -0.196104 -0.196104
-0.147495 -0.147495 -0.147495
0.196816 0.196816 0.196816
0.368566 0.368566 0.368566
0.530173 0.530173 0.530173
0.687631 0.687631 0.687631
0.758628 0.758628 0.758628
0.769121 0.769121 0.769121
0.777850 0.777850 0.777850
0.788086 0.788086 0.788086
0.797478 0.797478 0.797478
0.808054 0.808054 0.808054
-0.003287 -0.003287 -0.003287
-0.005236 -0.005236 -0.005236
-0.016905 -0.016905 -0.016905
-0.028824 -0.028824 -0.028824
0.061552 0.061552 0.061552
0.157830 0.157830 0.157830
0.277504 0.277504 0.277504
0.414405 0.414405 0.414405
0.562804 0.562804 0.562804
0.705945 0.705945 0.705945
0.774470 0.774470 0.774470
0.785296 0.785296 0.785296
0.795442 0.795442 0.795442
0.804929 0.804929 0.804929
0.815328 0.815328 0.815328
0.825157 0.825157 0.825157
0.006004 0.006004 0.006004
0.002492 0.002492 0.002492
0.020485 0.020485 0.020485
0.062822 0.062822 0.062822
0.130898 0.130898 0.130898
0.222567 0.222567 0.222567
0.326833 0.326833 0.326833
0.444035 0.444035 0.444035
0.574881 0.574881 0.574881
0.705126 0.705126 0.705126
0.789581 0.789581 0.789581
0.800875 0.800875 0.800875
0.809764 0.809764 0.809764
0.818453 0.818453 0.818453
0.827418 0.827418 0.827418
0.836661 0.836661 0.836661
0.018167 0.018167 0.018167
0.020104 0.020104 0.020104
0.031189 0.031189 0.031189
0.033453 0.033453 0.033453
0.095434 0.095434 0.095434
0.182805 0.182805 0.182805
0.294737 0.294737 0.294737
0.420282 0.420282 0.420282
0.552911 0.552911 0.552911
0.684662 0.684662 0.684662
0.784839 0.784839 0.784839
0.802129 0.802129 0.802129
0.810290 0.810290 0.810290
0.818776 0.818776 0.818776
0.827059 0.827059 0.827059
0.836063 0.836063 0.836063
0.037129 0.037129 0.037129
0.041934 0.041934 0.041934
0.044197 0.044197 0.044197
0.060683 0.060683 0.060683
0.072504 0.072504 0.072504
0.155578 0.155578 0.155578
0.264309 0.264309 0.264309
0.387454 0.387454 0.387454
0.521146 0.521146 0.521146
0.656715 0.656715 0.656715
0.770659 0.770659 0.770659
0.804749 0.804749 0.804749
0.811228 0.811228 0.811228
0.819894 0.819894 0.819894
0.828061 0.828061 0.828061
0.836783 0.836783 0.836783
0.065535 0.065535 0.065535
0.071658 0.071658 0.071658
0.075198 0.075198 0.075198
0.085850 0.085850 0.085850
0.109309 0.109309 0.109309
0.132272 0.132272 0.132272
0.234141 0.234141 0.234141
0.356578 0.356578 0.356578
0.489585 0.489585 0.489585
0.627267 0.627267 0.627267
0.749164 0.749164 0.749164
0.805674 0.805674 0.805674
0.811461 0.811461 0.811461
0.821183 0.821183 0.821183
0.828994 0.828994 0.828994
0.838148 0.838148 0.838148
0.103427 0.103427 0.103427
0.111529 0.111529 0.111529
0.116080 0.116080 0.116080
0.119404 0.119404 0.119404
0.148611 0.148611 0.148611
0.174514 0.174514 0.174514
0.207484 0.207484 0.207484
0.321624 0.321624 0.321624
0.455923 0.455923 0.455923
0.595012 0.595012 0.595012
0.723370 0.723370 0.723370
0.804336 0.804336 0.804336
0.814313 0.814313 0.814313
0.822050 0.822050 0.822050
0.830306 0.830306 0.830306
0.839774 0.839774 0.839774
0.151163 0.151163 0.151163
0.158791 0.158791 0.158791
0.163144 0.163144 0.163144
0.161650 0.161650 0.161650
0.190747 0.190747 0.190747
0.222704 0.222704 0.222704
0.255461 0.255461 0.255461
0.291234 0.291234 0.291234
0.417844 0.417844 0.417844
0.559302 0.559302 0.559302
0.692898 0.692898 0.692898
0.793045 0.793045 0.793045
0.816487 0.816487 0.816487
0.822285 0.822285 0.822285
0.831416 0.831416 0.831416
0.840574 0.840574 0.840574
0.204550 0.204550 0.204550
0.213968 0.213968 0.213968
0.220891 0.220891 0.220891
0.220527 0.220527 0.220527
0.232538 0.232538 0.232538
0.270759 0.270759 0.270759
0.309483 0.309483 0.309483
0.344407 0.344407 0.344407
0.384876 0.384876 0.384876
0.518967 0.518967 0.518967
0.659815 0.659815 0.659815
0.774815 0.774815 0.774815
0.818019 0.818019 0.818019
0.823921 0.823921 0.823921
0.832015 0.832015 0.832015
0.840726 0.840726 0.840726
0.267449 0.267449 0.267449
0.276026 0.276026 0.276026
0.285484 0.285484 0.285484
0.284113 0.284113 0.284113
0.282816 0.282816 0.282816
0.321907 0.321907 0.321907
0.362419 0.362419 0.362419
0.400907 0.400907 0.400907
0.440157 0.440157 0.440157
0.483342 0.483342 0.483342
0.621628 0.621628 0.621628
0.748346 0.748346 0.748346
0.818739 0.818739 0.818739
0.825176 0.825176 0.825176
0.833400 0.833400 0.833400
0.841628 0.841628 0.841628
0.332991 0.332991 0.332991
0.342197 0.342197 0.342197
0.349551 0.349551 0.349551
0.351743 0.351743 0.351743
0.350233 0.350233 0.350233
0.371078 0.371078 0.371078
0.417610 0.417610 0.417610
0.459873 0.459873 0.459873
0.500965 0.500965 0.500965
0.541199 0.541199 0.541199
0.585695 0.585695 0.585695
0.715335 0.715335 0.715335
0.815060 0.815060 0.815060
0.826635 0.826635 0.826635
0.833689 0.833689 0.833689
0.842680 0.842680 0.842680
0.403280 0.403280 0.403280
0.415647 0.415647 0.415647
0.426689 0.426689 0.426689
0.426226 0.426226 0.426226
0.426514 0.426514 0.426514
0.428046 0.428046 0.428046
0.473118 0.473118 0.473118
0.516649 0.516649 0.516649
0.559416 0.559416 0.559416
0.602532 0.602532 0.602532
0.641911 0.641911 0.641911
0.679456 0.679456 0.679456
0.795470 0.795470 0.795470
0.829099 0.829099 0.829099
0.835612 0.835612 0.835612
0.844367 0.844367 0.844367
0.465324 0.465324 0.465324
0.477807 0.477807 0.477807
0.490521 0.490521 0.490521
0.493938 0.493938 0.493938
0.495715 0.495715 0.495715
0.496543 0.496543 0.496543
0.529681 0.529681 0.529681
0.578694 0.578694 0.578694
0.621820 0.621820 0.621820
0.662643 0.662643 0.662643
0.698290 0.698290 0.698290
0.730921 0.730921 0.730921
0.765934 0.765934 0.765934
0.828752 0.828752 0.828752
0.835945 0.835945 0.835945
0.844914 0.844914 0.844914
0.474422 0.474422 0.474422
0.487182 0.487182 0.487182
0.499545 0.499545 0.499545
0.504306 0.504306 0.504306
0.508906 0.508906 0.508906
0.513165 0.513165 0.513165
0.531451 0.531451 0.531451
0.588210 0.588210 0.588210
0.636952 0.636952 0.636952
0.683419 0.683419 0.683419
0.724697 0.724697 0.724697
0.762807 0.762807 0.762807
0.796955 0.796955 0.796955
0.827844 0.827844 0.827844
0.837423 0.837423 0.837423
0.845876 0.845876 0.845876
0.484957 0.484957 0.484957
0.497279 0.497279 0.497279
0.508915 0.508915 0.508915
0.513969 0.513969 0.513969
0.521942 0.521942 0.521942
0.524194 0.524194 0.524194
0.533851 0.533851 0.533851
0.586093 0.586093 0.586093
0.637258 0.637258 0.637258
0.681837 0.681837 0.681837
0.723846 0.723846 0.723846
0.762846 0.762846 0.762846
0.798375 0.798375 0.798375
0.829302 0.829302 0.829302
0.836547 0.836547 0.836547
0.845299 0.845299 0.845299
0.516636 0.516636 0.516636
0.529089 0.529089 0.529089
0.539699 0.539699 0.539699
0.546606 0.546606 0.546606
0.553613 0.553613 0.553613
0.559185 0.559185 0.559185
0.566854 0.566854 0.566854
0.615219 0.615219 0.615219
0.661437 0.661437 0.661437
0.699888 0.699888 0.699888
0.737802 0.737802 0.737802
0.777341 0.777341 0.777341
0.813977 0.813977 0.813977
0.843402 0.843402 0.843402
0.850807 0.850807 0.850807
0.852651 0.852651 0.852651
-0.192017 -0.192017 -0.192017
-0.195134 -0.195134 -0.195134
-0.198800 -0.198800 -0.198800
-0.201795 -0.201795 -0.201795
-0.204254 -0.204254 -0.204254
-0.195683 -0.195683 -0.195683
-0.127252 -0.127252 -0.127252
0.239556 0.239556 0.239556
0.411244 0.411244 0.411244
0.582238 0.582238 0.582238
0.675151 0.675151 0.675151
0.696897 0.696897 0.696897
0.713252 0.713252 0.713252
0.728807 0.728807 0.728807
0.744224 0.744224 0.744224
0.756772 0.756772 0.756772
-0.003434 -0.003434 -0.003434
-0.005111 -0.005111 -0.005111
-0.009437 -0.009437 -0.009437
-0.019619 -0.019619 -0.019619
-0.026656 -0.026656 -0.026656
0.087423 0.087423 0.087423
0.190156 0.190156 0.190156
0.316750 0.316750 0.316750
0.458418 0.458418 0.458418
0.612083 0.612083 0.612083
0.707119 0.707119 0.707119
0.728480 0.728480 0.728480
0.748086 0.748086 0.748086
0.762174 0.762174 0.762174
0.777751 0.777751 0.777751
0.789612 0.789612 0.789612
0.006401 0.006401 0.006401
0.005350 0.005350 0.005350
0.024464 0.024464 0.024464
-0.025128 -0.025128 -0.025128
0.046561 0.046561 0.046561
0.128557 0.128557 0.128557
0.222157 0.222157 0.222157
0.331037 0.331037 0.331037
0.473672 0.473672 0.473672
0.624222 0.624222 0.624222
0.732836 0.732836 0.732836
0.759186 0.759186 0.759186
0.776092 0.776092 0.776092
0.788802 0.788802 0.788802
0.802687 0.802687 0.802687
0.813398 0.813398 0.813398
0.021567 0.021567 0.021567
0.024075 0.024075 0.024075
0.032261 0.032261 0.032261
0.072078 0.072078 0.072078
0.139185 0.139185 0.139185
0.235476 0.235476 0.235476
0.345908 0.345908 0.345908
0.466009 0.466009 0.466009
0.592864 0.592864 0.592864
0.709320 0.709320 0.709320
0.799780 0.799780 0.799780
0.810454 0.810454 0.810454
0.814437 0.814437 0.814437
0.821819 0.821819 0.821819
0.829241 0.829241 0.829241
0.838143 0.838143 0.838143
0.042581 0.042581 0.042581
0.047094 0.047094 0.047094
0.046055 0.046055 0.046055
0.089700 0.089700 0.089700
0.106942 0.106942 0.106942
0.191855 0.191855 0.191855
0.300381 0.300381 0.300381
0.421086 0.421086 0.421086
0.547772 0.547772 0.547772
0.673510 0.673510 0.673510
0.779289 0.779289 0.779289
0.811783 0.811783 0.811783
0.816956 0.816956 0.816956
0.825902 0.825902 0.825902
0.833385 0.833385 0.833385
0.841890 0.841890 0.841890
0.069860 0.069860 0.069860
0.076062 0.076062 0.076062
0.076573 0.076573 0.076573
0.108926 0.108926 0.108926
0.131711 0.131711 0.131711
0.151074 0.151074 0.151074
0.249532 0.249532 0.249532
0.369362 0.369362 0.369362
0.498259 0.498259 0.498259
0.633765 0.633765 0.633765
0.753348 0.753348 0.753348
0.812881 0.812881 0.812881
0.816326 0.816326 0.816326
0.825310 0.825310 0.825310
0.833591 0.833591 0.833591
0.842144 0.842144 0.842144
0.106687 0.106687 0.106687
0.113049 0.113049 0.113049
0.117429 0.117429 0.117429
0.127243 0.127243 0.127243
0.158232 0.158232 0.158232
0.181615 0.181615 0.181615
0.212693 0.212693 0.212693
0.326618 0.326618 0.326618
0.460860 0.460860 0.460860
0.600700 0.600700 0.600700
0.727036 0.727036 0.727036
0.807934 0.807934 0.807934
0.819069 0.819069 0.819069
0.825296 0.825296 0.825296
0.835033 0.835033 0.835033
0.843654 0.843654 0.843654
0.151075 0.151075 0.151075
0.159310 0.159310 0.159310
0.164603 0.164603 0.164603
