public/kits/editing-mini-guide/luts/cinematic-v1-log-28.cube
LUT_3D_SIZE 6
-0.001589 -0.001589 -0.001589
0.059341 0.059341 0.059341
0.344082 0.344082 0.344082
0.729261 0.729261 0.729261
0.797713 0.797713 0.797713
0.828748 0.828748 0.828748
0.015874 0.015874 0.015874
0.023167 0.023167 0.023167
0.280171 0.280171 0.280171
0.672557 0.672557 0.672557
0.801238 0.801238 0.801238
0.827250 0.827250 0.827250
0.102638 0.102638 0.102638
0.110389 0.110389 0.110389
0.194828 0.194828 0.194828
0.582215 0.582215 0.582215
0.803601 0.803601 0.803601
0.830514 0.830514 0.830514
0.264308 0.264308 0.264308
0.273559 0.273559 0.273559
0.349705 0.349705 0.349705
0.470019 0.470019 0.470019
0.809687 0.809687 0.809687
0.833494 0.833494 0.833494
0.464037 0.464037 0.464037
0.480447 0.480447 0.480447
0.515343 0.515343 0.515343
0.651398 0.651398 0.651398
0.755727 0.755727 0.755727
0.835779 0.835779 0.835779
0.512967 0.512967 0.512967
0.530614 0.530614 0.530614
0.544461 0.544461 0.544461
0.674848 0.674848 0.674848
0.798127 0.798127 0.798127
0.840417 0.840417 0.840417
-0.192017 -0.192017 -0.192017
-0.201795 -0.201795 -0.201795
-0.127252 -0.127252 -0.127252
0.582238 0.582238 0.582238
0.713252 0.713252 0.713252
0.756772 0.756772 0.756772
0.021567 0.021567 0.021567
0.072078 0.072078 0.072078
0.345908 0.345908 0.345908
0.709320 0.709320 0.709320
0.814437 0.814437 0.814437
0.838143 0.838143 0.838143
0.106687 0.106687 0.106687
0.127243 0.127243 0.127243
0.212693 0.212693 0.212693
0.600700 0.600700 0.600700
0.819069 0.819069 0.819069
0.843654 0.843654 0.843654
0.267379 0.267379 0.267379
0.290032 0.290032 0.290032
0.368035 0.368035 0.368035
0.488901 0.488901 0.488901
0.823782 0.823782 0.823782
0.845346 0.845346 0.845346
0.465678 0.465678 0.465678
0.500428 0.500428 0.500428
0.536960 0.536960 0.536960
0.667981 0.667981 0.667981
0.768901 0.768901 0.768901
0.848895 0.848895 0.848895
0.518798 0.518798 0.518798
0.554672 0.554672 0.554672
0.576220 0.576220 0.576220
0.713065 0.713065 0.713065
0.823303 0.823303 0.823303
0.862754 0.862754 0.862754
-0.194210 -0.194210 -0.194210
-0.205582 -0.205582 -0.205582
-0.222592 -0.222592 -0.222592
0.135065 0.135065 0.135065
0.356727 0.356727 0.356727
0.421598 0.421598 0.421598
0.027920 0.027920 0.027920
0.080146 0.080146 0.080146
0.062757 0.062757 0.062757
0.374110 0.374110 0.374110
0.540701 0.540701 0.540701
0.597879 0.597879 0.597879
0.135344 0.135344 0.135344
0.150776 0.150776 0.150776
0.385635 0.385635 0.385635
0.740504 0.740504 0.740504
0.890826 0.890826 0.890826
0.905036 0.905036 0.905036
0.295068 0.295068 0.295068
0.317734 0.317734 0.317734
0.488204 0.488204 0.488204
0.598591 0.598591 0.598591
0.870270 0.870270 0.870270
0.883605 0.883605 0.883605
0.484898 0.484898 0.484898
0.518053 0.518053 0.518053
0.582667 0.582667 0.582667
0.692023 0.692023 0.692023
0.780380 0.780380 0.780380
0.859989 0.859989 0.859989
0.529421 0.529421 0.529421
0.563671 0.563671 0.563671
0.600024 0.600024 0.600024
0.740809 0.740809 0.740809
0.850365 0.850365 0.850365
0.890544 0.890544 0.890544
-0.210656 -0.210656 -0.210656
-0.222324 -0.222324 -0.222324
-0.242700 -0.242700 -0.242700
-0.307488 -0.307488 -0.307488
-0.317276 -0.317276 -0.317276
-0.309531 -0.309531 -0.309531
0.036421 0.036421 0.036421
0.086214 0.086214 0.086214
0.078385 0.078385 0.078385
0.060105 0.060105 0.060105
0.217167 0.217167 0.217167
0.263719 0.263719 0.263719
0.151755 0.151755 0.151755
0.165373 0.165373 0.165373
0.400067 0.400067 0.400067
0.404213 0.404213 0.404213
0.674986 0.674986 0.674986
0.707238 0.707238 0.707238
0.337548 0.337548 0.337548
0.360641 0.360641 0.360641
0.526015 0.526015 0.526015
0.769766 0.769766 0.769766
0.942997 0.942997 0.942997
0.951245 0.951245 0.951245
0.536645 0.536645 0.536645
0.566458 0.566458 0.566458
0.619843 0.619843 0.619843
0.840513 0.840513 0.840513
0.891458 0.891458 0.891458
0.937003 0.937003 0.937003
0.587414 0.587414 0.587414
0.621110 0.621110 0.621110
0.652793 0.652793 0.652793
0.879263 0.879263 0.879263
0.940386 0.940386 0.940386
0.963049 0.963049 0.963049
-0.232061 -0.232061 -0.232061
-0.243400 -0.243400 -0.243400
-0.260041 -0.260041 -0.260041
-0.328913 -0.328913 -0.328913
-0.362877 -0.362877 -0.362877
-0.366677 -0.366677 -0.366677
0.036408 0.036408 0.036408
0.081287 0.081287 0.081287
0.074389 0.074389 0.074389
0.071369 0.071369 0.071369
0.076883 0.076883 0.076883
0.112591 0.112591 0.112591
0.157680 0.157680 0.157680
0.172572 0.172572 0.172572
0.401710 0.401710 0.401710
0.404084 0.404084 0.404084
0.388696 0.388696 0.388696
0.419233 0.419233 0.419233
0.353236 0.353236 0.353236
0.380283 0.380283 0.380283
0.535482 0.535482 0.535482
0.782390 0.782390 0.782390
0.790960 0.790960 0.790960
0.810717 0.810717 0.810717
0.583722 0.583722 0.583722
0.617685 0.617685 0.617685
0.653701 0.653701 0.653701
0.860310 0.860310 0.860310
0.955292 0.955292 0.955292
0.988449 0.988449 0.988449
0.645011 0.645011 0.645011
0.678198 0.678198 0.678198
0.700406 0.700406 0.700406
0.904105 0.904105 0.904105
1.004443 1.004443 1.004443
1.020531 1.020531 1.020531
-0.243647 -0.243647 -0.243647
-0.255162 -0.255162 -0.255162
-0.270551 -0.270551 -0.270551
-0.334292 -0.334292 -0.334292
-0.371119 -0.371119 -0.371119
-0.382892 -0.382892 -0.382892
0.036542 0.036542 0.036542
0.080497 0.080497 0.080497
0.072496 0.072496 0.072496
0.070111 0.070111 0.070111
0.080948 0.080948 0.080948
0.088699 0.088699 0.088699
0.158201 0.158201 0.158201
0.172726 0.172726 0.172726
0.399057 0.399057 0.399057
0.401881 0.401881 0.401881
0.388081 0.388081 0.388081
0.377982 0.377982 0.377982
0.353097 0.353097 0.353097
0.377727 0.377727 0.377727
0.532725 0.532725 0.532725
0.780262 0.780262 0.780262
0.783838 0.783838 0.783838
0.772712 0.772712 0.772712
0.589319 0.589319 0.589319
0.619298 0.619298 0.619298
0.651226 0.651226 0.651226
0.860308 0.860308 0.860308
0.958107 0.958107 0.958107
0.956225 0.956225 0.956225
0.631027 0.631027 0.631027
0.666737 0.666737 0.666737
0.688950 0.688950 0.688950
0.876393 0.876393 0.876393
0.971124 0.971124 0.971124
1.000028 1.000028 1.000028
