public/kits/editing-mini-guide/luts/cinematic-v1-log-02.cube
LUT_3D_SIZE 6
0.000710 0.023203 0.021630
0.150194 0.032324 0.030127
0.533568 0.031522 0.081807
0.727224 0.028768 0.150600
0.747640 0.029073 0.181548
0.771519 0.028369 0.193340
0.000575 0.111302 0.042002
0.079659 0.135122 0.042189
0.545577 0.076299 0.080497
0.734944 0.045583 0.149968
0.755235 0.045581 0.181740
0.779047 0.044902 0.193658
0.026179 0.313648 0.087957
0.027334 0.320160 0.091015
0.426022 0.487856 0.134683
0.904559 0.471118 0.158912
0.921264 0.420819 0.206076
0.936575 0.392633 0.218506
0.088773 0.478855 0.158774
0.089800 0.482579 0.161520
0.088875 0.481940 0.161920
0.744612 0.723441 0.184313
0.943043 0.766989 0.065715
0.977071 0.758555 0.103827
0.115163 0.537195 0.190610
0.116446 0.541636 0.193938
0.117776 0.546079 0.197156
0.159630 0.569969 0.215555
0.909761 0.859189 0.198036
0.961483 0.885792 0.163619
0.120879 0.550411 0.197897
0.121882 0.554660 0.201050
0.123175 0.558921 0.204347
0.125308 0.565296 0.209553
0.851145 0.845048 0.241912
0.956395 0.898482 0.189043
0.002406 0.035265 0.072934
0.130100 0.031024 0.074711
0.528138 0.030949 0.115866
0.719854 0.030153 0.180627
0.739006 0.030495 0.207929
0.762473 0.029612 0.218932
0.000998 0.099621 0.075554
0.079386 0.125759 0.099766
0.575883 0.139475 0.126960
0.735704 0.059373 0.179240
0.749847 0.049846 0.206858
0.773486 0.049438 0.217668
0.023893 0.312883 0.090966
0.024765 0.318992 0.094135
0.430574 0.483549 0.147951
0.901573 0.444454 0.210102
0.924436 0.431317 0.256010
0.945922 0.421586 0.266440
0.086506 0.478153 0.160697
0.086898 0.481425 0.163429
0.085848 0.480645 0.163821
0.748313 0.723421 0.188050
0.949416 0.756372 0.133893
0.982894 0.743017 0.175060
0.112931 0.537337 0.192996
0.114159 0.542043 0.196678
0.115449 0.546182 0.199820
0.171900 0.579343 0.225111
0.916631 0.863755 0.202699
0.963188 0.887059 0.172579
0.118518 0.550553 0.200314
0.119701 0.554971 0.203906
0.121081 0.559034 0.207081
0.123143 0.565825 0.212485
0.861737 0.851740 0.244149
0.961060 0.902726 0.195848
0.004160 0.063929 0.163935
0.024530 0.072430 0.202203
0.454562 0.056711 0.240226
0.654837 0.044202 0.296255
0.677214 0.043086 0.306150
0.702388 0.040996 0.312443
0.003236 0.075655 0.171893
0.011251 0.082594 0.197082
0.449148 0.070179 0.243748
0.669273 0.057954 0.298933
0.689474 0.057401 0.310212
0.714146 0.055576 0.315974
0.000781 0.268587 0.234913
0.000770 0.274438 0.240819
0.358006 0.469054 0.407805
0.890607 0.462123 0.410674
0.910892 0.445507 0.414830
0.930117 0.438415 0.416101
0.039660 0.466463 0.238427
0.038787 0.469351 0.247687
0.031834 0.466321 0.268790
0.712743 0.717564 0.405635
0.961039 0.747731 0.403183
0.987723 0.733943 0.417041
0.110214 0.537076 0.195265
0.110540 0.541466 0.199713
0.106920 0.544858 0.207889
0.137729 0.576116 0.253139
0.932317 0.892722 0.329769
0.973024 0.910718 0.338701
0.116131 0.550443 0.202791
0.117439 0.554941 0.206279
0.114821 0.558133 0.212436
0.103001 0.562964 0.238297
0.856751 0.872426 0.336494
0.971377 0.926718 0.329886
0.003051 0.092433 0.215905
0.010543 0.123772 0.262736
0.285894 0.144417 0.344380
0.536308 0.101046 0.346872
0.557717 0.098401 0.353485
0.581976 0.093627 0.360382
0.002105 0.111787 0.232827
0.005285 0.145882 0.265191
0.288514 0.167875 0.352687
0.553713 0.115047 0.358659
0.576684 0.110389 0.364300
0.601824 0.104172 0.370447
0.000000 0.247747 0.287395
0.000000 0.253745 0.292318
0.153812 0.348341 0.393708
0.752913 0.368547 0.516883
0.765925 0.329224 0.503597
0.779069 0.298285 0.494766
0.003823 0.415129 0.361466
0.004727 0.419793 0.366378
0.004964 0.419998 0.369336
0.667041 0.703893 0.645271
0.947271 0.737098 0.673603
0.966025 0.732872 0.673022
0.043556 0.524691 0.408206
0.047221 0.530868 0.414742
0.050564 0.536371 0.421779
0.095437 0.571997 0.446976
0.905911 0.901123 0.597017
0.967744 0.917490 0.612427
0.053488 0.541870 0.404741
0.057481 0.548268 0.411272
0.061132 0.554098 0.419292
0.065548 0.561111 0.432249
0.787588 0.873404 0.588673
0.963788 0.945003 0.604629
0.002297 0.110327 0.239895
0.007404 0.164539 0.295268
0.178187 0.149298 0.339875
0.480528 0.145777 0.384808
0.503595 0.135437 0.378582
0.528692 0.127102 0.376661
0.001262 0.131323 0.258042
0.005261 0.171787 0.295152
0.180138 0.166402 0.348602
0.498421 0.169439 0.402826
0.522010 0.156094 0.394693
0.547238 0.142932 0.390490
0.000000 0.243474 0.312920
0.000000 0.249122 0.317263
0.101362 0.272837 0.373424
0.580603 0.284708 0.487459
0.556732 0.198222 0.425824
0.594507 0.196432 0.430352
0.001431 0.386280 0.372842
0.001605 0.391206 0.377811
0.001645 0.393827 0.382289
0.495947 0.634024 0.658784
0.856605 0.692908 0.747193
0.896303 0.691628 0.757692
0.028611 0.500806 0.444151
0.031721 0.505913 0.450326
0.034040 0.509601 0.456308
0.069279 0.539616 0.495419
0.892106 0.891362 0.832155
0.950969 0.912435 0.856225
0.042622 0.529490 0.461573
0.046536 0.535868 0.469306
0.050213 0.541811 0.477371
0.053642 0.547226 0.486776
0.832666 0.891768 0.811775
0.948459 0.942276 0.869609
0.002022 0.115726 0.246340
0.006039 0.171379 0.303463
0.155458 0.145128 0.339466
0.467529 0.162719 0.402445
0.490012 0.150293 0.393795
0.511855 0.138338 0.386469
0.000996 0.136989 0.264522
0.005596 0.177151 0.303053
0.159419 0.163344 0.349201
0.484386 0.187006 0.421147
0.507809 0.173773 0.411947
0.531106 0.159418 0.403063
0.000423 0.220103 0.311672
0.000328 0.232075 0.319999
0.089469 0.248828 0.368315
0.524607 0.245105 0.465115
0.537597 0.209678 0.439136
0.559031 0.191653 0.427463
0.000906 0.378818 0.380733
0.000978 0.384255 0.386118
0.001047 0.389061 0.392002
0.459372 0.618802 0.656706
0.816100 0.687162 0.739348
0.865705 0.681604 0.751970
0.023699 0.489701 0.449192
0.026801 0.494765 0.455518
0.029765 0.498934 0.461718
0.082005 0.530223 0.500641
0.893556 0.890711 0.846777
0.948398 0.914628 0.866348
0.039714 0.524395 0.474507
0.043859 0.531085 0.482655
0.047977 0.537107 0.490989
0.052281 0.542051 0.499957
0.870626 0.903525 0.846530
0.945020 0.938967 0.880342
