public/kits/editing-mini-guide/luts/cinematic-v1-log-07.cube
LUT_3D_SIZE 6
0.000000 0.000000 0.000000
0.198638 0.014923 0.040801
0.589165 0.013734 0.113842
0.808778 0.006735 0.204928
0.836453 0.006510 0.247545
0.863572 0.007217 0.261289
0.031104 0.132160 0.013750
0.137878 0.140450 0.015626
0.537251 0.044976 0.091201
0.782202 0.017336 0.196879
0.810552 0.016761 0.239728
0.836074 0.017549 0.254142
0.093302 0.348334 0.101928
0.103092 0.348576 0.098461
0.515507 0.435318 0.090346
0.984911 0.505224 0.203644
0.987875 0.455283 0.244040
0.991050 0.426945 0.260213
0.243192 0.518073 0.195297
0.259221 0.521226 0.195126
0.273700 0.520117 0.192509
0.847072 0.681476 0.208241
1.000020 0.751677 0.108877
1.000005 0.750870 0.132831
0.236005 0.571551 0.214025
0.255301 0.576259 0.213400
0.276095 0.581887 0.213414
0.424949 0.633264 0.217309
0.990795 0.861690 0.136179
1.000052 0.878418 0.174505
0.234683 0.592983 0.214757
0.255029 0.598011 0.213688
0.275892 0.603924 0.213348
0.311436 0.615133 0.213106
0.932784 0.864924 0.154945
1.000020 0.880554 0.327237
0.001134 0.021477 0.083870
0.180832 0.018412 0.126029
0.581957 0.008755 0.173994
0.799666 0.005412 0.250826
0.825146 0.005999 0.289242
0.852229 0.007035 0.301357
0.001056 0.141768 0.111412
0.072242 0.118517 0.109176
0.546704 0.084425 0.136558
0.758406 0.022961 0.232424
0.798807 0.017598 0.275876
0.820753 0.020189 0.287491
0.078876 0.343877 0.109174
0.087840 0.343511 0.105504
0.511900 0.430963 0.100607
0.974959 0.476748 0.249583
0.986108 0.462894 0.300071
0.994854 0.455252 0.312418
0.230495 0.515572 0.201636
0.247180 0.518421 0.201207
0.263422 0.517581 0.198361
0.849311 0.680032 0.217706
1.000020 0.742384 0.182443
1.000005 0.739233 0.199490
0.224191 0.571060 0.223154
0.244390 0.575949 0.222699
0.266141 0.581917 0.222933
0.458283 0.647465 0.228763
0.991615 0.859899 0.153049
1.000041 0.877508 0.188245
0.223611 0.592609 0.224621
0.245350 0.598210 0.224168
0.266959 0.604274 0.223607
0.306757 0.616618 0.223579
0.940374 0.867727 0.167805
1.000020 0.876395 0.386109
0.000000 0.090659 0.301925
0.133986 0.113468 0.284821
0.507241 0.026581 0.389917
0.681794 0.023919 0.429612
0.701432 0.027483 0.437591
0.728079 0.026695 0.441949
0.000000 0.101494 0.299266
0.089141 0.125460 0.287642
0.482875 0.036763 0.379051
0.676096 0.028894 0.418465
0.692240 0.033442 0.428809
0.714858 0.033389 0.432374
0.002124 0.423288 0.407274
0.002808 0.417626 0.405595
0.394537 0.444557 0.435303
0.909917 0.472358 0.458701
0.929634 0.462456 0.471514
0.950108 0.471864 0.483939
0.062584 0.496359 0.277736
0.064779 0.497587 0.281997
0.051755 0.502445 0.309659
0.759211 0.693470 0.437806
1.000020 0.752058 0.471408
1.000006 0.743408 0.477957
0.215787 0.571443 0.231982
0.233252 0.576060 0.232923
0.238690 0.580347 0.241955
0.368799 0.639631 0.297769
0.978767 0.861066 0.334220
1.000003 0.882221 0.349795
0.215970 0.593435 0.233753
0.236814 0.598528 0.233226
0.246912 0.603641 0.240965
0.233298 0.609413 0.272482
0.918958 0.862592 0.320431
1.000025 0.898032 0.480729
0.003008 0.172603 0.475199
0.164067 0.204269 0.448380
0.454043 0.201872 0.523485
0.564344 0.200380 0.525508
0.578883 0.204735 0.531486
0.592356 0.202704 0.534117
0.002999 0.184588 0.477522
0.116772 0.207282 0.458730
0.453367 0.211615 0.527435
0.566239 0.207806 0.527882
0.581152 0.208493 0.531708
0.593273 0.203168 0.531578
0.114389 0.427095 0.531716
0.128012 0.424738 0.529224
0.372732 0.437770 0.597290
0.655353 0.370970 0.609990
0.672574 0.376318 0.613014
0.696235 0.392563 0.620998
0.097424 0.591776 0.597038
0.102871 0.590549 0.595812
0.106359 0.587412 0.595829
0.631237 0.680117 0.665090
0.931359 0.731538 0.706637
0.958507 0.735870 0.709891
0.083444 0.643110 0.558751
0.087909 0.643691 0.558009
0.092859 0.645203 0.559952
0.185950 0.665345 0.555231
0.928250 0.856950 0.688126
1.000043 0.875856 0.698595
0.081150 0.653707 0.532722
0.080091 0.654592 0.531603
0.085338 0.657717 0.534759
0.103177 0.663618 0.545638
0.853856 0.865008 0.648922
0.999325 0.913220 0.672581
0.022484 0.226648 0.553974
0.186010 0.248874 0.518434
0.489524 0.290709 0.591559
0.634778 0.249979 0.632454
0.654956 0.247820 0.638851
0.638537 0.260981 0.619728
0.026811 0.238128 0.554307
0.137061 0.254184 0.529283
0.492307 0.299796 0.593763
0.636343 0.257672 0.634772
0.657201 0.255106 0.641732
0.641890 0.267201 0.623931
0.129680 0.380443 0.572614
0.136958 0.381759 0.567375
0.365638 0.384145 0.601588
0.652970 0.311617 0.652316
0.661023 0.270012 0.646298
0.654260 0.293724 0.637387
0.155305 0.604180 0.670331
0.161440 0.603500 0.670296
0.171839 0.601947 0.671930
0.627868 0.677211 0.722578
0.826181 0.685600 0.748498
0.826117 0.692738 0.744253
0.168364 0.696870 0.693543
0.178894 0.696452 0.693106
0.189985 0.696409 0.693948
0.250347 0.702121 0.697731
0.872825 0.822511 0.768882
0.972176 0.851493 0.787554
0.160365 0.724065 0.696546
0.172118 0.726122 0.697250
0.181331 0.728133 0.699548
0.198557 0.732846 0.705098
0.828779 0.857643 0.766091
0.984023 0.900191 0.790228
0.040027 0.242385 0.571328
0.188112 0.259740 0.533905
0.493310 0.310064 0.598020
0.608185 0.285702 0.624423
0.647179 0.267655 0.644028
0.662760 0.264199 0.647358
0.035080 0.253837 0.574080
0.149083 0.266291 0.547430
0.496888 0.318754 0.600373
0.611931 0.296180 0.627990
0.650314 0.277974 0.647286
0.664712 0.272361 0.650098
0.051542 0.345301 0.585127
0.055584 0.352893 0.578792
0.377387 0.367270 0.587567
0.622455 0.324656 0.640528
0.657176 0.293775 0.653498
0.671496 0.290332 0.656969
0.191514 0.602380 0.688312
0.196590 0.602309 0.688318
0.203817 0.602254 0.689497
0.621995 0.673717 0.730319
0.814777 0.680819 0.748804
0.847050 0.678038 0.758494
0.178455 0.700539 0.709936
0.189216 0.700309 0.709655
0.199379 0.700672 0.710937
0.258959 0.708545 0.716987
0.884709 0.820211 0.790244
0.945735 0.829939 0.796478
0.195329 0.740012 0.721770
0.208966 0.741858 0.722215
0.224003 0.743861 0.723638
0.240613 0.747689 0.727602
0.826800 0.865985 0.794650
0.971704 0.886477 0.814179
