public/kits/editing-mini-guide/luts/cinematic-v1-log-24.cube
LUT_3D_SIZE 6
0.000948 0.000853 0.000736
0.199298 0.021199 0.030001
0.645702 0.059887 0.113010
0.835611 0.078466 0.188967
0.850870 0.080327 0.221700
0.866662 0.081894 0.233095
0.068015 0.137441 0.029598
0.152384 0.148552 0.032419
0.648865 0.073461 0.113612
0.842388 0.083703 0.190731
0.858223 0.085732 0.224292
0.872772 0.087386 0.236337
0.281519 0.461108 0.110297
0.282702 0.460487 0.109841
0.478065 0.492087 0.109506
0.916640 0.492517 0.145754
0.935691 0.447814 0.197700
0.946020 0.425926 0.221482
0.456270 0.659247 0.249992
0.458101 0.659039 0.249637
0.457041 0.653840 0.246194
0.703872 0.726145 0.169337
0.881410 0.747342 0.103913
0.916008 0.744721 0.106950
0.482821 0.729011 0.281023
0.487349 0.730401 0.281240
0.492125 0.731577 0.281506
0.538402 0.749237 0.280733
0.895562 0.887003 0.120238
0.949018 0.899634 0.139123
0.486849 0.746170 0.285348
0.491958 0.747636 0.285598
0.496974 0.749060 0.285873
0.505982 0.751877 0.286220
0.846268 0.887781 0.167089
0.948707 0.904606 0.324928
0.014038 0.023882 0.046207
0.177730 0.023536 0.087932
0.632410 0.058836 0.151980
0.825594 0.077867 0.221650
0.841411 0.079586 0.251970
0.858460 0.081302 0.262795
0.042803 0.130342 0.084153
0.156271 0.143196 0.109579
0.658692 0.136850 0.154047
0.840286 0.087379 0.223369
0.851556 0.086198 0.253155
0.868885 0.089365 0.265866
0.271686 0.456723 0.107845
0.272938 0.455665 0.107357
0.478107 0.488222 0.108278
0.920297 0.466673 0.196775
0.938833 0.459908 0.253372
0.950734 0.455525 0.268688
0.451600 0.657029 0.250745
0.453498 0.656322 0.249954
0.453250 0.651351 0.246246
0.706075 0.723493 0.168494
0.894416 0.742247 0.107161
0.932316 0.736896 0.112151
0.479787 0.728093 0.284984
0.484789 0.729396 0.285682
0.490248 0.730990 0.285881
0.549833 0.753503 0.285382
0.901087 0.889328 0.121595
0.950245 0.899903 0.141923
0.484200 0.745120 0.290061
0.489794 0.746703 0.290829
0.495403 0.748468 0.290967
0.505784 0.751759 0.291425
0.853705 0.890674 0.172648
0.951957 0.902744 0.374308
0.066569 0.088579 0.204083
0.097289 0.096982 0.266327
0.560552 0.068905 0.328623
0.764188 0.085428 0.384642
0.790815 0.089221 0.398436
0.815662 0.091238 0.405287
0.066917 0.093233 0.203368
0.084301 0.100505 0.247164
0.544298 0.067510 0.322823
0.771304 0.085993 0.380115
0.796681 0.090391 0.397075
0.819726 0.092664 0.403805
0.182076 0.406133 0.308407
0.180760 0.404050 0.307724
0.568357 0.500659 0.441209
0.924051 0.495689 0.428333
0.936543 0.489483 0.443594
0.946085 0.499578 0.455991
0.350959 0.618681 0.263041
0.349772 0.617448 0.267249
0.334901 0.608750 0.286826
0.737509 0.727301 0.337349
0.954867 0.748694 0.356488
0.976517 0.739612 0.375035
0.478516 0.727476 0.289106
0.482482 0.728509 0.290317
0.482936 0.728296 0.294802
0.523982 0.744696 0.321294
0.898462 0.889256 0.262294
0.965085 0.907827 0.263067
0.483175 0.744656 0.294791
0.488546 0.746166 0.295238
0.491048 0.746653 0.300015
0.486818 0.744785 0.316685
0.844036 0.886724 0.288054
0.974145 0.921468 0.422867
0.115334 0.164866 0.308974
0.132509 0.185984 0.349295
0.559590 0.194796 0.502512
0.726405 0.208998 0.522162
0.745249 0.215170 0.531041
0.761071 0.215523 0.535748
0.116770 0.170315 0.311697
0.127515 0.183428 0.336032
0.555917 0.201070 0.508625
0.728355 0.211166 0.524033
0.747872 0.213815 0.530812
0.761768 0.210833 0.532725
0.183717 0.350068 0.392490
0.183479 0.349517 0.392254
0.339976 0.417080 0.516071
0.806275 0.355674 0.585133
0.818148 0.369079 0.584966
0.833397 0.395757 0.588571
0.330344 0.600033 0.491427
0.329921 0.598694 0.490921
0.326522 0.593512 0.489409
0.796877 0.710999 0.647666
0.962319 0.737958 0.665171
0.975041 0.742437 0.669502
0.393841 0.702507 0.494192
0.397274 0.703425 0.496349
0.400631 0.704329 0.500002
0.460460 0.721155 0.523776
0.935990 0.876683 0.624334
0.994651 0.892235 0.629260
0.400843 0.716771 0.481051
0.404804 0.717714 0.483142
0.410249 0.719577 0.488554
0.418977 0.722767 0.500379
0.872863 0.881285 0.605362
0.995516 0.930365 0.602228
0.143131 0.217515 0.364409
0.157702 0.235480 0.393498
0.534943 0.318404 0.584733
0.738669 0.293011 0.584899
0.752064 0.295149 0.585011
0.761643 0.296531 0.586213
0.145638 0.222479 0.367942
0.153822 0.233299 0.384446
0.529000 0.324818 0.585679
0.740084 0.295499 0.586640
0.753730 0.297379 0.586708
0.762271 0.298509 0.587770
0.178980 0.317633 0.402785
0.179530 0.318181 0.404183
0.286962 0.374749 0.523627
0.757511 0.330782 0.602988
0.757565 0.303830 0.590699
0.768987 0.317959 0.595823
0.316976 0.579266 0.531310
0.316838 0.578160 0.531707
0.315678 0.574754 0.533240
0.711009 0.680901 0.710025
0.905084 0.689792 0.742509
0.915767 0.696318 0.742207
0.385513 0.706966 0.594533
0.388028 0.706824 0.595185
0.389877 0.705867 0.596595
0.407602 0.709856 0.607768
0.925928 0.836249 0.777182
0.986367 0.858387 0.798778
0.400198 0.734017 0.601916
0.404079 0.735271 0.604438
0.404748 0.736074 0.607317
0.407587 0.738327 0.614928
0.876962 0.866444 0.768686
0.990043 0.905699 0.798847
0.151765 0.232663 0.379585
0.163747 0.247379 0.402722
0.507155 0.343180 0.586216
0.742344 0.316908 0.599154
0.753399 0.311628 0.597028
0.764440 0.310653 0.596864
0.154020 0.237762 0.383515
0.162131 0.247858 0.398867
0.505603 0.349351 0.588244
0.745301 0.322764 0.601584
0.756199 0.317319 0.599281
0.765537 0.313965 0.597944
0.174287 0.293192 0.405070
0.175904 0.296407 0.408148
0.287392 0.364882 0.523368
0.753399 0.343834 0.609856
0.761215 0.327240 0.603055
0.770553 0.326828 0.602947
0.316673 0.569199 0.552892
0.316944 0.568841 0.553617
0.317476 0.568012 0.555957
0.680189 0.670949 0.713384
0.893659 0.688638 0.750078
0.907138 0.685353 0.750508
0.381006 0.702519 0.610757
0.383051 0.702133 0.611350
0.384895 0.701905 0.613641
0.401631 0.706651 0.628175
0.918117 0.835522 0.812225
0.964717 0.836662 0.817636
0.395785 0.737320 0.629782
0.401053 0.739257 0.632237
0.406167 0.741222 0.636101
0.410801 0.743442 0.642449
0.875987 0.873742 0.812801
0.978343 0.891242 0.835368
