public/kits/editing-mini-guide/luts/cinematic-v1-log-24.cube
LUT_3D_SIZE 16
0.000948 0.000853 0.000736
0.014770 0.003563 0.003286
0.074863 0.010543 0.013981
0.199298 0.021199 0.030001
0.363637 0.034824 0.055867
0.516789 0.048071 0.084139
0.645702 0.059887 0.113010
0.763546 0.070840 0.142938
0.830728 0.077405 0.170761
0.835611 0.078466 0.188967
0.840167 0.079123 0.202952
0.845369 0.079747 0.213771
0.850870 0.080327 0.221700
0.855832 0.080845 0.227179
0.861228 0.081380 0.230864
0.866662 0.081894 0.233095
0.005676 0.012980 0.004392
0.014242 0.014183 0.005146
0.075425 0.016479 0.014179
0.198378 0.024577 0.029713
0.360226 0.036734 0.054817
0.514982 0.049307 0.084226
0.644390 0.061259 0.113158
0.762537 0.072371 0.143314
0.832938 0.079161 0.171355
0.837542 0.080208 0.190401
0.842193 0.080864 0.204335
0.847757 0.081527 0.215223
0.853023 0.082126 0.223228
0.857578 0.082650 0.228828
0.863044 0.083195 0.232506
0.868510 0.083713 0.234792
0.028682 0.055371 0.015431
0.032167 0.055789 0.015615
0.068288 0.059693 0.018344
0.209395 0.058989 0.031424
0.361761 0.046464 0.053940
0.512665 0.050513 0.083657
0.642690 0.062592 0.112612
0.761125 0.073773 0.143067
0.835244 0.080925 0.171718
0.839837 0.081941 0.191458
0.844435 0.082591 0.205475
0.849892 0.083266 0.216382
0.855386 0.083896 0.224439
0.860046 0.084434 0.230087
0.864993 0.084999 0.233890
0.870465 0.085499 0.236181
0.068015 0.137441 0.029598
0.070141 0.137185 0.029814
0.072277 0.136762 0.029972
0.152384 0.148552 0.032419
0.372138 0.160153 0.050786
0.533670 0.124973 0.079691
0.648865 0.073461 0.113612
0.760466 0.076405 0.141197
0.837824 0.082677 0.170090
0.842388 0.083703 0.190731
0.847143 0.084335 0.204960
0.852548 0.084998 0.215977
0.858223 0.085732 0.224292
0.862660 0.086310 0.230058
0.867709 0.086872 0.233920
0.872772 0.087386 0.236337
0.121715 0.243258 0.044473
0.123084 0.243420 0.044562
0.124236 0.243702 0.044785
0.124653 0.242667 0.044812
0.264212 0.268497 0.051420
0.504591 0.280505 0.063203
0.666042 0.268378 0.094624
0.781893 0.227769 0.129769
0.860060 0.173556 0.164837
0.861477 0.098816 0.193585
0.858084 0.091842 0.204644
0.859994 0.089840 0.214531
0.862817 0.088645 0.222173
0.867341 0.089302 0.228803
0.872294 0.089875 0.232837
0.877011 0.090354 0.235335
0.199924 0.363752 0.068651
0.200897 0.363732 0.068756
0.201851 0.363704 0.068852
0.202414 0.363141 0.068754
0.200701 0.358798 0.067701
0.387779 0.394205 0.076905
0.584939 0.399879 0.067408
0.762050 0.399403 0.103486
0.876374 0.383163 0.142338
0.900338 0.347166 0.172022
0.900842 0.315373 0.197345
0.901936 0.284646 0.212618
0.903225 0.254158 0.223446
0.903172 0.240020 0.230952
0.907015 0.232928 0.237890
0.909119 0.222833 0.242119
0.281519 0.461108 0.110297
0.281945 0.460964 0.110179
0.282430 0.460799 0.110085
0.282702 0.460487 0.109841
0.281139 0.457745 0.108459
0.304264 0.461894 0.110971
0.478065 0.492087 0.109506
0.651253 0.498141 0.077639
0.837479 0.505896 0.100772
0.916640 0.492517 0.145754
0.924845 0.473863 0.165938
0.930911 0.459491 0.182774
0.935691 0.447814 0.197700
0.939520 0.439976 0.209434
0.943031 0.433627 0.216634
0.946020 0.425926 0.221482
0.355055 0.538992 0.160000
0.355337 0.538801 0.159828
0.355601 0.538624 0.159726
0.355716 0.538330 0.159504
0.354198 0.536384 0.158034
0.351332 0.532938 0.155484
0.399750 0.545702 0.161195
0.553382 0.573367 0.139390
0.719858 0.585792 0.089905
0.886613 0.597754 0.097095
0.920669 0.588652 0.120310
0.932682 0.578526 0.141252
0.942358 0.570100 0.156898
0.950186 0.564383 0.167138
0.957058 0.560122 0.174329
0.962556 0.554192 0.179672
0.418227 0.603900 0.211150
0.418339 0.603768 0.210919
0.418470 0.603576 0.210683
0.418612 0.603346 0.210398
0.417672 0.601870 0.209100
0.415773 0.599427 0.207150
0.413994 0.596358 0.204527
0.489350 0.619017 0.207313
0.626486 0.648807 0.160770
0.790520 0.669526 0.098843
0.879988 0.675630 0.099522
0.900942 0.673123 0.102406
0.917264 0.670552 0.104322
0.930182 0.668573 0.109546
0.941242 0.666671 0.115396
0.951721 0.662839 0.120341
0.456270 0.659247 0.249992
0.456939 0.659197 0.249857
0.457568 0.659102 0.249772
0.458101 0.659039 0.249637
0.458235 0.658002 0.248887
0.457916 0.656305 0.247757
0.457041 0.653840 0.246194
0.459136 0.652085 0.244532
0.563914 0.688154 0.237509
0.703872 0.726145 0.169337
0.834893 0.750018 0.105728
0.872244 0.750582 0.103985
0.881410 0.747342 0.103913
0.893974 0.747372 0.105283
0.905094 0.747063 0.106181
0.916008 0.744721 0.106950
0.475316 0.703071 0.272226
0.476408 0.703203 0.272213
0.477586 0.703317 0.272164
0.478811 0.703458 0.272134
0.479600 0.702851 0.271745
0.480248 0.701815 0.271200
0.480624 0.700250 0.270412
0.480803 0.697977 0.269379
0.498937 0.702347 0.268268
0.649332 0.757060 0.244020
0.779778 0.798000 0.161190
0.873937 0.819184 0.111402
0.892901 0.818894 0.111013
0.898735 0.817004 0.110700
0.905443 0.815650 0.110501
0.911804 0.812473 0.110123
0.481256 0.723217 0.279221
0.482730 0.723458 0.279346
0.484230 0.724068 0.279395
0.485637 0.724548 0.279492
0.487191 0.724870 0.279611
0.488799 0.725255 0.279666
0.490220 0.725689 0.279712
0.491655 0.725911 0.279713
0.492777 0.725536 0.279429
0.591881 0.762871 0.273974
0.736351 0.818560 0.227675
0.850569 0.859152 0.134132
0.914269 0.874490 0.117177
0.924521 0.874940 0.118362
0.929224 0.873713 0.118272
0.933169 0.871001 0.117523
0.482821 0.729011 0.281023
0.484404 0.729413 0.281062
0.485935 0.729814 0.281170
0.487349 0.730401 0.281240
0.488962 0.730845 0.281308
0.490448 0.731176 0.281417
0.492125 0.731577 0.281506
0.493656 0.732230 0.281563
0.495228 0.732613 0.281612
0.538402 0.749237 0.280733
0.698712 0.813600 0.253368
0.812234 0.857162 0.181309
0.895562 0.887003 0.120238
0.934628 0.895813 0.139028
0.943045 0.898273 0.140836
0.949018 0.899634 0.139123
0.484113 0.734838 0.282488
0.485884 0.735263 0.282569
0.487435 0.735829 0.282640
0.488937 0.736279 0.282718
0.490572 0.736747 0.282839
0.492218 0.737152 0.282916
0.493762 0.737544 0.282972
0.495591 0.738141 0.283125
0.497174 0.738700 0.283168
0.515856 0.745434 0.283305
0.672372 0.808366 0.265510
0.787627 0.853588 0.207899
0.876644 0.887987 0.127165
0.926076 0.902335 0.120334
0.942746 0.898694 0.212723
0.949745 0.900924 0.209597
0.485495 0.740738 0.283970
0.487267 0.741278 0.284056
0.488938 0.741676 0.284118
0.490505 0.742042 0.284189
0.492221 0.742474 0.284268
0.493890 0.743033 0.284373
0.495479 0.743423 0.284473
0.497187 0.744035 0.284552
0.499058 0.744594 0.284662
0.510180 0.748519 0.284877
0.650418 0.804363 0.273607
0.770858 0.852677 0.224841
0.861062 0.888287 0.145197
0.916392 0.906717 0.121273
0.941696 0.906173 0.204537
0.949379 0.901333 0.285300
0.486849 0.746170 0.285348
0.488527 0.746728 0.285433
0.490203 0.747130 0.285504
0.491958 0.747636 0.285598
0.493616 0.748098 0.285677
0.495307 0.748538 0.285759
0.496974 0.749060 0.285873
0.498761 0.749638 0.285963
0.500520 0.750125 0.286054
0.505982 0.751877 0.286220
0.625839 0.799069 0.280123
0.753855 0.851173 0.239402
0.846268 0.887781 0.167089
0.910042 0.911193 0.122338
0.943657 0.919147 0.140136
0.948707 0.904606 0.324928
0.001546 0.001882 0.002959
0.014348 0.004249 0.008262
0.072644 0.010777 0.017341
0.197167 0.021111 0.033741
0.361866 0.034675 0.060490
0.514975 0.047929 0.089365
0.643769 0.059780 0.118850
0.761681 0.070873 0.149406
0.829560 0.077597 0.177502
0.833845 0.078433 0.195661
0.838289 0.079050 0.209669
0.843454 0.079649 0.220505
0.849011 0.080230 0.228449
0.853947 0.080743 0.234029
0.859474 0.081275 0.237722
0.864823 0.081797 0.239967
0.005157 0.013209 0.007542
0.014809 0.014594 0.009444
0.073441 0.016769 0.017803
0.194643 0.023754 0.033085
0.355169 0.036485 0.058752
0.509337 0.048926 0.088550
0.638232 0.060849 0.117763
0.756706 0.072080 0.148325
0.832192 0.079466 0.177079
0.836439 0.080329 0.196286
0.841034 0.081005 0.210337
0.846371 0.081632 0.221244
0.851670 0.082231 0.229264
0.856459 0.082790 0.234963
0.861791 0.083330 0.238536
0.867264 0.083858 0.240714
0.025493 0.055374 0.015881
0.030223 0.055894 0.016365
0.067717 0.059665 0.019523
0.212965 0.062919 0.035688
0.360617 0.048171 0.058499
0.509227 0.050257 0.087850
0.639410 0.062390 0.117193
0.758352 0.073685 0.147903
0.834571 0.081115 0.176742
0.838681 0.081968 0.196315
0.843331 0.082617 0.210320
0.848836 0.083294 0.221255
0.854333 0.083913 0.229264
0.858830 0.084466 0.234783
0.864089 0.085029 0.238091
0.869603 0.085557 0.240103
0.064086 0.136578 0.029312
0.066811 0.136338 0.029365
0.069011 0.136037 0.029502
0.152469 0.147271 0.032634
0.376359 0.153482 0.054633
0.534756 0.130941 0.086136
0.654553 0.105764 0.118584
0.760746 0.079995 0.148369
0.837179 0.083793 0.175592
0.841410 0.083719 0.195072
0.846092 0.084332 0.209033
0.851638 0.085011 0.219951
0.857229 0.085746 0.228078
0.861818 0.086325 0.233732
0.866840 0.086888 0.237396
0.871988 0.087421 0.239671
0.117378 0.242058 0.043824
0.119091 0.242008 0.044074
0.120278 0.242265 0.044294
0.120701 0.241096 0.044303
0.264641 0.266523 0.051042
0.512263 0.268798 0.067375
0.667704 0.247126 0.101893
0.780651 0.232613 0.137831
0.864205 0.206092 0.171845
0.870705 0.171361 0.197217
0.874139 0.122681 0.217397
0.864770 0.094141 0.221781
0.866326 0.092071 0.229107
0.871481 0.093246 0.236527
0.875180 0.093089 0.240122
0.879555 0.093163 0.242486
0.196264 0.362470 0.068050
0.197340 0.362105 0.068157
0.198266 0.362040 0.068249
0.198682 0.361370 0.068098
0.196614 0.356912 0.066971
0.388711 0.391439 0.075972
0.593188 0.391047 0.069672
0.768847 0.376863 0.113540
0.875616 0.350096 0.152048
0.897268 0.328843 0.186488
0.901326 0.320686 0.207055
0.905622 0.313373 0.219898
0.909203 0.305774 0.229392
0.912304 0.303113 0.237695
0.915582 0.301258 0.243595
0.918429 0.297867 0.247782
0.278714 0.460116 0.109739
0.278842 0.459461 0.109391
0.279327 0.459433 0.109312
0.279465 0.458889 0.109014
0.277973 0.456111 0.107516
0.304735 0.461505 0.110838
0.479693 0.489374 0.107566
0.661411 0.491355 0.077883
0.847118 0.487709 0.114194
0.915953 0.460162 0.158954
0.921931 0.435641 0.183584
0.926246 0.420636 0.207400
0.930404 0.411331 0.221543
0.933907 0.406632 0.230299
0.937863 0.404419 0.235256
0.940826 0.401578 0.238789
0.352871 0.538231 0.159552
0.352683 0.537463 0.158987
0.352939 0.537378 0.158884
0.352981 0.536964 0.158599
0.351781 0.535050 0.157142
0.348847 0.531529 0.154576
0.401725 0.545646 0.160924
0.555234 0.570648 0.136490
0.728086 0.579328 0.089275
0.896145 0.583048 0.105720
0.925653 0.562875 0.140649
0.935950 0.546057 0.162926
0.944066 0.533552 0.177847
0.950213 0.525569 0.188735
0.955507 0.520087 0.197145
0.960009 0.513548 0.203354
0.416333 0.603265 0.210892
0.416067 0.602531 0.210282
0.416272 0.602398 0.210040
0.416231 0.602080 0.209705
0.415571 0.600620 0.208454
0.413809 0.598174 0.206383
0.412122 0.595074 0.203740
0.491689 0.619014 0.206494
0.628856 0.646330 0.157251
0.797506 0.662821 0.097723
0.888052 0.664676 0.100061
0.910942 0.658699 0.104598
0.926648 0.651362 0.116494
0.938776 0.645898 0.127986
0.948996 0.641458 0.137371
0.958874 0.635468 0.146065
0.454732 0.658703 0.250423
0.455276 0.658097 0.250001
0.455952 0.658047 0.249896
0.456428 0.657894 0.249709
0.456769 0.656835 0.248936
0.456528 0.655208 0.247775
0.455640 0.652679 0.246096
0.458494 0.651265 0.244465
0.569014 0.689245 0.236702
0.706906 0.723831 0.165772
0.838237 0.743726 0.105031
0.872986 0.741200 0.103374
0.885859 0.737759 0.104384
0.898349 0.736243 0.105472
0.910086 0.734768 0.106369
0.923038 0.732402 0.107601
0.474085 0.702513 0.273155
0.475178 0.702088 0.272995
0.476310 0.702323 0.272994
0.477390 0.702435 0.272921
0.478596 0.701796 0.272568
0.479271 0.700820 0.271985
0.479573 0.699136 0.271214
0.479966 0.696972 0.270149
0.503661 0.703389 0.269089
0.654578 0.757943 0.242861
0.783095 0.795563 0.157490
0.873978 0.812900 0.110912
0.890539 0.810910 0.110394
0.896761 0.808108 0.110061
0.903667 0.805857 0.109764
0.910168 0.802213 0.109365
0.480301 0.722926 0.280543
0.481911 0.723263 0.280814
0.483259 0.723662 0.280874
0.484635 0.724041 0.280995
0.486482 0.724644 0.281047
0.488095 0.725055 0.281146
0.489491 0.725520 0.281208
0.491014 0.725506 0.281116
0.493202 0.725237 0.280863
0.600882 0.766371 0.274661
0.742867 0.820202 0.226001
0.853628 0.856892 0.132002
0.913434 0.868816 0.117045
0.920768 0.867754 0.117443
0.925369 0.865992 0.116878
0.929491 0.862991 0.116223
0.481803 0.728675 0.282394
0.483509 0.729160 0.282641
0.484888 0.729518 0.282722
0.486454 0.729864 0.282841
0.488276 0.730432 0.282870
0.489898 0.731013 0.282974
0.491545 0.731410 0.283073
0.493259 0.731991 0.283151
0.494918 0.732379 0.283216
0.549855 0.753436 0.282191
0.706088 0.816375 0.252764
0.820403 0.860160 0.177722
0.901333 0.888723 0.120104
0.935700 0.896060 0.140429
0.943437 0.898010 0.142063
0.949036 0.898926 0.139963
0.483283 0.734488 0.284054
0.485147 0.735085 0.284368
0.486614 0.735426 0.284463
0.488122 0.735873 0.284522
0.490034 0.736494 0.284581
0.491729 0.736930 0.284668
0.493222 0.737325 0.284739
0.495140 0.737931 0.284842
0.496879 0.738505 0.284949
0.517469 0.746102 0.285125
0.680109 0.811456 0.265701
0.796114 0.856758 0.205221
0.884665 0.890719 0.126292
0.931356 0.903901 0.122664
0.944001 0.899293 0.216671
0.950571 0.901325 0.213247
0.484700 0.740269 0.285538
0.486606 0.740816 0.285874
0.488149 0.741248 0.285926
0.489721 0.741793 0.286033
0.491540 0.742264 0.286075
0.493299 0.742749 0.286141
0.494878 0.743209 0.286249
0.496898 0.743784 0.286343
0.498749 0.744415 0.286443
0.511132 0.748723 0.286692
0.658865 0.807977 0.274130
0.779060 0.855933 0.222730
0.869810 0.891706 0.140205
0.923900 0.909305 0.121530
0.943566 0.902648 0.257348
0.950507 0.901718 0.289473
0.485917 0.745788 0.286910
0.487901 0.746410 0.287248
0.489434 0.746716 0.287307
0.491099 0.747221 0.287397
0.492959 0.747738 0.287455
0.494711 0.748319 0.287519
0.496420 0.748818 0.287616
0.498351 0.749390 0.287730
0.500264 0.750043 0.287840
0.506103 0.751952 0.288021
0.635496 0.803082 0.280842
0.761963 0.854504 0.237756
0.855705 0.891751 0.161512
0.918716 0.914175 0.122598
0.946370 0.915825 0.189766
0.950366 0.902025 0.366491
0.004594 0.007737 0.012443
0.008672 0.011038 0.023102
0.066461 0.012806 0.035871
0.190346 0.020500 0.046529
0.358418 0.034370 0.071322
0.512103 0.047712 0.098398
0.641055 0.059629 0.127485
0.759143 0.070862 0.158246
0.827882 0.077695 0.186309
0.831539 0.078374 0.204238
0.835699 0.078879 0.217993
0.840827 0.079425 0.228673
0.846455 0.080014 0.236706
0.851565 0.080556 0.242257
0.857232 0.081129 0.245953
0.862797 0.081670 0.248111
0.006645 0.013361 0.017086
0.010666 0.015690 0.023448
0.065424 0.016882 0.035901
0.183975 0.021940 0.044190
0.345941 0.035370 0.066150
0.498196 0.047937 0.093074
0.624399 0.059597 0.121187
0.740670 0.070717 0.151281
0.825979 0.079040 0.180431
0.835528 0.080308 0.199704
0.840156 0.080981 0.213618
0.845391 0.081593 0.224370
0.850826 0.082187 0.232319
0.855708 0.082762 0.238091
0.861073 0.083293 0.241748
0.866466 0.083807 0.243978
0.019601 0.054001 0.031545
0.022388 0.054474 0.032283
0.063273 0.057432 0.039270
0.210088 0.061376 0.049951
0.359702 0.049804 0.068563
0.509276 0.052516 0.097281
0.634644 0.062041 0.125210
0.754158 0.073577 0.156481
0.831547 0.081251 0.185712
0.836541 0.082057 0.205286
0.841163 0.082708 0.219351
0.846436 0.083292 0.230232
0.851802 0.083858 0.238417
0.856738 0.084485 0.244083
0.862201 0.085151 0.247210
0.867758 0.085689 0.249075
0.054351 0.134375 0.029568
0.057416 0.134268 0.029711
0.059122 0.134116 0.030023
0.152152 0.147631 0.038697
0.380162 0.158334 0.068909
0.539325 0.147073 0.098286
0.658811 0.116865 0.130143
0.764891 0.084310 0.160596
0.841839 0.088577 0.187577
0.842560 0.085917 0.204934
0.846599 0.086180 0.218779
0.851208 0.086287 0.229317
0.855470 0.085868 0.236670
0.859901 0.086373 0.242281
0.865270 0.086971 0.245341
0.870479 0.087513 0.247298
0.112743 0.240472 0.043177
0.114762 0.240565 0.043485
0.116552 0.240676 0.043785
0.117030 0.239534 0.043791
0.262464 0.266205 0.051074
0.517871 0.268072 0.077100
0.668464 0.258275 0.114606
0.781780 0.252578 0.149280
0.865484 0.222942 0.183052
0.872505 0.180730 0.208000
0.875261 0.132013 0.226842
0.869765 0.099279 0.234735
0.868505 0.096451 0.240127
0.875369 0.097814 0.249514
0.882012 0.099847 0.256100
0.886110 0.099567 0.258111
0.192276 0.360983 0.067353
0.193646 0.360716 0.067506
0.194994 0.360770 0.067727
0.195426 0.360010 0.067580
0.193235 0.355399 0.066381
0.387736 0.391062 0.076090
0.598491 0.390602 0.077274
0.770425 0.376019 0.121662
0.877284 0.357662 0.162870
0.901814 0.351467 0.197492
0.906230 0.345141 0.217497
0.909545 0.334569 0.230728
0.912321 0.323933 0.240411
0.914954 0.318540 0.248552
0.917954 0.316268 0.254702
0.920566 0.312687 0.259064
0.275719 0.458991 0.109071
0.276027 0.458458 0.108771
0.276564 0.458376 0.108751
0.276702 0.457777 0.108464
0.275191 0.455085 0.106987
0.303463 0.460922 0.110528
0.479017 0.489131 0.107785
0.663481 0.491775 0.080366
0.848837 0.486404 0.122788
0.917383 0.460927 0.167876
0.923163 0.440950 0.198254
0.928211 0.430947 0.220416
0.933168 0.427081 0.233013
0.937399 0.426346 0.240772
0.941562 0.425859 0.245517
0.945118 0.423784 0.248464
0.350541 0.537321 0.159008
0.350500 0.536624 0.158467
0.350705 0.536496 0.158370
0.350723 0.536122 0.158071
0.349508 0.534225 0.156597
0.346989 0.530820 0.154098
0.400802 0.545188 0.160635
0.554642 0.570498 0.136735
0.729335 0.579906 0.089917
0.898123 0.582639 0.112846
0.927576 0.561960 0.149869
0.937669 0.546169 0.171844
0.945238 0.534981 0.189486
0.951196 0.528288 0.204618
0.956195 0.523622 0.213839
0.960899 0.517779 0.220302
0.414244 0.602419 0.210557
0.414176 0.601843 0.209999
0.414385 0.601661 0.209826
0.414366 0.601343 0.209454
0.413740 0.599879 0.208105
0.412265 0.597494 0.206045
0.410818 0.594573 0.203457
0.491125 0.618697 0.206519
0.628374 0.646138 0.157932
0.798361 0.663605 0.098452
0.891423 0.666277 0.101139
0.913599 0.659201 0.110011
0.928901 0.651284 0.124153
0.940948 0.645655 0.136519
0.950810 0.641399 0.146330
0.960074 0.635433 0.155700
0.453366 0.658017 0.250769
0.453944 0.657524 0.250307
0.454533 0.657422 0.250206
0.455052 0.657204 0.249996
0.455391 0.656292 0.249186
0.455413 0.654648 0.248018
0.454566 0.652257 0.246317
0.457837 0.650929 0.244749
0.568702 0.689099 0.237392
0.706640 0.723841 0.167256
0.838484 0.744313 0.105411
0.874261 0.742195 0.103916
0.887530 0.739261 0.105041
0.900509 0.737742 0.106227
0.912791 0.736483 0.107251
0.925558 0.734115 0.108488
0.472813 0.701971 0.274077
0.474059 0.701647 0.273872
0.475339 0.701791 0.273968
0.476345 0.701927 0.273939
0.477549 0.701303 0.273557
0.478518 0.700496 0.273017
0.478919 0.698750 0.272228
0.479249 0.696580 0.271045
0.503425 0.703222 0.270003
0.654400 0.757982 0.244276
0.782615 0.795469 0.160041
0.874398 0.813557 0.111190
0.891318 0.811512 0.110700
0.897540 0.808763 0.110363
0.904555 0.806766 0.110125
0.910993 0.803101 0.109731
0.479253 0.722389 0.281846
0.480964 0.722954 0.282035
0.482430 0.723503 0.282336
0.483786 0.723680 0.282387
0.485591 0.724189 0.282454
0.487412 0.724808 0.282520
0.488960 0.725268 0.282604
0.490470 0.725205 0.282480
0.492674 0.725007 0.282232
0.600639 0.766156 0.276326
0.742446 0.820140 0.228523
0.853310 0.856925 0.134363
0.913610 0.869517 0.117364
0.921478 0.868388 0.117798
0.926093 0.866698 0.117240
0.930065 0.863750 0.116580
0.480792 0.728333 0.283689
0.482584 0.728720 0.283890
0.484169 0.729319 0.284164
0.485589 0.729685 0.284279
0.487365 0.730215 0.284296
0.489263 0.730820 0.284378
0.490853 0.731179 0.284469
0.492711 0.731743 0.284543
0.494435 0.732284 0.284640
0.549704 0.753382 0.283775
0.705739 0.816411 0.255164
0.819701 0.859903 0.182215
0.901313 0.889075 0.120781
0.936198 0.896568 0.140795
0.944038 0.898483 0.142768
0.949592 0.899431 0.140681
0.482312 0.734102 0.285446
0.484255 0.734634 0.285662
0.485932 0.735126 0.285916
0.487352 0.735599 0.286025
0.489147 0.736196 0.286060
0.490950 0.736817 0.286108
0.492726 0.737187 0.286189
0.494595 0.737752 0.286319
0.496463 0.738202 0.286374
0.517694 0.746051 0.286732
0.679640 0.811427 0.267880
0.795545 0.856606 0.208853
0.884365 0.890848 0.129116
0.931598 0.904241 0.122897
0.944898 0.899812 0.217901
0.950946 0.901751 0.214447
0.483777 0.739875 0.287112
0.485786 0.740475 0.287336
0.487547 0.741053 0.287649
0.489014 0.741325 0.287721
0.490801 0.741934 0.287749
0.492721 0.742652 0.287828
0.494337 0.742978 0.287901
0.496357 0.743599 0.287997
0.498309 0.744264 0.288077
0.511100 0.748680 0.288438
0.658632 0.807912 0.276309
0.778349 0.855546 0.226340
0.868998 0.891362 0.144982
0.924036 0.909532 0.121909
0.943987 0.903291 0.256657
0.951172 0.901999 0.293110
0.485053 0.745485 0.288499
0.487098 0.746097 0.288708
0.488782 0.746488 0.289067
0.490445 0.746896 0.289147
0.492272 0.747601 0.289155
0.494151 0.748175 0.289246
0.495918 0.748745 0.289320
0.497856 0.749192 0.289390
0.499865 0.749802 0.289525
0.505979 0.751835 0.289732
0.634835 0.802882 0.283010
0.761255 0.854095 0.240943
0.854789 0.891219 0.166946
0.918599 0.914366 0.123573
0.946966 0.916662 0.187876
0.951072 0.902342 0.370413
0.014038 0.023882 0.046207
0.014845 0.025244 0.052670
0.049526 0.027295 0.090453
0.177730 0.023536 0.087932
0.344979 0.033928 0.104117
0.502127 0.046994 0.126971
0.632410 0.058836 0.151980
0.751871 0.070423 0.180335
0.822260 0.077453 0.205968
0.825594 0.077867 0.221650
0.830217 0.078353 0.234046
0.835695 0.078941 0.244276
0.841411 0.079586 0.251970
0.846557 0.080129 0.257296
0.852608 0.080713 0.260824
0.858460 0.081302 0.262795
0.015055 0.027503 0.047555
0.016011 0.028886 0.053139
0.049319 0.031130 0.089318
0.172669 0.023488 0.087396
0.328993 0.033674 0.098925
0.484881 0.046587 0.121868
0.614559 0.058598 0.142699
0.733376 0.070156 0.166042
0.822011 0.078870 0.190728
0.833414 0.080251 0.207763
0.837980 0.080809 0.220639
0.843194 0.081350 0.230791
0.849053 0.081948 0.238462
0.853878 0.082614 0.243930
0.859523 0.083193 0.247453
0.864995 0.083734 0.249496
0.019890 0.041354 0.057621
0.020647 0.042301 0.061345
0.040527 0.045823 0.085111
0.175630 0.028998 0.091017
0.328883 0.034991 0.097742
0.487225 0.047955 0.118513
0.618016 0.060363 0.139024
0.735866 0.071911 0.165729
0.823877 0.080670 0.193496
0.834856 0.081978 0.211836
0.839344 0.082548 0.224945
0.844728 0.083089 0.235249
0.850418 0.083676 0.243070
0.855213 0.084327 0.248663
0.860571 0.085036 0.252432
0.866272 0.085625 0.254628
0.042803 0.130342 0.084153
0.042986 0.129621 0.083760
0.043415 0.129339 0.084546
0.156271 0.143196 0.109579
0.385838 0.149824 0.115483
0.538288 0.146218 0.130466
0.658692 0.136850 0.154047
0.769021 0.104565 0.184921
0.841214 0.091592 0.208466
0.840286 0.087379 0.223369
0.841148 0.085445 0.234750
0.845721 0.085417 0.244935
0.851556 0.086198 0.253155
0.856950 0.087214 0.259301
0.862986 0.088360 0.263253
0.868885 0.089365 0.265866
0.081298 0.232475 0.049242
0.081597 0.232243 0.049278
0.081060 0.232019 0.050416
0.080793 0.231979 0.059027
0.271297 0.270882 0.090247
0.526566 0.272609 0.124294
0.669974 0.272844 0.150835
0.781824 0.264523 0.178739
0.866409 0.248593 0.206493
0.879479 0.229782 0.228685
0.883641 0.212957 0.243730
0.887740 0.201607 0.255555
0.892290 0.197724 0.265303
0.896566 0.205244 0.273255
0.901585 0.218999 0.278890
0.906554 0.230961 0.283211
0.186984 0.357681 0.066247
0.188324 0.357423 0.066411
0.189876 0.357441 0.066665
0.185955 0.355693 0.065720
0.181158 0.350408 0.064450
0.384502 0.391104 0.080204
0.612646 0.388626 0.111242
0.772194 0.380542 0.156054
0.879254 0.381142 0.192475
0.906472 0.375380 0.223030
0.909081 0.361018 0.241170
0.911385 0.346355 0.253304
0.913678 0.334746 0.262757
0.915917 0.330128 0.270853
0.919117 0.329880 0.277105
0.922202 0.329016 0.281433
0.271686 0.456723 0.107845
0.272106 0.456245 0.107628
0.272740 0.456271 0.107628
0.272938 0.455665 0.107357
0.271381 0.452823 0.105820
0.301252 0.459223 0.109616
0.478107 0.488222 0.108278
0.674483 0.490626 0.096002
0.854394 0.482954 0.147157
0.920297 0.466673 0.196775
0.926710 0.460436 0.226052
0.933148 0.459917 0.242752
0.938833 0.459908 0.253372
0.943190 0.459430 0.260595
0.947200 0.458487 0.265521
0.950734 0.455525 0.268688
0.347522 0.535773 0.157974
0.347558 0.535181 0.157517
0.347850 0.535023 0.157358
0.347746 0.534546 0.156971
0.346590 0.532614 0.155509
0.343983 0.529129 0.152964
0.399403 0.544084 0.159828
0.553735 0.569671 0.136756
