public/kits/editing-mini-guide/luts/cinematic-v1-log-07.cube
LUT_3D_SIZE 16
0.000000 0.000000 0.000000
0.017597 0.000929 0.003893
0.084863 0.005568 0.021072
0.198638 0.014923 0.040801
0.329070 0.018167 0.061135
0.463942 0.017538 0.085719
0.589165 0.013734 0.113842
0.712361 0.007493 0.147094
0.801128 0.007094 0.180862
0.808778 0.006735 0.204928
0.817412 0.006501 0.223470
0.826860 0.006444 0.237492
0.836453 0.006510 0.247545
0.845358 0.006624 0.254437
0.854441 0.006881 0.258822
0.863572 0.007217 0.261289
0.001573 0.012340 0.001610
0.013706 0.012723 0.003131
0.077208 0.011895 0.019840
0.188345 0.020990 0.039250
0.318108 0.023327 0.057827
0.452862 0.022166 0.082100
0.578273 0.017906 0.110165
0.700425 0.011410 0.144357
0.792184 0.010771 0.178320
0.799909 0.010196 0.203353
0.808630 0.009898 0.221837
0.818347 0.009774 0.235689
0.827593 0.009867 0.245803
0.835894 0.010072 0.252869
0.845103 0.010311 0.257209
0.854474 0.010598 0.259613
0.012436 0.054061 0.006522
0.018198 0.054264 0.006857
0.059477 0.056829 0.012166
0.170771 0.055805 0.036756
0.293176 0.042234 0.052630
0.441263 0.027147 0.077858
0.566989 0.022178 0.105448
0.688836 0.015271 0.140645
0.783168 0.014593 0.175602
0.790930 0.013688 0.201323
0.799970 0.013295 0.219701
0.809540 0.013178 0.233655
0.819162 0.013211 0.243689
0.827237 0.013426 0.250775
0.835784 0.013747 0.255326
0.845047 0.014032 0.257763
0.031104 0.132160 0.013750
0.035696 0.131561 0.013708
0.040244 0.130873 0.013662
0.137878 0.140450 0.015626
0.323920 0.163824 0.059032
0.444638 0.114589 0.066766
0.537251 0.044976 0.091201
0.670747 0.022840 0.132197
0.774678 0.018667 0.170371
0.782202 0.017336 0.196879
0.791537 0.016839 0.215427
0.801204 0.016652 0.229567
0.810552 0.016761 0.239728
0.818945 0.016943 0.246820
0.827521 0.017226 0.251465
0.836074 0.017549 0.254142
0.050513 0.224795 0.026104
0.053644 0.224801 0.025746
0.056300 0.224796 0.025449
0.058795 0.223656 0.024932
0.265003 0.248241 0.020741
0.501849 0.294548 0.081078
0.624668 0.261184 0.100261
0.711987 0.202677 0.123115
0.775572 0.132299 0.155184
0.754549 0.044443 0.180392
0.766732 0.030971 0.201804
0.781392 0.026012 0.218506
0.799024 0.022163 0.231098
0.809826 0.021613 0.239301
0.818338 0.021871 0.244125
0.826932 0.022109 0.247086
0.071461 0.307001 0.062052
0.074180 0.306606 0.061539
0.076937 0.306266 0.061021
0.079652 0.305768 0.060131
0.082849 0.303204 0.057632
0.392558 0.343517 0.048827
0.608023 0.406934 0.083136
0.767798 0.406953 0.145815
0.900821 0.385568 0.176394
0.914978 0.340895 0.197832
0.890371 0.294406 0.214160
0.868676 0.250985 0.221913
0.851164 0.212120 0.226643
0.846418 0.190156 0.233025
0.846497 0.179298 0.237861
0.847602 0.166178 0.241014
0.093302 0.348334 0.101928
0.096614 0.348457 0.100795
0.099952 0.348577 0.099676
0.103092 0.348576 0.098461
0.105397 0.346782 0.096541
0.172359 0.355633 0.084181
0.515507 0.435318 0.090346
0.718035 0.506570 0.102407
0.897908 0.520089 0.165561
0.984911 0.505224 0.203644
0.985050 0.485760 0.219684
0.986215 0.469499 0.232914
0.987875 0.455283 0.244040
0.988634 0.445132 0.253057
0.989511 0.436638 0.257573
0.991050 0.426945 0.260213
0.151976 0.409012 0.128373
0.155867 0.409260 0.127666
0.159494 0.409576 0.126829
0.162914 0.409646 0.125872
0.165045 0.408383 0.124388
0.165608 0.405771 0.122179
0.322824 0.438062 0.116875
0.639696 0.528529 0.141248
0.834899 0.592672 0.131877
0.983712 0.610484 0.162757
1.000020 0.601243 0.197844
0.999746 0.591638 0.214161
1.000020 0.583214 0.225205
1.000020 0.576603 0.230407
1.000020 0.571273 0.232866
1.000003 0.564201 0.233749
0.218739 0.469298 0.164805
0.222893 0.469860 0.164340
0.226925 0.470375 0.163862
0.230899 0.470858 0.163361
0.233963 0.470287 0.162167
0.236257 0.468693 0.160344
0.241147 0.466978 0.157619
0.473916 0.529235 0.170233
0.753399 0.609758 0.184983
0.933155 0.670152 0.141183
0.998893 0.684683 0.139877
0.999511 0.681169 0.178739
1.000020 0.678212 0.193994
1.000020 0.675819 0.197727
1.000020 0.673041 0.198015
1.000006 0.668391 0.197100
0.243192 0.518073 0.195297
0.248735 0.519200 0.195211
0.254102 0.520274 0.195146
0.259221 0.521226 0.195126
0.264365 0.521447 0.194530
0.269245 0.521085 0.193692
0.273700 0.520117 0.192509
0.291114 0.522232 0.191518
0.599437 0.611772 0.211020
0.847072 0.681476 0.208241
0.978279 0.739406 0.148695
0.999631 0.752778 0.113363
1.000020 0.751677 0.108877
1.000020 0.751862 0.125903
1.000020 0.752699 0.129109
1.000005 0.750870 0.132831
0.241529 0.551996 0.209945
0.247816 0.553497 0.209924
0.254180 0.554939 0.209871
0.260500 0.556411 0.209835
0.266909 0.557278 0.209644
0.273406 0.557802 0.209301
0.279621 0.557894 0.208848
0.286043 0.557554 0.208341
0.355510 0.575486 0.211265
0.728515 0.694583 0.222247
0.910091 0.755081 0.194179
0.994095 0.799338 0.142965
1.000015 0.807815 0.124356
1.000020 0.811831 0.112221
1.000020 0.815728 0.099586
1.000006 0.817856 0.086378
0.237071 0.566454 0.213355
0.243461 0.568030 0.213188
0.249858 0.569584 0.212970
0.256300 0.571214 0.212904
0.263218 0.573099 0.212921
0.270169 0.574987 0.212937
0.276870 0.576720 0.212959
0.283746 0.578436 0.212924
0.290739 0.579618 0.212793
0.579799 0.680332 0.221561
0.829897 0.772005 0.203061
0.959108 0.822941 0.163209
0.999952 0.853574 0.125648
1.000020 0.855964 0.133126
1.000020 0.858842 0.127027
1.000006 0.861802 0.114093
0.236005 0.571551 0.214025
0.242509 0.573113 0.213801
0.248883 0.574660 0.213610
0.255301 0.576259 0.213400
0.262210 0.578107 0.213380
0.269154 0.579996 0.213396
0.276095 0.581887 0.213414
0.283140 0.583904 0.213373
0.290012 0.585779 0.213373
0.424949 0.633264 0.217309
0.766919 0.763547 0.211943
0.911104 0.820462 0.176245
0.990795 0.861690 0.136179
1.000020 0.874875 0.148051
1.000018 0.876895 0.165578
1.000052 0.878418 0.174505
0.235542 0.578830 0.214293
0.242349 0.580473 0.213952
0.248869 0.582021 0.213675
0.255279 0.583656 0.213525
0.262155 0.585592 0.213418
0.269127 0.587527 0.213370
0.276062 0.589430 0.213386
0.283317 0.591622 0.213296
0.290445 0.593688 0.213294
0.357104 0.616141 0.214714
0.719366 0.755126 0.215371
0.878125 0.818262 0.182772
0.972280 0.860677 0.145525
0.999203 0.885613 0.114752
1.000020 0.875798 0.226599
1.000020 0.877539 0.237588
0.235082 0.586055 0.214518
0.241912 0.587762 0.214162
0.248756 0.589422 0.213833
0.255222 0.591010 0.213587
0.262071 0.592958 0.213460
0.269121 0.594973 0.213389
0.276056 0.596932 0.213354
0.283302 0.599090 0.213310
0.290632 0.601456 0.213194
0.332664 0.615249 0.213578
0.676599 0.746770 0.216907
0.852450 0.818645 0.187327
0.953125 0.862485 0.150924
0.996127 0.890142 0.120048
1.000020 0.887792 0.197709
1.000020 0.876083 0.303133
0.234683 0.592983 0.214757
0.241481 0.594592 0.214393
0.248259 0.596308 0.214044
0.255029 0.598011 0.213688
0.261944 0.599956 0.213531
0.268946 0.601953 0.213438
0.275892 0.603924 0.213348
0.283090 0.606195 0.213282
0.290436 0.608457 0.213165
0.311436 0.615133 0.213106
0.626774 0.734325 0.217489
0.824996 0.817224 0.191976
0.932784 0.864924 0.154945
0.992285 0.895159 0.124095
1.000020 0.909212 0.119157
1.000020 0.880554 0.327237
0.000487 0.001086 0.006005
0.016515 0.002132 0.013138
0.082770 0.006179 0.027463
0.197225 0.015012 0.048316
0.327992 0.017859 0.068622
0.462572 0.016766 0.093264
0.587421 0.012884 0.122275
0.710565 0.007283 0.156372
0.799659 0.006828 0.189956
0.806951 0.006394 0.214290
0.815660 0.006148 0.232776
0.824906 0.006098 0.246743
0.834404 0.006184 0.256837
0.843185 0.006460 0.263844
0.852452 0.006766 0.268255
0.861532 0.007110 0.270717
0.000691 0.013382 0.009229
0.010752 0.011350 0.011956
0.074062 0.012546 0.026558
0.186580 0.020409 0.045570
0.314118 0.023235 0.064591
0.447142 0.021784 0.088305
0.571700 0.017505 0.116737
0.693069 0.011259 0.151312
0.790085 0.010753 0.185572
0.797560 0.010175 0.211013
0.806127 0.009906 0.229572
0.815661 0.009815 0.243512
0.825014 0.009937 0.253659
0.833306 0.010260 0.260615
0.842542 0.010567 0.264712
0.851735 0.010903 0.267037
0.008263 0.053513 0.009045
0.014603 0.052531 0.009707
0.055809 0.055157 0.015831
0.163788 0.061009 0.042659
0.286999 0.045072 0.057764
0.438016 0.026481 0.083652
0.563491 0.021584 0.111871
0.685485 0.014861 0.147289
0.781795 0.014345 0.182102
0.789581 0.013477 0.207740
0.798289 0.013155 0.226147
0.808019 0.013036 0.240020
0.817520 0.013112 0.250081
0.825622 0.013408 0.256895
0.834420 0.013812 0.260635
0.843586 0.014112 0.262717
0.026155 0.128970 0.015551
0.030502 0.128415 0.015520
0.034885 0.127902 0.015476
0.133982 0.136711 0.018438
0.322062 0.156129 0.063643
0.444237 0.118362 0.072009
0.544040 0.071847 0.095641
0.654924 0.030009 0.135135
0.767159 0.020477 0.175680
0.781164 0.017091 0.202648
0.790506 0.016643 0.220898
0.800100 0.016493 0.234699
0.809517 0.016624 0.244692
0.817826 0.016849 0.251646
0.826289 0.017213 0.255864
0.834942 0.017576 0.258335
0.044352 0.220743 0.028573
0.047601 0.220110 0.028433
0.050278 0.220053 0.028167
0.052706 0.218882 0.027581
0.262904 0.243692 0.022751
0.503455 0.282704 0.087344
0.616274 0.233932 0.101425
0.709347 0.202212 0.131681
0.789136 0.168490 0.165602
0.779275 0.117041 0.189500
0.762841 0.066777 0.203627
0.771510 0.032772 0.220588
0.787015 0.027502 0.233883
0.795481 0.027625 0.241999
0.805497 0.026694 0.247284
0.816945 0.025937 0.250878
0.065710 0.302187 0.066106
0.068011 0.301374 0.065070
0.070618 0.301040 0.064495
0.073141 0.300523 0.063523
0.075205 0.297965 0.060887
0.392863 0.340991 0.050976
0.611203 0.399001 0.090507
0.764742 0.380722 0.149582
0.884845 0.346860 0.178184
0.896586 0.314982 0.206652
0.888985 0.297228 0.223770
0.885118 0.282259 0.234100
0.882398 0.268483 0.241389
0.882838 0.261074 0.248127
0.885289 0.255438 0.252991
0.887484 0.248471 0.256181
0.088526 0.347158 0.104416
0.091600 0.346814 0.103230
0.094747 0.346973 0.102174
0.097742 0.346824 0.100940
0.099990 0.344987 0.099004
0.174865 0.355249 0.085568
0.516770 0.433845 0.091303
0.722082 0.500114 0.116497
0.900341 0.501203 0.176283
0.976072 0.471186 0.210523
0.972873 0.443366 0.229293
0.973290 0.423784 0.248271
0.972760 0.410542 0.259383
0.972858 0.403279 0.266206
0.975157 0.399411 0.270037
0.978881 0.395283 0.272691
0.147053 0.408145 0.130362
0.150824 0.408139 0.129420
0.154272 0.408379 0.128594
0.157621 0.408360 0.127624
0.160201 0.407127 0.125999
0.160674 0.404461 0.123704
0.329610 0.439412 0.118421
0.642071 0.527744 0.142112
0.837942 0.587846 0.137055
0.986410 0.596235 0.178744
0.998134 0.576520 0.212732
0.998259 0.559986 0.229955
0.998796 0.547057 0.240721
0.999340 0.537871 0.246805
1.000020 0.531276 0.251573
1.000026 0.523381 0.254251
0.214153 0.468418 0.166593
0.218195 0.468613 0.165881
0.222051 0.469139 0.165456
0.225929 0.469500 0.164891
0.229515 0.468924 0.163604
0.231917 0.467439 0.161680
0.237410 0.465750 0.158936
0.479842 0.530699 0.172395
0.756979 0.609243 0.186266
0.936613 0.665370 0.141293
0.998927 0.674429 0.156469
0.999846 0.667707 0.194780
1.000020 0.660444 0.206851
1.000020 0.654677 0.210892
1.000021 0.649526 0.213028
1.000006 0.642786 0.213747
0.238941 0.517344 0.197497
0.244773 0.518188 0.197373
0.249826 0.519150 0.197349
0.254904 0.520087 0.197239
0.260608 0.520422 0.196604
0.265622 0.520073 0.195765
0.270029 0.518969 0.194436
0.290144 0.521851 0.193702
0.610761 0.615081 0.214291
0.851632 0.680688 0.210932
0.980446 0.734751 0.150820
0.999733 0.743991 0.118842
1.000020 0.740735 0.136908
1.000020 0.740271 0.145209
1.000020 0.740089 0.146131
1.000005 0.737081 0.156926
0.237520 0.551641 0.212620
0.244195 0.552726 0.212631
0.250181 0.554129 0.212628
0.256416 0.555561 0.212578
0.263299 0.556506 0.212360
0.269941 0.557131 0.212068
0.276065 0.557101 0.211647
0.282931 0.556852 0.211070
0.372228 0.580420 0.215151
0.737348 0.696932 0.225171
0.914716 0.753101 0.198547
0.994869 0.794228 0.147142
1.000020 0.800841 0.129249
1.000064 0.803144 0.117667
1.000020 0.806363 0.104310
1.000006 0.807617 0.091588
0.233087 0.566263 0.216350
0.239859 0.567939 0.216364
0.245903 0.569392 0.216146
0.252245 0.571061 0.216081
0.259542 0.573046 0.216193
0.266671 0.574975 0.216248
0.273361 0.576691 0.216249
0.280617 0.578293 0.216189
0.291661 0.580665 0.216141
0.599799 0.688517 0.226029
0.838510 0.774865 0.206067
0.963473 0.819976 0.168680
1.000020 0.847264 0.134385
1.000020 0.849724 0.133306
1.000020 0.853337 0.121718
1.000006 0.855703 0.110541
0.232073 0.571379 0.217141
0.238994 0.573094 0.217114
0.245009 0.574578 0.216906
0.251358 0.576110 0.216697
0.258622 0.578068 0.216677
0.265724 0.580018 0.216745
0.272662 0.581905 0.216740
0.280039 0.584023 0.216738
0.287077 0.585978 0.216744
0.461507 0.646550 0.221676
0.776967 0.767907 0.214795
0.919299 0.824291 0.178534
0.993419 0.863217 0.139312
1.000020 0.874647 0.154794
1.000007 0.875972 0.171386
1.000043 0.877725 0.177191
0.231771 0.578692 0.217604
0.239168 0.580581 0.217531
0.245216 0.582045 0.217319
0.251552 0.583650 0.217164
0.258820 0.585653 0.216954
0.265974 0.587647 0.216940
0.272869 0.589496 0.216917
0.280451 0.591796 0.216919
0.287716 0.593915 0.216894
0.360213 0.618533 0.218623
0.730927 0.760192 0.218740
0.887554 0.822184 0.185251
0.977879 0.863969 0.147585
1.000020 0.887020 0.119849
1.000020 0.876305 0.233370
1.000020 0.878101 0.243070
0.231345 0.585949 0.217878
0.238799 0.587860 0.217828
0.245120 0.589448 0.217495
0.251533 0.591017 0.217291
0.258838 0.593024 0.217065
0.265980 0.595065 0.216937
0.272896 0.597037 0.216938
0.280436 0.599267 0.216905
0.287931 0.601641 0.216811
0.334031 0.616854 0.217378
0.689956 0.753016 0.220567
0.862104 0.822785 0.189599
0.962144 0.866461 0.152414
0.997745 0.893354 0.120270
1.000020 0.880695 0.258595
1.000020 0.876713 0.309002
0.230960 0.592851 0.218049
0.238362 0.594773 0.218022
0.244694 0.596344 0.217713
0.251424 0.598020 0.217377
0.258710 0.600004 0.217169
0.265797 0.602068 0.217066
0.272759 0.604038 0.216907
0.280227 0.606346 0.216875
0.287726 0.608705 0.216778
0.310498 0.615913 0.216789
0.643712 0.742059 0.221456
0.835130 0.821874 0.194337
0.942778 0.868974 0.156422
0.994624 0.898912 0.123948
1.000020 0.902513 0.176394
1.000020 0.875310 0.375532
0.000895 0.006384 0.028790
0.007705 0.007473 0.042167
0.077336 0.009040 0.058294
0.192002 0.015689 0.070482
0.326231 0.017402 0.085161
0.460903 0.015376 0.106853
0.585415 0.011695 0.135136
0.708444 0.006795 0.169290
0.797526 0.006450 0.202060
0.804754 0.005923 0.226131
0.813250 0.005765 0.244340
0.822464 0.005839 0.258234
0.831529 0.006071 0.268309
0.840374 0.006362 0.275208
0.849793 0.006651 0.279585
0.859070 0.006983 0.281935
0.000817 0.013093 0.032554
0.006995 0.013962 0.039560
0.070400 0.014223 0.054918
0.179842 0.019878 0.065424
0.307738 0.022516 0.076863
0.437429 0.020390 0.095671
0.558416 0.017074 0.122938
0.676268 0.011190 0.156781
0.781225 0.010354 0.190549
0.796867 0.009974 0.215794
0.805457 0.009711 0.233993
0.814909 0.009650 0.247787
0.824295 0.009820 0.257791
0.832475 0.010198 0.264686
0.841580 0.010514 0.269018
0.850772 0.010848 0.271483
0.000992 0.057454 0.041711
0.004136 0.054499 0.042019
0.041241 0.049461 0.048368
0.160557 0.058830 0.061244
0.283411 0.046749 0.069123
0.425252 0.031129 0.090941
0.559072 0.020331 0.123489
0.680958 0.014352 0.159293
0.777127 0.013976 0.193864
0.786732 0.013245 0.219674
0.795480 0.012977 0.237924
0.804767 0.013002 0.251981
0.814202 0.013112 0.262026
0.822161 0.013531 0.268729
0.830806 0.014020 0.272143
0.839986 0.014360 0.274078
0.014638 0.125819 0.021022
0.018644 0.122767 0.021268
0.021287 0.120639 0.022368
0.111997 0.122434 0.034550
0.321813 0.157080 0.077898
0.450845 0.129201 0.084095
0.539569 0.079322 0.104522
0.643349 0.035924 0.143433
0.749438 0.028375 0.183372
0.769132 0.021009 0.211503
0.779606 0.019802 0.229931
0.791568 0.018593 0.244328
0.806306 0.016670 0.255611
0.814955 0.016860 0.262504
0.823584 0.017297 0.265914
0.832284 0.017696 0.267953
0.037716 0.216611 0.030564
0.041371 0.216141 0.030439
0.044701 0.215551 0.030538
0.047170 0.214296 0.029990
0.255928 0.238033 0.026363
0.504124 0.280610 0.101695
0.617733 0.243724 0.117277
0.715425 0.221788 0.147531
0.791902 0.182180 0.179084
0.777408 0.122499 0.200226
0.759473 0.073597 0.213306
0.759579 0.040196 0.228140
0.776756 0.032909 0.242237
0.783739 0.033361 0.250141
0.791996 0.034496 0.255554
0.803090 0.033405 0.259015
0.059928 0.297195 0.070041
0.062456 0.296645 0.068769
0.064734 0.296131 0.067899
0.067090 0.295640 0.066834
0.069042 0.292991 0.064202
0.389840 0.337923 0.053373
0.613925 0.399077 0.112280
0.764362 0.379574 0.158733
0.886834 0.354274 0.190732
0.909544 0.340274 0.222122
0.904061 0.325472 0.238969
0.897708 0.306389 0.248718
0.891658 0.288341 0.255163
0.889742 0.277362 0.261147
0.891311 0.270884 0.265930
0.892845 0.263383 0.269009
0.083940 0.345851 0.106904
0.087218 0.345667 0.105613
0.090127 0.345698 0.104598
0.092967 0.345544 0.103373
0.095279 0.343764 0.101430
0.172192 0.354409 0.087698
0.515204 0.433025 0.093140
0.723532 0.500535 0.128565
0.900802 0.500348 0.186713
0.976358 0.471928 0.220161
0.972184 0.447766 0.244347
0.974150 0.433857 0.262798
0.977119 0.427233 0.273627
0.979931 0.425085 0.280450
0.984419 0.423800 0.284573
0.988316 0.420779 0.286671
0.142266 0.407402 0.132428
0.146380 0.407415 0.131375
0.149996 0.407703 0.130573
0.153259 0.407615 0.129629
0.155772 0.406457 0.127973
0.156641 0.403747 0.125494
0.327068 0.438855 0.120154
0.640713 0.527197 0.144006
0.838915 0.588174 0.148712
0.986547 0.596329 0.190738
0.998096 0.576150 0.222432
0.998269 0.560469 0.239635
0.998924 0.548757 0.253257
0.999355 0.540727 0.263895
1.000020 0.534816 0.269700
1.000021 0.527746 0.272798
0.209256 0.467519 0.168346
0.213619 0.467801 0.167526
0.217867 0.468314 0.167177
0.221604 0.468697 0.166598
0.225203 0.468112 0.165282
0.228206 0.466636 0.163363
0.234678 0.465262 0.160620
0.478319 0.530341 0.174324
0.755695 0.608925 0.188809
0.936342 0.665046 0.154675
0.998717 0.675149 0.174222
0.999929 0.668369 0.205253
1.000020 0.660822 0.216373
1.000020 0.655076 0.220463
1.000027 0.650063 0.222755
1.000006 0.643463 0.223996
0.234679 0.516584 0.199705
0.240762 0.517461 0.199424
0.246065 0.518574 0.199522
0.250966 0.519391 0.199384
0.256682 0.519705 0.198709
0.262234 0.519520 0.197848
0.266847 0.518442 0.196537
0.288025 0.521656 0.195865
0.609033 0.615023 0.216937
0.850586 0.680549 0.214499
0.980057 0.734250 0.158015
0.999286 0.743276 0.131955
1.000020 0.741165 0.148761
1.000020 0.740832 0.157038
1.000020 0.740633 0.159868
1.000005 0.738094 0.168776
0.233499 0.551243 0.215238
0.240465 0.552431 0.215104
0.246715 0.553859 0.215345
0.252645 0.555214 0.215275
0.259512 0.556182 0.215096
0.266588 0.556963 0.214858
0.272793 0.556954 0.214390
0.279637 0.556635 0.213736
0.370339 0.580509 0.217935
0.736251 0.697223 0.228692
0.913700 0.752936 0.202975
0.994480 0.793264 0.153715
1.000020 0.800136 0.135553
1.000020 0.802364 0.124356
1.000061 0.805447 0.112394
1.000006 0.806717 0.099845
0.229108 0.566088 0.219358
0.236126 0.567738 0.219155
0.242535 0.569322 0.219154
0.248627 0.570924 0.219091
0.255874 0.572900 0.219156
0.263293 0.574932 0.219303
0.270084 0.576697 0.219317
0.277352 0.578273 0.219266
0.288558 0.580665 0.219186
0.597888 0.688619 0.229666
0.837546 0.774814 0.210501
0.962306 0.818670 0.174968
1.000020 0.846787 0.140002
1.000020 0.849516 0.139038
1.000020 0.853003 0.127511
1.000006 0.855446 0.116445
0.228101 0.571163 0.220137
0.235295 0.572938 0.219880
0.241666 0.574509 0.219903
0.247709 0.576007 0.219736
0.254960 0.577990 0.219759
0.262389 0.579999 0.219846
0.269422 0.581922 0.219844
0.276789 0.584035 0.219842
0.284098 0.586069 0.219851
0.459462 0.646993 0.225238
0.775755 0.768312 0.219057
0.918413 0.824041 0.183562
0.992404 0.861522 0.146173
1.000020 0.874314 0.160034
1.000007 0.875880 0.176844
1.000042 0.877540 0.182684
0.227862 0.578516 0.220670
0.235512 0.580418 0.220418
0.241973 0.582021 0.220444
0.248040 0.583552 0.220211
0.255297 0.585525 0.220047
0.262717 0.587646 0.220067
0.269718 0.589543 0.220106
0.277268 0.591821 0.220079
0.284795 0.594080 0.220062
0.359656 0.619309 0.221955
0.729229 0.760433 0.222985
0.886547 0.822212 0.190066
0.977102 0.862857 0.153741
0.999921 0.886666 0.125248
1.000020 0.876344 0.238841
1.000020 0.878079 0.248629
0.227613 0.585802 0.221095
0.235336 0.587757 0.220902
0.242210 0.589570 0.220897
0.248364 0.591098 0.220661
0.255547 0.593066 0.220477
0.262977 0.595151 0.220333
0.269994 0.597101 0.220278
0.277506 0.599390 0.220264
0.285239 0.601830 0.220216
0.332676 0.617446 0.220835
0.688610 0.753087 0.224933
0.860820 0.822266 0.194824
0.960948 0.865858 0.158283
0.997244 0.892766 0.126361
1.000020 0.881309 0.260554
1.000020 0.877250 0.314353
0.227271 0.592722 0.221372
0.234936 0.594668 0.221100
0.241900 0.596531 0.221088
0.248253 0.598055 0.220792
0.255423 0.600053 0.220578
0.262864 0.602156 0.220443
0.269893 0.604184 0.220338
0.277355 0.606443 0.220256
0.285031 0.608826 0.220210
0.308548 0.616254 0.220216
0.641437 0.741831 0.225727
0.833541 0.821548 0.199385
0.941686 0.868373 0.162154
0.994007 0.898092 0.130090
1.000020 0.902745 0.179453
1.000020 0.875908 0.380854
0.001134 0.021477 0.083870
0.005328 0.021884 0.089486
0.060807 0.018715 0.125622
0.180832 0.018412 0.126029
0.317561 0.017101 0.134270
0.456604 0.011652 0.150866
0.581957 0.008755 0.173994
0.703667 0.005536 0.202080
0.792260 0.005539 0.229722
0.799666 0.005412 0.250826
0.807871 0.005490 0.267029
0.816591 0.005668 0.279974
0.825146 0.005999 0.289242
0.833755 0.006359 0.295581
0.842938 0.006689 0.299449
0.852229 0.007035 0.301357
0.000966 0.026877 0.083990
0.004984 0.027629 0.088790
0.059730 0.026074 0.118487
0.172795 0.021144 0.123169
0.298692 0.021139 0.126985
0.432063 0.015899 0.141117
0.553596 0.013572 0.156936
0.671014 0.009930 0.179008
0.776774 0.009726 0.204944
0.794648 0.009514 0.226944
0.803472 0.009430 0.243810
0.812959 0.009453 0.256805
0.822461 0.009607 0.266179
0.830325 0.010115 0.272774
0.839733 0.010439 0.276877
0.849094 0.010760 0.279076
0.001738 0.045701 0.090731
0.003970 0.046090 0.094131
0.043710 0.046401 0.109054
0.162636 0.031873 0.119735
0.291405 0.025704 0.122633
0.424690 0.020037 0.131436
0.546261 0.017672 0.146190
0.663511 0.013395 0.174185
0.767508 0.013270 0.204813
0.785088 0.012870 0.228603
0.794174 0.012729 0.245705
0.803395 0.012809 0.258897
0.812956 0.012914 0.268354
0.820819 0.013386 0.275018
0.829040 0.013947 0.279262
0.838231 0.014277 0.281552
0.001056 0.141768 0.111412
0.001960 0.138379 0.109985
0.002984 0.136225 0.110191
0.072242 0.118517 0.109176
0.300298 0.138104 0.120427
0.443214 0.114919 0.119018
0.546704 0.084425 0.136558
0.641124 0.050851 0.168268
0.739155 0.031790 0.205814
0.758406 0.022961 0.232424
0.778061 0.018228 0.252264
0.789634 0.017275 0.266108
0.798807 0.017598 0.275876
0.805549 0.018405 0.282175
0.813023 0.019373 0.285562
0.820753 0.020189 0.287491
0.006990 0.227248 0.052724
0.007682 0.222892 0.053529
0.007469 0.218587 0.056310
0.006416 0.213967 0.068690
0.204167 0.210005 0.101438
0.488614 0.271841 0.154211
0.609799 0.248988 0.157701
0.705473 0.221190 0.178032
0.790880 0.195601 0.205158
0.793632 0.165155 0.224882
0.789087 0.143697 0.237835
0.788982 0.130659 0.248554
0.793081 0.125300 0.257842
0.802131 0.130017 0.266885
0.813890 0.139977 0.273702
0.825012 0.148719 0.278791
0.053224 0.291316 0.072903
0.055701 0.290908 0.071530
0.058022 0.290541 0.070443
0.053947 0.284766 0.074174
0.050724 0.277989 0.074514
0.376659 0.329403 0.073292
0.618152 0.399077 0.165199
0.758430 0.380419 0.195094
0.889007 0.376393 0.224351
0.916561 0.363066 0.251003
0.904551 0.337560 0.263654
0.893523 0.312292 0.270559
0.885826 0.291959 0.275939
0.884351 0.281810 0.281872
0.888296 0.278411 0.287278
0.892485 0.274964 0.291038
0.078876 0.343877 0.109174
0.082181 0.343762 0.107836
0.085192 0.343841 0.106744
0.087840 0.343511 0.105504
0.090115 0.341520 0.103619
0.168699 0.352481 0.089716
0.511900 0.430963 0.100607
0.729223 0.502111 0.167652
0.901841 0.497558 0.213578
0.974959 0.476748 0.249583
0.974966 0.466781 0.275236
0.980930 0.464615 0.290531
0.986108 0.462894 0.300071
0.988019 0.460924 0.305886
0.992008 0.459293 0.310214
0.994854 0.455252 0.312418
0.136930 0.405965 0.134224
0.141102 0.406014 0.133155
0.144844 0.406307 0.132227
0.148211 0.406271 0.131223
0.150599 0.404940 0.129533
0.151532 0.402382 0.127135
0.324115 0.437736 0.121418
0.638819 0.525985 0.147373
