public/kits/editing-mini-guide/luts/cinematic-v1-log-37.cube
LUT_3D_SIZE 6
0.000000 -0.000711 0.000000
0.057713 -0.001392 0.000307
0.226320 -0.001302 -0.000010
0.465040 -0.000920 0.002658
0.706642 -0.000447 0.003187
0.939459 -0.000018 -0.000403
0.000716 0.072525 0.000000
0.080926 0.067253 0.000000
0.209804 0.063743 0.000000
0.426004 0.084340 0.000196
0.668014 0.086366 0.000191
0.895383 0.073842 0.000177
0.007717 0.279327 0.000000
0.080232 0.275762 0.000000
0.297873 0.252836 0.000000
0.460525 0.186264 -0.000013
0.702115 0.208816 0.000191
0.943528 0.215635 0.000191
0.036185 0.546529 0.000000
0.089314 0.554414 0.000000
0.337228 0.569398 0.000000
0.614553 0.525160 0.000000
0.756105 0.384035 0.000192
1.012374 0.365319 0.001394
0.051192 0.783949 0.000000
0.097645 0.800874 0.000000
0.300748 0.822492 0.000000
0.657247 0.850460 0.000000
0.869875 0.748475 0.000000
0.995448 0.568738 0.000172
0.059609 0.956557 -0.001700
0.104297 0.979363 -0.002565
0.286040 1.012347 -0.002752
0.634431 1.054896 -0.004099
1.026705 1.063680 -0.004119
0.993803 0.754660 -0.002239
-0.010936 -0.457913 0.082985
0.055950 -0.465687 0.078279
0.216352 -0.469557 0.090711
0.431853 -0.473796 0.099829
0.648087 -0.462369 0.098943
0.909839 -0.356873 0.091019
0.002778 0.077330 0.071988
0.051963 0.072223 0.077181
0.248336 0.046612 0.063941
0.517797 0.010339 0.051958
0.809216 -0.032258 0.031272
1.001973 0.047473 0.064050
0.000000 0.291807 0.077494
0.032395 0.315522 0.066001
0.314411 0.312013 0.064751
0.528221 0.228832 0.056733
0.810362 0.226411 0.039097
1.000024 0.252560 0.069157
0.000000 0.611781 0.070810
0.028867 0.641290 0.052002
0.252327 0.644145 0.052630
0.687389 0.636697 0.060033
0.837792 0.418258 0.049798
1.000020 0.418839 0.095332
-0.001294 0.883827 0.045429
-0.031760 0.979199 0.012155
0.188120 0.987134 0.014538
0.611450 0.997745 0.029231
1.017900 0.901926 0.036195
1.000020 0.603435 0.082852
0.008518 1.084037 -0.062068
0.059933 1.084041 -0.037695
0.213022 1.084041 -0.036614
0.545370 1.084041 0.041878
0.954862 1.090708 0.050634
1.014663 0.804810 0.048904
-0.004714 -0.473587 0.311073
-0.001713 -0.473789 0.235439
0.238667 -0.473789 0.278550
0.467728 -0.473789 0.299492
0.683598 -0.472314 0.294356
0.928527 -0.388798 0.273823
0.002665 0.115246 0.235557
0.060573 0.106004 0.275179
0.229510 0.032922 0.302391
0.526698 0.024026 0.293164
0.816884 -0.029975 0.260283
1.001790 0.052810 0.250016
0.016954 0.318254 0.273016
0.073839 0.309421 0.276796
0.240846 0.294298 0.277258
0.491532 0.267234 0.271983
0.773194 0.233486 0.243312
1.003846 0.258246 0.259085
0.014981 0.591982 0.244568
0.066022 0.602370 0.257946
0.221145 0.611026 0.269860
0.555431 0.620339 0.272803
0.794452 0.500113 0.255832
1.001099 0.524756 0.295344
-0.003051 0.900824 0.214369
0.008150 0.948028 0.218787
0.178250 0.931892 0.223330
0.432105 0.938569 0.222522
0.944972 0.950649 0.224296
1.001754 0.668978 0.276114
0.013604 1.084026 0.149202
0.066273 1.084041 0.200306
0.213793 1.084041 0.220267
0.433136 1.084041 0.233944
0.814888 1.084555 0.243655
1.011760 0.876982 0.241959
0.008472 -0.473272 0.602604
-0.022622 -0.473789 0.377758
0.181950 -0.473789 0.547143
0.484090 -0.473789 0.596945
0.718873 -0.473789 0.590491
0.949235 -0.423603 0.550139
0.010142 0.139021 0.481472
0.064135 0.127616 0.564802
0.148162 0.041469 0.570996
0.503490 -0.028294 0.669790
0.825711 -0.029665 0.644668
1.000956 0.059473 0.534554
0.026209 0.340404 0.537859
0.076683 0.344415 0.560450
0.236244 0.335216 0.574200
0.432741 0.259483 0.606382
0.781612 0.235553 0.604256
1.003090 0.265218 0.541426
0.049639 0.613503 0.554917
0.101780 0.619332 0.577071
0.264716 0.605745 0.587884
0.494565 0.599548 0.598995
0.763556 0.550959 0.587007
1.006006 0.570209 0.586615
0.035095 0.830481 0.451981
0.077933 0.851163 0.476609
0.225523 0.867329 0.515650
0.432199 0.893268 0.547033
0.742325 0.883366 0.538653
1.006568 0.757633 0.562100
0.023115 1.077489 0.363001
0.075756 1.084041 0.430798
0.229404 1.084041 0.466975
0.448031 1.084041 0.519205
0.695004 1.084041 0.517687
1.013519 0.952440 0.523359
-0.016762 -0.431362 0.933631
-0.014190 -0.446013 0.644285
0.114029 -0.458549 0.801469
0.393175 -0.472103 0.907186
0.720041 -0.473398 0.922372
0.949228 -0.450133 0.869716
0.016091 0.146908 0.763159
0.065800 0.143575 0.904722
0.096040 -0.042278 0.921715
0.363789 0.027795 0.994900
0.743970 0.037223 1.000629
1.007095 0.055466 0.885859
0.033219 0.365198 0.844890
0.076050 0.375326 0.900924
0.227395 0.357717 0.926069
0.336730 0.248194 0.943916
0.709901 0.236350 1.000966
1.007172 0.259012 0.887538
0.059761 0.626404 0.869720
0.106436 0.639631 0.909040
0.257427 0.642163 0.932076
0.476907 0.642498 0.965370
0.676611 0.539391 0.973832
1.008826 0.561520 0.899927
0.066178 0.882830 0.842322
0.108927 0.899914 0.880544
0.258111 0.893254 0.903640
0.477747 0.885391 0.926737
0.724614 0.864755 0.922960
1.014596 0.808489 0.905990
0.062189 0.979859 0.660851
0.107268 1.007145 0.741508
0.259918 1.025181 0.781480
0.474529 1.047478 0.819724
0.708394 1.052236 0.863651
1.000020 1.028870 0.867297
-0.020903 -0.425739 1.059718
-0.020109 -0.438522 0.770731
0.092173 -0.447358 0.897305
0.365622 -0.456772 1.028310
0.699352 -0.456436 1.047649
0.952236 -0.449144 1.019154
0.016927 0.145398 0.877758
0.066191 0.145577 1.040160
0.089151 -0.047483 1.058701
0.345954 0.045715 1.096668
0.700176 0.053189 1.095352
1.012230 0.052559 1.060099
0.032820 0.359775 0.970687
0.075168 0.372432 1.036435
0.227064 0.360472 1.063642
0.319152 0.242720 1.087765
0.672394 0.256524 1.095353
1.012325 0.255428 1.057477
0.059755 0.619538 1.002345
0.105151 0.634395 1.047502
0.255841 0.639810 1.072015
0.478182 0.644739 1.094790
0.657623 0.543276 1.095973
1.012368 0.557960 1.055206
0.068254 0.880845 0.993184
0.110340 0.889305 1.024342
0.258762 0.878035 1.039793
0.477822 0.874096 1.060486
0.723675 0.869577 1.058940
1.016425 0.805681 1.049987
0.060385 0.918765 0.839410
0.101272 0.945666 0.881904
0.248063 0.963033 0.927999
0.464808 0.984715 0.978765
0.711506 0.983501 1.007818
0.979325 0.963863 1.013336
