public/kits/editing-mini-guide/luts/cinematic-v1-log-21.cube
LUT_3D_SIZE 6
0.002069 0.000405 0.000349
0.171534 0.003632 0.011289
0.558286 0.015511 0.060378
0.735543 0.023300 0.124075
0.754094 0.023928 0.148844
0.770462 0.024709 0.157607
0.043276 0.119201 0.004093
0.151210 0.120847 0.004938
0.560302 0.030127 0.056059
0.742694 0.029279 0.125185
0.760658 0.029990 0.150702
0.777014 0.030711 0.159911
0.234303 0.389176 0.015869
0.246676 0.388716 0.016096
0.562196 0.438291 0.021711
0.935496 0.484335 0.086770
0.930994 0.423114 0.156663
0.935043 0.394241 0.178164
0.411796 0.641717 0.131488
0.424698 0.642393 0.131625
0.434431 0.636379 0.130145
0.796894 0.716443 0.041954
0.984150 0.803649 0.026744
0.996277 0.811218 0.032053
0.449396 0.726362 0.141422
0.463786 0.728097 0.141804
0.477978 0.729832 0.141591
0.568915 0.745502 0.137434
0.914164 0.869286 0.036214
0.984378 0.915103 0.049761
0.458263 0.745873 0.141098
0.472646 0.747682 0.141467
0.486839 0.749405 0.140729
0.509673 0.752340 0.139465
0.867696 0.851318 0.043135
0.973215 0.922587 0.165096
0.029953 0.023917 0.063988
0.176716 0.022500 0.078551
0.559419 0.015276 0.094182
0.733252 0.023035 0.148038
0.752083 0.023749 0.169812
0.769152 0.024751 0.177795
0.045325 0.124740 0.075846
0.148132 0.128847 0.086139
0.585766 0.095967 0.100741
0.745694 0.033790 0.149836
0.759796 0.031392 0.170663
0.777712 0.032442 0.179768
0.225622 0.386834 0.018626
0.238429 0.386018 0.018785
0.564323 0.438318 0.025551
0.920700 0.448535 0.157004
0.931470 0.435600 0.213445
0.944431 0.428739 0.227644
0.407069 0.641645 0.144125
0.420467 0.641608 0.144880
0.430652 0.635749 0.143109
0.801032 0.717081 0.046662
0.993073 0.805952 0.034906
1.000010 0.807496 0.056736
0.446762 0.728053 0.156029
0.462167 0.730073 0.157537
0.476626 0.731980 0.157445
0.593740 0.751163 0.152612
0.921179 0.875196 0.037626
0.987875 0.917843 0.053700
0.456024 0.747598 0.156146
0.471452 0.749788 0.157929
0.485633 0.751662 0.157398
0.510728 0.754880 0.156133
0.874618 0.856546 0.053351
0.979333 0.927213 0.212471
0.101521 0.073562 0.216576
0.167983 0.091659 0.256855
0.576982 0.059061 0.231604
0.743341 0.058249 0.262097
0.764355 0.059442 0.271994
0.782982 0.058073 0.277192
0.101486 0.084511 0.216461
0.145509 0.098378 0.244802
0.561123 0.067166 0.229362
0.747852 0.065324 0.261011
0.770141 0.068754 0.274070
0.788224 0.068440 0.279854
0.163156 0.418792 0.309632
0.169455 0.418839 0.311327
0.523983 0.534007 0.464612
0.889782 0.475974 0.377782
0.901127 0.468335 0.388439
0.916124 0.476422 0.399143
0.309359 0.626492 0.245596
0.319426 0.629666 0.254483
0.314230 0.633279 0.286601
0.816087 0.735826 0.323792
0.998101 0.809562 0.356339
1.000002 0.798123 0.383124
0.445391 0.729914 0.170144
0.460152 0.732427 0.173932
0.470968 0.736374 0.189095
0.581067 0.764972 0.258802
0.927918 0.883827 0.252129
0.997744 0.932178 0.293093
0.454871 0.749863 0.170477
0.470329 0.751968 0.171812
0.482847 0.756029 0.184815
0.496783 0.765990 0.233414
0.875904 0.859926 0.270029
0.992525 0.945446 0.382087
0.148533 0.120931 0.341686
0.196036 0.145437 0.374205
0.635135 0.156404 0.412624
0.790442 0.158167 0.423491
0.807687 0.164287 0.433506
0.822133 0.166330 0.437930
0.148721 0.132025 0.342603
0.182476 0.149431 0.364509
0.630542 0.173133 0.423327
0.791127 0.169720 0.425495
0.807963 0.173490 0.432481
0.821111 0.172863 0.433859
0.188827 0.361353 0.430937
0.195067 0.363883 0.434432
0.425454 0.483944 0.606907
0.834550 0.368923 0.507471
0.848463 0.370217 0.509947
0.863361 0.383260 0.517928
0.343089 0.695069 0.564480
0.350021 0.695250 0.565885
0.353825 0.690646 0.568050
0.811439 0.758489 0.626277
0.965363 0.771883 0.638587
0.978486 0.774872 0.644393
0.418198 0.807392 0.535408
0.429609 0.809595 0.538172
0.441076 0.811882 0.542869
0.547418 0.830644 0.561764
0.960471 0.915204 0.604396
1.000006 0.945205 0.692119
0.425788 0.819684 0.509746
0.438072 0.821732 0.512303
0.452166 0.825190 0.518939
0.472241 0.831125 0.533806
0.911151 0.911975 0.583659
0.998974 0.961560 0.652276
0.173477 0.152618 0.409535
0.216086 0.177423 0.440562
0.626938 0.273174 0.584002
0.811572 0.224439 0.514083
0.825694 0.226542 0.517001
0.837942 0.228377 0.519703
0.174638 0.164153 0.412175
0.205244 0.181639 0.432739
0.622187 0.290369 0.594888
0.812662 0.237068 0.518010
0.826876 0.238843 0.520492
0.838891 0.240458 0.523048
0.195284 0.308334 0.459596
0.201393 0.311891 0.464189
0.384887 0.409864 0.620280
0.822276 0.308899 0.548812
0.829643 0.261148 0.528619
0.843697 0.276800 0.537620
0.351202 0.672350 0.624837
0.358372 0.672930 0.626999
0.364365 0.670809 0.630496
0.785039 0.754888 0.727630
0.924063 0.737696 0.726355
0.937398 0.740858 0.726582
0.446091 0.819707 0.665991
0.454612 0.820513 0.667997
0.462502 0.820525 0.671469
0.516644 0.828177 0.687169
0.945422 0.898280 0.756976
0.998530 0.913240 0.776424
0.466089 0.850111 0.670734
0.476167 0.852453 0.674023
0.484419 0.854468 0.678019
0.494607 0.857337 0.686214
0.915990 0.937067 0.751558
0.999198 0.966317 0.817120
0.181082 0.162170 0.429413
0.220366 0.185316 0.458279
0.608858 0.298364 0.621177
0.816057 0.243982 0.539681
0.829439 0.240874 0.537830
0.842504 0.241176 0.539593
0.182220 0.173676 0.432219
0.212338 0.192029 0.454102
0.608221 0.313396 0.628543
0.817567 0.258869 0.545494
0.830767 0.255732 0.543573
0.843553 0.253865 0.543173
0.195377 0.265961 0.464107
0.201529 0.274620 0.470060
0.386213 0.386961 0.629164
0.821452 0.297518 0.562331
0.833726 0.277878 0.552621
0.846486 0.276852 0.552982
0.356316 0.660679 0.647954
0.363708 0.662150 0.650586
0.371226 0.663143 0.655281
0.774975 0.751972 0.750726
0.920753 0.734813 0.743426
0.934916 0.730318 0.742320
0.446928 0.813786 0.691004
0.455190 0.814690 0.692854
0.463567 0.815603 0.696611
0.516654 0.824076 0.714058
0.942335 0.897072 0.792974
0.982234 0.893042 0.792518
0.470803 0.852074 0.703496
0.481496 0.855045 0.706645
0.492042 0.857706 0.711187
0.502539 0.860320 0.718850
0.917110 0.946418 0.800680
0.996182 0.954864 0.822712
