public/kits/editing-mini-guide/luts/cinematic-v1-log-21.cube
LUT_3D_SIZE 16
0.002069 0.000405 0.000349
0.015617 0.001202 0.001593
0.074429 0.002492 0.007313
0.171534 0.003632 0.011289
0.293814 0.006368 0.016054
0.432039 0.010744 0.031730
0.558286 0.015511 0.060378
0.668471 0.020097 0.086948
0.729816 0.022958 0.110041
0.735543 0.023300 0.124075
0.741796 0.023369 0.134916
0.747929 0.023629 0.142986
0.754094 0.023928 0.148844
0.759627 0.024195 0.152981
0.765223 0.024461 0.155812
0.770462 0.024709 0.157607
0.004461 0.010552 0.000688
0.014816 0.010775 0.001056
0.072490 0.007584 0.006646
0.169096 0.005714 0.010506
0.290558 0.008345 0.015200
0.429658 0.012680 0.030750
0.556629 0.017445 0.059922
0.667779 0.021964 0.087093
0.732199 0.024960 0.110393
0.737680 0.025339 0.125031
0.743881 0.025489 0.135779
0.750119 0.025609 0.144091
0.756139 0.025898 0.150011
0.761723 0.026215 0.154168
0.767253 0.026475 0.156972
0.772657 0.026707 0.158818
0.016289 0.051416 0.002671
0.021907 0.051434 0.002743
0.064308 0.051163 0.003851
0.176708 0.035430 0.008173
0.291529 0.013416 0.013623
0.426715 0.014569 0.028980
0.554435 0.019368 0.058782
0.666434 0.023809 0.086659
0.734798 0.027004 0.110570
0.740081 0.027305 0.125779
0.746040 0.027549 0.136499
0.752240 0.027699 0.144815
0.758429 0.027863 0.150917
0.763912 0.028178 0.155118
0.769386 0.028488 0.157956
0.774706 0.028709 0.159786
0.043276 0.119201 0.004093
0.048697 0.118526 0.004117
0.054048 0.117820 0.004152
0.151210 0.120847 0.004938
0.332841 0.118659 0.008839
0.461565 0.076833 0.023987
0.560302 0.030127 0.056059
0.665655 0.027217 0.084761
0.737165 0.029043 0.109264
0.742694 0.029279 0.125185
0.748304 0.029553 0.136104
0.754548 0.029788 0.144478
0.760658 0.029990 0.150702
0.766180 0.030201 0.155078
0.771758 0.030470 0.158048
0.777014 0.030711 0.159911
0.084240 0.200583 0.006416
0.088527 0.200629 0.006469
0.092764 0.200665 0.006537
0.096474 0.199708 0.006571
0.282428 0.211299 0.007575
0.501888 0.242420 0.014535
0.630490 0.216403 0.050762
0.719264 0.175616 0.085579
0.777088 0.121966 0.110858
0.758993 0.048467 0.124677
0.759244 0.038014 0.135839
0.762213 0.035409 0.143914
0.765234 0.033087 0.149290
0.770080 0.032432 0.153787
0.775521 0.032658 0.156936
0.780816 0.032855 0.158990
0.148919 0.295514 0.010427
0.153418 0.295448 0.010468
0.157900 0.295361 0.010509
0.161926 0.294724 0.010526
0.163866 0.290911 0.010429
0.435044 0.325698 0.013342
0.625837 0.379001 0.016419
0.763949 0.371643 0.047952
0.852670 0.341811 0.095640
0.861866 0.300963 0.128270
0.851424 0.265283 0.149969
0.842557 0.232685 0.160898
0.835468 0.200794 0.166326
0.833332 0.181791 0.170947
0.834650 0.171888 0.174245
0.835117 0.159548 0.175757
0.234303 0.389176 0.015869
0.238516 0.389134 0.015956
0.242776 0.389074 0.016048
0.246676 0.388716 0.016096
0.248583 0.385848 0.015997
0.308001 0.388339 0.017077
0.562196 0.438291 0.021711
0.721668 0.496865 0.019435
0.873086 0.510573 0.031763
0.935496 0.484335 0.086770
0.933108 0.458324 0.120238
0.931609 0.438797 0.141050
0.930994 0.423114 0.156663
0.931860 0.412536 0.167696
0.934103 0.404216 0.174187
0.935043 0.394241 0.178164
0.314265 0.480939 0.045861
0.318373 0.480960 0.046128
0.322567 0.481105 0.046436
0.326634 0.480931 0.046578
0.329036 0.478679 0.045301
0.329841 0.474461 0.042636
0.442928 0.488875 0.054273
0.656026 0.539536 0.031171
0.807466 0.603871 0.022511
0.957265 0.629276 0.029005
0.981979 0.619351 0.042298
0.986205 0.603491 0.076989
0.988979 0.589851 0.103025
0.988921 0.580424 0.119205
0.989925 0.573198 0.129168
0.992478 0.564146 0.135612
0.374138 0.567162 0.101920
0.378095 0.567243 0.102098
0.382018 0.567359 0.102267
0.385935 0.567359 0.102379
0.388887 0.565641 0.101389
0.391042 0.562622 0.099596
0.395045 0.558853 0.097522
0.556056 0.580256 0.092992
0.731516 0.631238 0.038438
0.888831 0.703991 0.024741
0.976188 0.726583 0.027154
0.987739 0.727017 0.032053
0.994542 0.725524 0.035398
0.997253 0.724055 0.040205
0.999205 0.722300 0.044028
1.000057 0.717924 0.047238
0.411796 0.641717 0.131488
0.416143 0.641996 0.131534
0.420450 0.642219 0.131587
0.424698 0.642393 0.131625
0.428419 0.641242 0.131342
0.431627 0.639346 0.130884
0.434431 0.636379 0.130145
0.446438 0.634186 0.128985
0.649962 0.661540 0.106177
0.796894 0.716443 0.041954
0.932301 0.788613 0.027581
0.977104 0.803742 0.026677
0.984150 0.803649 0.026744
0.988996 0.808392 0.029004
0.993018 0.810921 0.030587
0.996277 0.811218 0.032053
0.435752 0.696457 0.140362
0.440333 0.696818 0.140449
0.444976 0.697185 0.140569
0.449638 0.697529 0.140660
0.453820 0.696967 0.140644
0.457747 0.695988 0.140561
0.461363 0.694245 0.140444
0.464584 0.691879 0.140083
0.508954 0.694744 0.136986
0.735132 0.732243 0.101957
0.848172 0.786397 0.037532
0.947316 0.845940 0.030920
0.974069 0.857796 0.030655
0.982868 0.860441 0.030624
0.988906 0.863245 0.030562
0.993779 0.864459 0.030341
0.446356 0.719615 0.141327
0.451138 0.720240 0.141460
0.455957 0.720987 0.141599
0.460656 0.721662 0.141731
0.465444 0.722124 0.141698
0.470240 0.722670 0.141633
0.474895 0.723222 0.141650
0.479510 0.723433 0.141432
0.483788 0.722936 0.141136
0.659520 0.753112 0.129719
0.800599 0.787963 0.082633
0.885594 0.839198 0.036555
0.952396 0.882709 0.034670
0.969455 0.891731 0.035807
0.979164 0.895633 0.035964
0.988314 0.898080 0.035650
0.449396 0.726362 0.141422
0.454179 0.726987 0.141572
0.459033 0.727576 0.141697
0.463786 0.728097 0.141804
0.468559 0.728793 0.141735
0.473237 0.729441 0.141671
0.477978 0.729832 0.141591
0.482688 0.730464 0.141350
0.487472 0.730977 0.141061
0.568915 0.745502 0.137434
0.769151 0.788350 0.112942
0.851424 0.824924 0.045618
0.914164 0.869286 0.036214
0.960994 0.900868 0.049035
0.974477 0.909248 0.050559
0.984378 0.915103 0.049761
0.452393 0.733103 0.141318
0.457299 0.733744 0.141444
0.462015 0.734352 0.141578
0.466887 0.734770 0.141699
0.471553 0.735400 0.141495
0.476322 0.735965 0.141347
0.480957 0.736587 0.141286
0.485899 0.737093 0.141057
0.490573 0.737613 0.140765
0.531214 0.744369 0.138966
0.745250 0.789624 0.123272
0.833411 0.819796 0.059784
0.892535 0.858756 0.037983
0.938953 0.891408 0.037159
0.971335 0.912172 0.095391
0.982493 0.919008 0.093784
0.455446 0.739620 0.141200
0.460215 0.740253 0.141338
0.465071 0.740873 0.141462
0.469823 0.741488 0.141582
0.474603 0.741983 0.141380
0.479252 0.742623 0.141113
0.484011 0.743186 0.140980
0.488778 0.743650 0.140750
0.493684 0.744249 0.140450
0.519604 0.748280 0.139293
0.723146 0.791337 0.129361
0.819710 0.818535 0.082906
0.878557 0.853761 0.039650
0.922193 0.884865 0.037584
0.958530 0.909040 0.090317
0.979992 0.922196 0.140690
0.458263 0.745873 0.141098
0.463098 0.746558 0.141236
0.467829 0.747183 0.141349
0.472646 0.747682 0.141467
0.477289 0.748215 0.141284
0.482073 0.748815 0.141019
0.486839 0.749405 0.140729
0.491563 0.749904 0.140468
0.496411 0.750465 0.140168
0.509673 0.752340 0.139465
0.695792 0.791075 0.134101
0.806409 0.819146 0.101494
0.867696 0.851318 0.043135
0.910959 0.881706 0.038292
0.945879 0.905521 0.050299
0.973215 0.922587 0.165096
0.004118 0.001346 0.004666
0.017488 0.002601 0.006586
0.074115 0.003761 0.011758
0.171524 0.003886 0.015984
0.293753 0.006538 0.020282
0.431689 0.010825 0.037502
0.558277 0.015470 0.065510
0.667794 0.020039 0.092302
0.729379 0.023031 0.115122
0.735225 0.023184 0.129138
0.741244 0.023340 0.139792
0.747513 0.023658 0.147733
0.753662 0.023958 0.153606
0.759142 0.024254 0.157684
0.764727 0.024532 0.160457
0.770108 0.024775 0.162250
0.005734 0.011625 0.005581
0.016180 0.012369 0.006400
0.072071 0.009652 0.011395
0.167723 0.006134 0.015033
0.287799 0.008576 0.019080
0.425631 0.012744 0.035677
0.552338 0.017376 0.064096
0.663025 0.021936 0.091163
0.731932 0.025170 0.114716
0.737495 0.025466 0.129446
0.743819 0.025598 0.140205
0.750044 0.025813 0.148359
0.756078 0.026137 0.154260
0.761512 0.026481 0.158374
0.767066 0.026750 0.161100
0.772394 0.026989 0.162854
0.015060 0.051825 0.004859
0.021455 0.051776 0.005011
0.064458 0.051689 0.006073
0.179085 0.040297 0.012345
0.291685 0.014587 0.016685
0.424682 0.014623 0.033744
0.552581 0.019301 0.063111
0.664382 0.023800 0.090634
0.734330 0.027086 0.114385
0.739674 0.027333 0.129438
0.745833 0.027545 0.140123
0.751997 0.027705 0.148365
0.758160 0.027951 0.154355
0.763508 0.028295 0.158371
0.769144 0.028610 0.160830
0.774396 0.028840 0.162477
0.040743 0.119047 0.004998
0.047070 0.118377 0.004982
0.052346 0.117759 0.005023
0.151602 0.120169 0.005393
0.332020 0.111546 0.010411
0.464412 0.082717 0.032170
0.573273 0.061616 0.064697
0.666814 0.031408 0.090444
0.737430 0.030234 0.113525
0.742395 0.029295 0.128471
0.748050 0.029546 0.139147
0.754345 0.029756 0.147359
0.760529 0.029972 0.153476
0.766065 0.030215 0.157704
0.771519 0.030520 0.160444
0.776724 0.030788 0.162193
0.081276 0.200620 0.006645
0.086286 0.200430 0.006710
0.090394 0.200460 0.006785
0.094036 0.199446 0.006827
0.283455 0.210669 0.007794
0.502068 0.228969 0.017166
0.622934 0.194082 0.060961
0.718950 0.179847 0.094470
0.787942 0.154345 0.119011
0.785625 0.119352 0.137295
0.774105 0.077143 0.144428
0.766427 0.040338 0.148625
0.768995 0.036423 0.154092
0.774293 0.035738 0.158884
0.779444 0.035202 0.162086
0.783889 0.034672 0.163752
0.146227 0.295391 0.010645
0.151003 0.295020 0.010698
0.155328 0.294911 0.010736
0.159167 0.294204 0.010745
0.160764 0.290286 0.010637
0.436110 0.324762 0.013614
0.628224 0.369229 0.017921
0.758198 0.340602 0.068284
0.839547 0.303300 0.109300
0.851800 0.279325 0.141332
0.852077 0.269429 0.159800
0.853004 0.260806 0.171051
0.854288 0.251980 0.178711
0.856702 0.247232 0.184939
0.859998 0.243115 0.189048
0.862392 0.237220 0.191495
0.231866 0.388871 0.017210
0.236020 0.388291 0.017403
0.240079 0.388242 0.017443
0.243847 0.387814 0.017405
0.245762 0.384907 0.017084
0.311485 0.388228 0.019354
0.563783 0.437137 0.022512
0.726805 0.490703 0.020650
0.872214 0.485258 0.047640
0.918599 0.440385 0.110806
0.912293 0.408146 0.142369
0.908929 0.388051 0.165372
0.908716 0.375751 0.178544
0.911043 0.369615 0.186608
0.915105 0.366391 0.190966
0.918306 0.362458 0.193867
0.311950 0.480396 0.049902
0.315886 0.479823 0.050140
0.319896 0.479815 0.050401
0.323810 0.479678 0.050450
0.326409 0.477400 0.049114
0.327305 0.473208 0.046249
0.448453 0.489034 0.059215
0.658060 0.538521 0.031880
0.812567 0.598186 0.023012
0.960656 0.611314 0.031043
0.974745 0.582334 0.077709
0.976327 0.557087 0.113344
0.976615 0.538333 0.135311
0.976861 0.526405 0.148781
0.981308 0.517918 0.157678
0.985230 0.508421 0.163663
0.372303 0.566924 0.105510
0.376221 0.566428 0.105719
0.379990 0.566500 0.105869
0.383770 0.566412 0.105908
0.386896 0.564748 0.104992
0.389043 0.561636 0.103192
0.393506 0.557854 0.101112
0.560681 0.580222 0.096231
0.734323 0.630799 0.038947
0.895114 0.698612 0.024762
0.979512 0.714783 0.029120
0.991055 0.710425 0.034434
0.996344 0.702833 0.040073
0.997746 0.694941 0.058670
0.998507 0.687598 0.075868
0.999192 0.678037 0.090395
0.410226 0.641975 0.135860
0.414711 0.641627 0.136226
0.418929 0.641783 0.136272
0.423066 0.641799 0.136290
0.426915 0.640725 0.135996
0.430216 0.638778 0.135491
0.432906 0.635756 0.134624
0.446697 0.633852 0.133460
0.657405 0.662170 0.109337
0.801019 0.716836 0.042197
0.938145 0.785439 0.027572
0.978165 0.795698 0.026638
0.986597 0.797038 0.028605
0.991354 0.798835 0.030890
0.995052 0.799788 0.032500
0.999143 0.799467 0.035481
0.434543 0.696772 0.144983
0.439440 0.696531 0.145471
0.443793 0.696914 0.145567
0.448344 0.697237 0.145644
0.452725 0.696603 0.145625
0.456754 0.695626 0.145540
0.460228 0.693955 0.145410
0.463650 0.691568 0.145134
0.521314 0.696203 0.141244
0.740487 0.732723 0.105312
0.853074 0.787650 0.037622
0.952421 0.844558 0.030902
0.977286 0.853763 0.030548
0.983878 0.855433 0.030473
0.989667 0.857457 0.030349
0.993804 0.858031 0.030116
0.445428 0.720136 0.146181
0.450741 0.720939 0.146906
0.455279 0.721634 0.147058
0.459958 0.722227 0.147174
0.464848 0.722715 0.147181
0.469754 0.723488 0.147125
0.474387 0.724060 0.147144
0.478984 0.724001 0.146971
0.485899 0.723512 0.146560
0.672218 0.755563 0.134279
0.805790 0.789626 0.085430
0.891389 0.841198 0.036594
0.957946 0.882630 0.034872
0.972042 0.888984 0.035433
0.981416 0.892209 0.035256
0.990948 0.894453 0.034996
0.448531 0.726907 0.146298
0.453800 0.727630 0.147092
0.458299 0.728179 0.147208
0.463067 0.728811 0.147342
0.467999 0.729424 0.147288
0.472774 0.730071 0.147253
0.477489 0.730647 0.147180
0.482356 0.731263 0.146963
0.487084 0.731762 0.146694
0.592932 0.750065 0.141886
0.774952 0.790135 0.117656
0.857714 0.829214 0.046737
0.920397 0.873853 0.036618
0.963208 0.902410 0.051468
0.975705 0.910166 0.052815
0.985626 0.915654 0.051579
0.451579 0.733491 0.146330
0.457052 0.734297 0.147179
0.461474 0.734951 0.147303
0.466184 0.735615 0.147432
0.471029 0.736266 0.147286
0.475924 0.736880 0.147166
0.480490 0.737320 0.147080
0.485422 0.737983 0.146870
0.490207 0.738522 0.146599
0.534292 0.745619 0.144758
0.752420 0.791607 0.128313
0.838937 0.822840 0.066271
0.899692 0.864178 0.038263
0.945506 0.896095 0.039142
0.972865 0.913439 0.103231
0.982678 0.919652 0.101223
0.454618 0.740203 0.146226
0.459988 0.741009 0.147086
0.464500 0.741682 0.147211
0.469264 0.742222 0.147322
0.474088 0.742783 0.147180
0.478817 0.743406 0.146940
0.483543 0.744004 0.146798
0.488466 0.744561 0.146576
0.493320 0.745163 0.146292
0.521503 0.749459 0.145167
0.731624 0.793614 0.134633
0.825360 0.821119 0.086771
0.885766 0.858920 0.039918
0.930314 0.890766 0.038219
0.965724 0.913643 0.128908
0.980663 0.922788 0.149145
0.457508 0.746483 0.146087
0.462903 0.747337 0.146963
0.467283 0.747848 0.147109
0.471987 0.748515 0.147213
0.476819 0.749174 0.147081
0.481659 0.749596 0.146844
0.486382 0.750049 0.146547
0.491190 0.750695 0.146300
0.496064 0.751215 0.146013
0.510370 0.753318 0.145259
0.706555 0.794155 0.139347
0.812051 0.821184 0.106142
0.874459 0.856143 0.044370
0.919698 0.888353 0.038890
0.954007 0.911029 0.085719
0.978355 0.926249 0.196594
0.010993 0.008290 0.023237
0.021557 0.011408 0.028701
0.077443 0.012661 0.034539
0.172398 0.005681 0.033672
0.294305 0.006865 0.031947
0.431437 0.010819 0.047680
0.558764 0.015417 0.073028
0.667035 0.019927 0.099597
0.728800 0.022978 0.121841
0.734626 0.023069 0.135535
0.740653 0.023360 0.145665
0.746714 0.023654 0.153499
0.753020 0.023907 0.159308
0.758536 0.024237 0.163319
0.764159 0.024577 0.166044
0.769575 0.024850 0.167744
0.012522 0.014098 0.024660
0.021040 0.016119 0.027658
0.074515 0.016871 0.033418
0.165322 0.008469 0.031705
0.283220 0.008656 0.027920
0.416710 0.012474 0.041405
0.541070 0.016781 0.067202
0.649890 0.021285 0.093587
0.726804 0.024980 0.117138
0.737382 0.025414 0.132052
0.743442 0.025552 0.142611
0.749676 0.025822 0.150522
0.755693 0.026161 0.156382
0.761277 0.026506 0.160514
0.766784 0.026779 0.163250
0.772143 0.027021 0.165046
0.019710 0.054671 0.028517
0.024680 0.054719 0.028804
0.066341 0.054841 0.031832
0.178771 0.045588 0.031853
0.293415 0.017258 0.026522
0.426426 0.017661 0.042770
0.550835 0.019186 0.070249
0.661927 0.023875 0.097638
0.732669 0.027153 0.121215
0.739121 0.027415 0.136162
0.745343 0.027578 0.146766
0.751590 0.027871 0.154767
0.757536 0.028255 0.160593
0.762997 0.028608 0.164684
0.768675 0.028910 0.167041
0.774119 0.029167 0.168598
0.034942 0.118626 0.009471
0.040827 0.118148 0.009540
0.045824 0.117821 0.010459
0.150993 0.122521 0.014418
0.335155 0.118249 0.026587
0.472884 0.098946 0.048430
0.580093 0.074420 0.076349
0.671401 0.038505 0.099969
0.742808 0.035399 0.122538
0.744967 0.031913 0.136155
0.750170 0.031661 0.146575
0.755705 0.031218 0.154436
0.760223 0.030197 0.159556
0.765591 0.030394 0.163580
0.771167 0.030715 0.165891
0.776431 0.031001 0.167399
0.078184 0.200323 0.006875
0.083399 0.200206 0.006937
0.088132 0.200156 0.007025
0.091704 0.199081 0.007062
0.282473 0.210662 0.008124
0.504144 0.228967 0.032347
0.626108 0.206356 0.075308
0.724615 0.199672 0.106175
0.792484 0.170500 0.130331
0.788196 0.128770 0.146982
0.777349 0.087232 0.153383
0.770410 0.047790 0.157059
0.772167 0.041381 0.162172
0.777571 0.040084 0.167036
0.783137 0.039959 0.170465
0.787942 0.039449 0.172259
0.143344 0.295009 0.010852
0.148301 0.294724 0.010901
0.153114 0.294691 0.010967
0.156818 0.293927 0.010971
0.158293 0.289978 0.010852
0.435751 0.324955 0.013929
0.631895 0.371403 0.024303
0.757688 0.340200 0.081803
0.842185 0.312467 0.121271
0.861599 0.304729 0.152783
0.862284 0.296499 0.171171
0.861723 0.283983 0.182676
0.860977 0.271439 0.190302
0.862222 0.264030 0.196260
0.864819 0.259173 0.200549
0.866998 0.252855 0.203008
0.229271 0.388380 0.018053
0.233672 0.387945 0.018207
0.238055 0.387905 0.018330
0.241646 0.387522 0.018263
0.243491 0.384546 0.017882
0.311103 0.388052 0.020957
0.563501 0.437286 0.023621
0.728520 0.492404 0.021924
0.871682 0.483544 0.063468
0.919148 0.441759 0.123529
0.913897 0.414470 0.157481
0.912987 0.400421 0.178846
0.915786 0.394719 0.190815
0.920248 0.393275 0.198255
0.925321 0.392383 0.202638
0.929288 0.389636 0.205040
0.309400 0.479677 0.053467
0.313547 0.479237 0.053489
0.317797 0.479391 0.054025
0.321531 0.479172 0.054014
0.324123 0.476902 0.052689
0.325383 0.472732 0.050224
0.447541 0.488783 0.063721
0.657896 0.538547 0.033460
0.813798 0.599807 0.024034
0.961497 0.611217 0.040941
0.974494 0.580753 0.094063
0.976004 0.556946 0.128089
0.976813 0.540003 0.150323
0.977261 0.529259 0.166342
0.981019 0.521875 0.175518
0.985418 0.513203 0.181603
0.370323 0.566504 0.108978
0.374403 0.566101 0.109031
0.378551 0.566300 0.109617
0.382200 0.566137 0.109623
0.385273 0.564415 0.108700
0.387666 0.561398 0.106971
0.392881 0.557771 0.105002
0.560432 0.580266 0.100808
0.734247 0.630963 0.040747
0.896267 0.700275 0.025619
0.982283 0.717606 0.030965
0.993026 0.712192 0.036157
0.996446 0.702440 0.054916
0.996655 0.693520 0.078946
0.997501 0.686544 0.094985
0.998485 0.677392 0.108652
0.408782 0.642002 0.140106
0.413425 0.641646 0.140208
0.417881 0.642007 0.140749
0.421903 0.642037 0.140746
0.425731 0.640873 0.140427
0.429146 0.639017 0.139907
0.431920 0.636037 0.139031
0.446458 0.634344 0.137894
0.657211 0.662194 0.114388
0.801071 0.717164 0.044444
0.938572 0.786400 0.028011
0.979312 0.797821 0.027421
0.988132 0.799450 0.029862
0.992934 0.801479 0.032377
0.995977 0.802552 0.036609
0.999565 0.802247 0.041124
0.433449 0.696946 0.149598
0.438321 0.696800 0.149808
0.443191 0.697251 0.150368
0.447579 0.697640 0.150445
0.451874 0.696936 0.150411
0.456074 0.696060 0.150336
0.459677 0.694393 0.150236
0.462985 0.692025 0.149884
0.521235 0.696611 0.146024
0.740298 0.732572 0.111804
0.853233 0.787845 0.040072
0.952919 0.845457 0.031342
0.977801 0.854730 0.030935
0.984833 0.856606 0.030883
0.990248 0.858580 0.030868
0.994567 0.859220 0.030656
0.444496 0.720582 0.151044
0.449888 0.721539 0.151473
0.454899 0.722200 0.152179
0.459431 0.722768 0.152302
0.464267 0.723505 0.152302
0.469292 0.724039 0.152288
0.473994 0.724658 0.152330
0.478535 0.724619 0.152123
0.485388 0.724145 0.151739
0.671973 0.756031 0.139943
0.805440 0.789397 0.093905
0.891741 0.841644 0.037182
0.958585 0.883617 0.035342
0.972813 0.890163 0.035927
0.982338 0.893242 0.035758
0.991607 0.895554 0.035494
0.447649 0.727561 0.151164
0.453064 0.728106 0.151612
0.457930 0.728945 0.152385
0.462481 0.729389 0.152488
0.467347 0.730070 0.152457
0.472333 0.730772 0.152412
0.477113 0.731400 0.152386
0.481937 0.731785 0.152148
0.486801 0.732413 0.151926
0.593073 0.750608 0.147354
0.774871 0.790140 0.124610
0.857570 0.829431 0.051188
0.920849 0.874744 0.037127
0.964180 0.903413 0.051978
0.977035 0.911344 0.053611
0.986680 0.916702 0.052377
0.450803 0.734086 0.151232
0.456264 0.734746 0.151743
0.461178 0.735637 0.152527
0.465681 0.736231 0.152620
0.470550 0.736847 0.152487
0.475374 0.737417 0.152382
0.480140 0.738066 0.152341
0.485043 0.738634 0.152131
0.489914 0.739296 0.151880
0.535256 0.746533 0.150234
0.752082 0.791640 0.134723
0.838813 0.822824 0.072674
0.900380 0.864963 0.038891
0.946049 0.897058 0.039538
0.973764 0.914534 0.105220
0.983790 0.920565 0.103083
0.453848 0.740777 0.151269
0.459309 0.741534 0.151792
0.464395 0.742247 0.152635
0.468811 0.742820 0.152730
0.473638 0.743420 0.152590
0.478449 0.744242 0.152378
0.483205 0.744649 0.152293
0.488128 0.745249 0.152050
0.492982 0.745849 0.151807
0.522064 0.750214 0.150734
0.731528 0.794116 0.140836
0.824562 0.820414 0.098703
0.886130 0.859572 0.041328
0.930954 0.891695 0.038743
0.966067 0.914200 0.131708
0.981023 0.923532 0.156290
0.456780 0.747059 0.151097
0.462108 0.747685 0.151644
0.467216 0.748548 0.152559
0.471695 0.749174 0.152653
0.476373 0.749793 0.152509
0.481270 0.750432 0.152285
0.485990 0.751090 0.152051
0.490746 0.751585 0.151796
0.495724 0.752168 0.151538
0.510424 0.754124 0.150764
0.706125 0.794471 0.145365
0.811461 0.821115 0.115222
0.874528 0.856506 0.048945
0.920333 0.889007 0.039468
0.954532 0.911833 0.084836
0.978845 0.926681 0.204706
0.029953 0.023917 0.063988
0.035405 0.025346 0.066443
0.084528 0.031710 0.083734
0.176716 0.022500 0.078551
0.298865 0.007143 0.068755
0.433540 0.010927 0.075274
0.559419 0.015276 0.094182
0.665157 0.019929 0.117050
0.727500 0.022748 0.136608
0.733252 0.023035 0.148038
0.739306 0.023274 0.156978
0.745784 0.023487 0.164345
0.752083 0.023749 0.169812
0.758003 0.024062 0.173673
0.763605 0.024407 0.176268
0.769152 0.024751 0.177795
0.030350 0.028210 0.063509
0.035648 0.029547 0.065661
0.082848 0.035810 0.082258
0.171250 0.025998 0.077670
0.284585 0.008964 0.066765
0.415565 0.012514 0.070908
0.539621 0.016622 0.086052
0.646541 0.021128 0.105666
0.724837 0.024702 0.125203
0.736885 0.025276 0.138103
0.742823 0.025521 0.147656
0.749100 0.025855 0.155039
0.755232 0.026203 0.160517
0.760866 0.026482 0.164531
0.766464 0.026801 0.167138
0.771862 0.027080 0.168804
0.033993 0.044920 0.067576
0.038091 0.045741 0.069084
0.070938 0.050552 0.080284
0.169822 0.035316 0.078523
0.283080 0.011993 0.065641
0.414920 0.014512 0.067133
0.540391 0.018740 0.082384
0.648092 0.023187 0.105182
0.726852 0.026754 0.127185
0.738723 0.027306 0.141055
0.744935 0.027529 0.150823
0.751201 0.027921 0.158207
0.757032 0.028322 0.163689
0.762642 0.028633 0.167788
0.768449 0.028900 0.170643
0.773854 0.029211 0.172363
0.045325 0.124740 0.075846
0.047964 0.124264 0.075641
0.051042 0.124241 0.076408
0.148132 0.128847 0.086139
0.328486 0.118077 0.078918
0.471002 0.104485 0.081940
0.585766 0.095967 0.100741
0.678368 0.066249 0.120075
0.743627 0.039663 0.138006
0.745694 0.033790 0.149836
0.748314 0.031171 0.157984
0.753694 0.031005 0.165028
0.759796 0.031392 0.170663
0.765836 0.031690 0.175030
0.771928 0.032106 0.177878
0.777712 0.032442 0.179768
0.055758 0.199569 0.029560
0.059618 0.199408 0.030061
0.062628 0.199523 0.032101
0.066103 0.200238 0.041536
0.286250 0.222152 0.059986
0.503993 0.234201 0.091156
0.627879 0.222171 0.111149
0.724984 0.210903 0.133485
0.797729 0.193847 0.154090
0.803703 0.175684 0.169971
0.802511 0.161531 0.179194
0.803750 0.151554 0.186209
0.807172 0.146860 0.192296
0.813374 0.150116 0.198679
0.821256 0.158177 0.204282
0.828750 0.164627 0.208555
0.139245 0.293202 0.011084
0.144236 0.292916 0.011133
0.149140 0.292871 0.011197
0.149867 0.292160 0.012376
0.149646 0.288361 0.013289
0.436561 0.327803 0.025152
0.635774 0.370735 0.074811
0.756733 0.345591 0.121405
0.848690 0.339874 0.150922
0.870333 0.331373 0.178594
0.866426 0.313310 0.194882
0.863281 0.295559 0.204600
0.861297 0.281575 0.211384
0.862541 0.274652 0.217048
0.865714 0.271894 0.221453
0.868912 0.268683 0.224102
0.225622 0.386834 0.018626
0.230152 0.386522 0.018704
0.234526 0.386548 0.018780
0.238429 0.386018 0.018785
0.240162 0.383029 0.018455
0.309746 0.386840 0.022187
0.564323 0.438318 0.025551
0.735668 0.495838 0.039096
0.870749 0.478646 0.104789
0.920700 0.448535 0.157004
0.921710 0.438139 0.186575
0.926310 0.436495 0.203069
0.931470 0.435600 0.213445
0.936376 0.434530 0.220396
0.941270 0.432775 0.225050
0.944431 0.428739 0.227644
0.306222 0.478228 0.056426
0.310464 0.477849 0.056441
0.314806 0.477954 0.056814
0.318629 0.477558 0.056955
0.321137 0.475259 0.055654
0.322205 0.471157 0.053416
0.446260 0.487562 0.067253
0.657702 0.538407 0.035127
