public/kits/editing-mini-guide/luts/cinematic-v1-log-29.cube
LUT_3D_SIZE 16
-0.005238 -0.005238 -0.005238
-0.006753 -0.006753 -0.006753
0.013076 0.013076 0.013076
0.030422 0.030422 0.030422
0.046424 0.046424 0.046424
0.067179 0.067179 0.067179
0.087523 0.087523 0.087523
0.109784 0.109784 0.109784
0.133223 0.133223 0.133223
0.157534 0.157534 0.157534
0.182878 0.182878 0.182878
0.208423 0.208423 0.208423
0.231626 0.231626 0.231626
0.258458 0.258458 0.258458
0.281913 0.281913 0.281913
0.307452 0.307452 0.307452
-0.007101 -0.007101 -0.007101
0.015955 0.015955 0.015955
0.032661 0.032661 0.032661
0.050191 0.050191 0.050191
0.068200 0.068200 0.068200
0.088810 0.088810 0.088810
0.111072 0.111072 0.111072
0.134603 0.134603 0.134603
0.158970 0.158970 0.158970
0.184029 0.184029 0.184029
0.208454 0.208454 0.208454
0.232979 0.232979 0.232979
0.258764 0.258764 0.258764
0.283160 0.283160 0.283160
0.307170 0.307170 0.307170
0.331906 0.331906 0.331906
0.014359 0.014359 0.014359
0.030970 0.030970 0.030970
0.048343 0.048343 0.048343
0.066453 0.066453 0.066453
0.087997 0.087997 0.087997
0.109572 0.109572 0.109572
0.133751 0.133751 0.133751
0.158135 0.158135 0.158135
0.183054 0.183054 0.183054
0.208291 0.208291 0.208291
0.232161 0.232161 0.232161
0.260009 0.260009 0.260009
0.282438 0.282438 0.282438
0.306495 0.306495 0.306495
0.329405 0.329405 0.329405
0.353743 0.353743 0.353743
0.029185 0.029185 0.029185
0.047473 0.047473 0.047473
0.067324 0.067324 0.067324
0.087510 0.087510 0.087510
0.108774 0.108774 0.108774
0.132413 0.132413 0.132413
0.157413 0.157413 0.157413
0.182181 0.182181 0.182181
0.207344 0.207344 0.207344
0.232584 0.232584 0.232584
0.256181 0.256181 0.256181
0.281095 0.281095 0.281095
0.304428 0.304428 0.304428
0.327912 0.327912 0.327912
0.351438 0.351438 0.351438
0.375216 0.375216 0.375216
0.045437 0.045437 0.045437
0.065831 0.065831 0.065831
0.088288 0.088288 0.088288
0.108752 0.108752 0.108752
0.133096 0.133096 0.133096
0.155657 0.155657 0.155657
0.181443 0.181443 0.181443
0.206587 0.206587 0.206587
0.231728 0.231728 0.231728
0.256575 0.256575 0.256575
0.281593 0.281593 0.281593
0.304882 0.304882 0.304882
0.328740 0.328740 0.328740
0.350144 0.350144 0.350144
0.372779 0.372779 0.372779
0.396095 0.396095 0.396095
0.063622 0.063622 0.063622
0.085858 0.085858 0.085858
0.108149 0.108149 0.108149
0.131708 0.131708 0.131708
0.156253 0.156253 0.156253
0.180366 0.180366 0.180366
0.205791 0.205791 0.205791
0.230853 0.230853 0.230853
0.255702 0.255702 0.255702
0.280068 0.280068 0.280068
0.302681 0.302681 0.302681
0.326885 0.326885 0.326885
0.349602 0.349602 0.349602
0.372335 0.372335 0.372335
0.393837 0.393837 0.393837
0.416924 0.416924 0.416924
0.083325 0.083325 0.083325
0.107312 0.107312 0.107312
0.130987 0.130987 0.130987
0.154464 0.154464 0.154464
0.179448 0.179448 0.179448
0.204641 0.204641 0.204641
0.230045 0.230045 0.230045
0.254850 0.254850 0.254850
0.279206 0.279206 0.279206
0.303062 0.303062 0.303062
0.326097 0.326097 0.326097
0.349405 0.349405 0.349405
0.371775 0.371775 0.371775
0.392447 0.392447 0.392447
0.414648 0.414648 0.414648
0.437327 0.437327 0.437327
0.104632 0.104632 0.104632
0.129884 0.129884 0.129884
0.155281 0.155281 0.155281
0.179792 0.179792 0.179792
0.203891 0.203891 0.203891
0.228459 0.228459 0.228459
0.254224 0.254224 0.254224
0.278382 0.278382 0.278382
0.302270 0.302270 0.302270
0.325561 0.325561 0.325561
0.349138 0.349138 0.349138
0.369497 0.369497 0.369497
0.392929 0.392929 0.392929
0.414008 0.414008 0.414008
0.435121 0.435121 0.435121
0.457480 0.457480 0.457480
0.127074 0.127074 0.127074
0.153245 0.153245 0.153245
0.177543 0.177543 0.177543
0.202812 0.202812 0.202812
0.227585 0.227585 0.227585
0.251574 0.251574 0.251574
0.277741 0.277741 0.277741
0.301488 0.301488 0.301488
0.324870 0.324870 0.324870
0.347436 0.347436 0.347436
0.370230 0.370230 0.370230
0.391750 0.391750 0.391750
0.413353 0.413353 0.413353
0.433659 0.433659 0.433659
0.455179 0.455179 0.455179
0.477287 0.477287 0.477287
0.150413 0.150413 0.150413
0.177389 0.177389 0.177389
0.203747 0.203747 0.203747
0.226617 0.226617 0.226617
0.253828 0.253828 0.253828
0.278646 0.278646 0.278646
0.300679 0.300679 0.300679
0.324056 0.324056 0.324056
0.346725 0.346725 0.346725
0.368963 0.368963 0.368963
0.391810 0.391810 0.391810
0.411879 0.411879 0.411879
0.434591 0.434591 0.434591
0.454150 0.454150 0.454150
0.474967 0.474967 0.474967
0.497159 0.497159 0.497159
0.174382 0.174382 0.174382
0.201922 0.201922 0.201922
0.227344 0.227344 0.227344
0.252353 0.252353 0.252353
0.276054 0.276054 0.276054
0.300292 0.300292 0.300292
0.323298 0.323298 0.323298
0.346050 0.346050 0.346050
0.368472 0.368472 0.368472
0.390159 0.390159 0.390159
0.412573 0.412573 0.412573
0.431797 0.431797 0.431797
0.454229 0.454229 0.454229
0.475616 0.475616 0.475616
0.494865 0.494865 0.494865
0.516764 0.516764 0.516764
0.198858 0.198858 0.198858
0.226364 0.226364 0.226364
0.250168 0.250168 0.250168
0.273633 0.273633 0.273633
0.300017 0.300017 0.300017
0.322197 0.322197 0.322197
0.345433 0.345433 0.345433
0.367767 0.367767 0.367767
0.389421 0.389421 0.389421
0.411032 0.411032 0.411032
0.432467 0.432467 0.432467
0.453719 0.453719 0.453719
0.472324 0.472324 0.472324
0.495916 0.495916 0.495916
0.514515 0.514515 0.514515
0.536262 0.536262 0.536262
0.223137 0.223137 0.223137
0.250463 0.250463 0.250463
0.274219 0.274219 0.274219
0.297479 0.297479 0.297479
0.322478 0.322478 0.322478
0.344562 0.344562 0.344562
0.367018 0.367018 0.367018
0.388859 0.388859 0.388859
0.410302 0.410302 0.410302
0.431429 0.431429 0.431429
0.453424 0.453424 0.453424
0.473608 0.473608 0.473608
0.493047 0.493047 0.493047
0.513952 0.513952 0.513952
0.534035 0.534035 0.534035
0.555742 0.555742 0.555742
0.247463 0.247463 0.247463
0.274334 0.274334 0.274334
0.298014 0.298014 0.298014
0.322281 0.322281 0.322281
0.343908 0.343908 0.343908
0.367001 0.367001 0.367001
0.388016 0.388016 0.388016
0.409864 0.409864 0.409864
0.430885 0.430885 0.430885
0.451737 0.451737 0.451737
0.472779 0.472779 0.472779
0.492398 0.492398 0.492398
0.513520 0.513520 0.513520
0.533356 0.533356 0.533356
0.553562 0.553562 0.553562
0.575014 0.575014 0.575014
0.271390 0.271390 0.271390
0.297586 0.297586 0.297586
0.320694 0.320694 0.320694
0.343169 0.343169 0.343169
0.366172 0.366172 0.366172
0.385754 0.385754 0.385754
0.408995 0.408995 0.408995
0.430357 0.430357 0.430357
0.451152 0.451152 0.451152
0.471758 0.471758 0.471758
0.492853 0.492853 0.492853
0.512500 0.512500 0.512500
0.533263 0.533263 0.533263
0.552648 0.552648 0.552648
0.572974 0.572974 0.572974
0.594137 0.594137 0.594137
0.309525 0.309525 0.309525
0.335105 0.335105 0.335105
0.358404 0.358404 0.358404
0.379559 0.379559 0.379559
0.404948 0.404948 0.404948
0.425971 0.425971 0.425971
0.447706 0.447706 0.447706
0.469308 0.469308 0.469308
0.490187 0.490187 0.490187
0.511042 0.511042 0.511042
0.530249 0.530249 0.530249
0.552507 0.552507 0.552507
0.572408 0.572408 0.572408
0.593437 0.593437 0.593437
0.612154 0.612154 0.612154
0.633218 0.633218 0.633218
-0.116605 -0.116605 -0.116605
-0.122510 -0.122510 -0.122510
-0.128806 -0.128806 -0.128806
-0.133359 -0.133359 -0.133359
-0.135340 -0.135340 -0.135340
-0.132295 -0.132295 -0.132295
-0.124842 -0.124842 -0.124842
-0.107917 -0.107917 -0.107917
-0.071118 -0.071118 -0.071118
0.081084 0.081084 0.081084
0.132703 0.132703 0.132703
0.169728 0.169728 0.169728
0.200949 0.200949 0.200949
0.231441 0.231441 0.231441
0.259971 0.259971 0.259971
0.289392 0.289392 0.289392
0.019736 0.019736 0.019736
0.037728 0.037728 0.037728
0.054831 0.054831 0.054831
0.076150 0.076150 0.076150
0.096226 0.096226 0.096226
0.119636 0.119636 0.119636
0.143477 0.143477 0.143477
0.168148 0.168148 0.168148
0.193218 0.193218 0.193218
0.218327 0.218327 0.218327
0.243554 0.243554 0.243554
0.268503 0.268503 0.268503
0.291802 0.291802 0.291802
0.315496 0.315496 0.315496
0.338701 0.338701 0.338701
0.362734 0.362734 0.362734
0.035143 0.035143 0.035143
0.055082 0.055082 0.055082
0.076399 0.076399 0.076399
0.096583 0.096583 0.096583
0.118842 0.118842 0.118842
0.142653 0.142653 0.142653
0.167268 0.167268 0.167268
0.192326 0.192326 0.192326
0.217531 0.217531 0.217531
0.242511 0.242511 0.242511
0.267642 0.267642 0.267642
0.291080 0.291080 0.291080
0.314488 0.314488 0.314488
0.338122 0.338122 0.338122
0.360310 0.360310 0.360310
0.384022 0.384022 0.384022
0.051980 0.051980 0.051980
0.074310 0.074310 0.074310
0.093464 0.093464 0.093464
0.117273 0.117273 0.117273
0.140369 0.140369 0.140369
0.167482 0.167482 0.167482
0.191450 0.191450 0.191450
0.216644 0.216644 0.216644
0.241781 0.241781 0.241781
0.266260 0.266260 0.266260
0.291699 0.291699 0.291699
0.313313 0.313313 0.313313
0.336122 0.336122 0.336122
0.358235 0.358235 0.358235
0.381708 0.381708 0.381708
0.404732 0.404732 0.404732
0.070785 0.070785 0.070785
0.094829 0.094829 0.094829
0.116960 0.116960 0.116960
0.140714 0.140714 0.140714
0.165136 0.165136 0.165136
0.188956 0.188956 0.188956
0.215772 0.215772 0.215772
0.240877 0.240877 0.240877
0.265501 0.265501 0.265501
0.289666 0.289666 0.289666
0.312335 0.312335 0.312335
0.336530 0.336530 0.336530
0.359750 0.359750 0.359750
0.380161 0.380161 0.380161
0.402540 0.402540 0.402540
0.425414 0.425414 0.425414
0.091196 0.091196 0.091196
0.116706 0.116706 0.116706
0.140316 0.140316 0.140316
0.163692 0.163692 0.163692
0.189490 0.189490 0.189490
0.215988 0.215988 0.215988
0.239998 0.239998 0.239998
0.264701 0.264701 0.264701
0.288888 0.288888 0.288888
0.312492 0.312492 0.312492
0.335815 0.335815 0.335815
0.357844 0.357844 0.357844
0.380037 0.380037 0.380037
0.401699 0.401699 0.401699
0.423049 0.423049 0.423049
0.445710 0.445710 0.445710
0.112888 0.112888 0.112888
0.139594 0.139594 0.139594
0.163414 0.163414 0.163414
0.190819 0.190819 0.190819
0.215104 0.215104 0.215104
0.239462 0.239462 0.239462
0.263856 0.263856 0.263856
0.288058 0.288058 0.288058
0.311701 0.311701 0.311701
0.334805 0.334805 0.334805
0.356523 0.356523 0.356523
0.380215 0.380215 0.380215
0.401664 0.401664 0.401664
0.422135 0.422135 0.422135
0.443475 0.443475 0.443475
0.465774 0.465774 0.465774
0.135691 0.135691 0.135691
0.163351 0.163351 0.163351
0.187486 0.187486 0.187486
0.211024 0.211024 0.211024
0.238647 0.238647 0.238647
0.263975 0.263975 0.263975
0.287267 0.287267 0.287267
0.310955 0.310955 0.310955
0.333982 0.333982 0.333982
0.356448 0.356448 0.356448
0.378063 0.378063 0.378063
0.400559 0.400559 0.400559
0.421692 0.421692 0.421692
0.443335 0.443335 0.443335
0.463566 0.463566 0.463566
0.485634 0.485634 0.485634
0.159331 0.159331 0.159331
0.187560 0.187560 0.187560
0.213867 0.213867 0.213867
0.239528 0.239528 0.239528
0.261744 0.261744 0.261744
0.286354 0.286354 0.286354
0.310144 0.310144 0.310144
0.333206 0.333206 0.333206
0.355797 0.355797 0.355797
0.377971 0.377971 0.377971
0.399492 0.399492 0.399492
0.422440 0.422440 0.422440
0.439903 0.439903 0.439903
0.462951 0.462951 0.462951
0.483364 0.483364 0.483364
0.505251 0.505251 0.505251
0.183459 0.183459 0.183459
0.211838 0.211838 0.211838
0.236163 0.236163 0.236163
0.260568 0.260568 0.260568
0.285681 0.285681 0.285681
0.309615 0.309615 0.309615
0.332489 0.332489 0.332489
0.355036 0.355036 0.355036
0.377154 0.377154 0.377154
0.398865 0.398865 0.398865
0.419487 0.419487 0.419487
0.440642 0.440642 0.440642
0.462855 0.462855 0.462855
0.482391 0.482391 0.482391
0.503048 0.503048 0.503048
0.525013 0.525013 0.525013
0.207887 0.207887 0.207887
0.236426 0.236426 0.236426
0.260385 0.260385 0.260385
0.284810 0.284810 0.284810
0.309780 0.309780 0.309780
0.330929 0.330929 0.330929
0.354412 0.354412 0.354412
0.376486 0.376486 0.376486
0.398243 0.398243 0.398243
0.419488 0.419488 0.419488
0.441198 0.441198 0.441198
0.461311 0.461311 0.461311
0.483146 0.483146 0.483146
0.501675 0.501675 0.501675
0.522757 0.522757 0.522757
0.544336 0.544336 0.544336
0.232218 0.232218 0.232218
0.260296 0.260296 0.260296
0.284643 0.284643 0.284643
0.307082 0.307082 0.307082
0.332717 0.332717 0.332717
0.352858 0.352858 0.352858
0.375841 0.375841 0.375841
0.397684 0.397684 0.397684
0.418835 0.418835 0.418835
0.439953 0.439953 0.439953
0.460569 0.460569 0.460569
0.481372 0.481372 0.481372
0.502119 0.502119 0.502119
0.520900 0.520900 0.520900
0.542280 0.542280 0.542280
0.563646 0.563646 0.563646
0.256334 0.256334 0.256334
0.283800 0.283800 0.283800
0.305456 0.305456 0.305456
0.330590 0.330590 0.330590
0.352656 0.352656 0.352656
0.373971 0.373971 0.373971
0.396863 0.396863 0.396863
0.418264 0.418264 0.418264
0.439255 0.439255 0.439255
0.460017 0.460017 0.460017
0.481255 0.481255 0.481255
0.500788 0.500788 0.500788
0.521836 0.521836 0.521836
0.541663 0.541663 0.541663
0.561589 0.561589 0.561589
0.582945 0.582945 0.582945
0.280006 0.280006 0.280006
0.306763 0.306763 0.306763
0.330055 0.330055 0.330055
0.353543 0.353543 0.353543
0.374619 0.374619 0.374619
0.395816 0.395816 0.395816
0.417604 0.417604 0.417604
0.438764 0.438764 0.438764
0.459480 0.459480 0.459480
0.479928 0.479928 0.479928
0.501148 0.501148 0.501148
0.520975 0.520975 0.520975
0.541067 0.541067 0.541067
0.561002 0.561002 0.561002
0.580785 0.580785 0.580785
0.602003 0.602003 0.602003
0.303408 0.303408 0.303408
0.329254 0.329254 0.329254
0.352446 0.352446 0.352446
0.374756 0.374756 0.374756
0.395709 0.395709 0.395709
0.415627 0.415627 0.415627
0.438008 0.438008 0.438008
0.458834 0.458834 0.458834
0.479491 0.479491 0.479491
0.499679 0.499679 0.499679
0.519918 0.519918 0.519918
0.538841 0.538841 0.538841
0.560569 0.560569 0.560569
0.580340 0.580340 0.580340
0.599973 0.599973 0.599973
0.620988 0.620988 0.620988
0.341465 0.341465 0.341465
0.367180 0.367180 0.367180
0.389495 0.389495 0.389495
0.411493 0.411493 0.411493
0.434227 0.434227 0.434227
0.455980 0.455980 0.455980
0.477055 0.477055 0.477055
0.497956 0.497956 0.497956
0.518691 0.518691 0.518691
0.539106 0.539106 0.539106
0.560135 0.560135 0.560135
0.579249 0.579249 0.579249
0.599990 0.599990 0.599990
0.618503 0.618503 0.618503
0.639370 0.639370 0.639370
0.660088 0.660088 0.660088
-0.127296 -0.127296 -0.127296
-0.131156 -0.131156 -0.131156
-0.135239 -0.135239 -0.135239
-0.135433 -0.135433 -0.135433
-0.131243 -0.131243 -0.131243
-0.120414 -0.120414 -0.120414
-0.099887 -0.099887 -0.099887
-0.044741 -0.044741 -0.044741
0.099658 0.099658 0.099658
0.144213 0.144213 0.144213
0.180669 0.180669 0.180669
0.210890 0.210890 0.210890
0.241786 0.241786 0.241786
0.269737 0.269737 0.269737
0.294486 0.294486 0.294486
0.322033 0.322033 0.322033
0.041259 0.041259 0.041259
0.062138 0.062138 0.062138
0.082439 0.082439 0.082439
0.104966 0.104966 0.104966
0.127992 0.127992 0.127992
0.150502 0.150502 0.150502
0.176457 0.176457 0.176457
0.201609 0.201609 0.201609
0.226653 0.226653 0.226653
0.251606 0.251606 0.251606
0.276772 0.276772 0.276772
0.299541 0.299541 0.299541
0.323776 0.323776 0.323776
0.345796 0.345796 0.345796
0.368381 0.368381 0.368381
0.391798 0.391798 0.391798
0.058934 0.058934 0.058934
0.081646 0.081646 0.081646
0.104659 0.104659 0.104659
0.127314 0.127314 0.127314
0.151848 0.151848 0.151848
0.175910 0.175910 0.175910
0.201511 0.201511 0.201511
0.226659 0.226659 0.226659
0.251509 0.251509 0.251509
0.276017 0.276017 0.276017
0.298501 0.298501 0.298501
0.322829 0.322829 0.322829
0.346789 0.346789 0.346789
0.367270 0.367270 0.367270
0.390239 0.390239 0.390239
0.413280 0.413280 0.413280
0.078309 0.078309 0.078309
0.102839 0.102839 0.102839
0.127170 0.127170 0.127170
0.151311 0.151311 0.151311
0.176603 0.176603 0.176603
0.200430 0.200430 0.200430
0.225745 0.225745 0.225745
0.250723 0.250723 0.250723
0.275167 0.275167 0.275167
0.299116 0.299116 0.299116
0.322069 0.322069 0.322069
0.345887 0.345887 0.345887
0.368008 0.368008 0.368008
0.389052 0.389052 0.389052
0.410948 0.410948 0.410948
0.433833 0.433833 0.433833
0.099224 0.099224 0.099224
0.125050 0.125050 0.125050
0.149552 0.149552 0.149552
0.174752 0.174752 0.174752
0.199514 0.199514 0.199514
0.224220 0.224220 0.224220
0.249895 0.249895 0.249895
0.274356 0.274356 0.274356
0.298270 0.298270 0.298270
0.321650 0.321650 0.321650
0.343631 0.343631 0.343631
0.367042 0.367042 0.367042
0.388500 0.388500 0.388500
0.409845 0.409845 0.409845
0.431521 0.431521 0.431521
0.453816 0.453816 0.453816
0.121394 0.121394 0.121394
0.148357 0.148357 0.148357
0.174556 0.174556 0.174556
0.199208 0.199208 0.199208
0.224887 0.224887 0.224887
0.248994 0.248994 0.248994
0.273544 0.273544 0.273544
0.297437 0.297437 0.297437
0.320827 0.320827 0.320827
0.343680 0.343680 0.343680
0.366394 0.366394 0.366394
0.387810 0.387810 0.387810
0.410019 0.410019 0.410019
0.430426 0.430426 0.430426
0.451651 0.451651 0.451651
0.473859 0.473859 0.473859
0.144425 0.144425 0.144425
0.172220 0.172220 0.172220
0.198849 0.198849 0.198849
0.222625 0.222625 0.222625
0.249621 0.249621 0.249621
0.273114 0.273114 0.273114
0.296655 0.296655 0.296655
0.320061 0.320061 0.320061
0.342915 0.342915 0.342915
0.365222 0.365222 0.365222
0.387044 0.387044 0.387044
0.408038 0.408038 0.408038
0.429782 0.429782 0.429782
0.449355 0.449355 0.449355
0.471763 0.471763 0.471763
0.493689 0.493689 0.493689
0.168276 0.168276 0.168276
0.196669 0.196669 0.196669
0.222511 0.222511 0.222511
0.248406 0.248406 0.248406
0.270792 0.270792 0.270792
0.296678 0.296678 0.296678
0.319229 0.319229 0.319229
0.342187 0.342187 0.342187
0.364585 0.364585 0.364585
0.386646 0.386646 0.386646
0.407502 0.407502 0.407502
0.431005 0.431005 0.431005
0.450747 0.450747 0.450747
0.470797 0.470797 0.470797
0.491560 0.491560 0.491560
0.513184 0.513184 0.513184
0.192667 0.192667 0.192667
0.220899 0.220899 0.220899
0.245144 0.245144 0.245144
0.269464 0.269464 0.269464
0.296029 0.296029 0.296029
0.319709 0.319709 0.319709
0.341363 0.341363 0.341363
0.363804 0.363804 0.363804
0.385811 0.385811 0.385811
0.407358 0.407358 0.407358
0.427392 0.427392 0.427392
0.447634 0.447634 0.447634
0.470398 0.470398 0.470398
0.489609 0.489609 0.489609
0.511221 0.511221 0.511221
0.532724 0.532724 0.532724
0.216933 0.216933 0.216933
0.245138 0.245138 0.245138
0.272127 0.272127 0.272127
0.293421 0.293421 0.293421
0.317153 0.317153 0.317153
0.340955 0.340955 0.340955
0.363030 0.363030 0.363030
0.385141 0.385141 0.385141
0.406796 0.406796 0.406796
0.428031 0.428031 0.428031
0.449879 0.449879 0.449879
0.469005 0.469005 0.469005
0.490742 0.490742 0.490742
0.509669 0.509669 0.509669
0.530797 0.530797 0.530797
0.552261 0.552261 0.552261
0.241228 0.241228 0.241228
0.268993 0.268993 0.268993
0.294274 0.294274 0.294274
0.318598 0.318598 0.318598
0.340199 0.340199 0.340199
0.363056 0.363056 0.363056
0.384280 0.384280 0.384280
0.405788 0.405788 0.405788
0.427246 0.427246 0.427246
0.448120 0.448120 0.448120
0.468981 0.468981 0.468981
0.488709 0.488709 0.488709
0.509930 0.509930 0.509930
0.528894 0.528894 0.528894
0.550253 0.550253 0.550253
0.571508 0.571508 0.571508
0.265077 0.265077 0.265077
0.292422 0.292422 0.292422
0.315345 0.315345 0.315345
0.340034 0.340034 0.340034
0.361042 0.361042 0.361042
0.384563 0.384563 0.384563
0.405263 0.405263 0.405263
0.426611 0.426611 0.426611
0.447450 0.447450 0.447450
0.468203 0.468203 0.468203
0.489481 0.489481 0.489481
0.510337 0.510337 0.510337
0.529762 0.529762 0.529762
0.549455 0.549455 0.549455
0.569543 0.569543 0.569543
0.590654 0.590654 0.590654
0.288512 0.288512 0.288512
0.315214 0.315214 0.315214
0.338909 0.338909 0.338909
0.362011 0.362011 0.362011
0.381528 0.381528 0.381528
0.404612 0.404612 0.404612
0.425778 0.425778 0.425778
0.446919 0.446919 0.446919
0.467510 0.467510 0.467510
0.488041 0.488041 0.488041
0.507829 0.507829 0.507829
0.528579 0.528579 0.528579
0.548379 0.548379 0.548379
0.570146 0.570146 0.570146
0.588522 0.588522 0.588522
0.609640 0.609640 0.609640
0.311515 0.311515 0.311515
0.337303 0.337303 0.337303
0.359966 0.359966 0.359966
0.381241 0.381241 0.381241
0.403908 0.403908 0.403908
0.425042 0.425042 0.425042
0.446003 0.446003 0.446003
0.466929 0.466929 0.466929
0.487490 0.487490 0.487490
0.507643 0.507643 0.507643
0.529391 0.529391 0.529391
0.547265 0.547265 0.547265
0.567890 0.567890 0.567890
0.588875 0.588875 0.588875
0.607549 0.607549 0.607549
0.628544 0.628544 0.628544
0.333920 0.333920 0.333920
0.359462 0.359462 0.359462
0.381489 0.381489 0.381489
0.403533 0.403533 0.403533
0.424448 0.424448 0.424448
0.446065 0.446065 0.446065
0.466192 0.466192 0.466192
0.486784 0.486784 0.486784
0.507171 0.507171 0.507171
0.527322 0.527322 0.527322
0.546683 0.546683 0.546683
0.568007 0.568007 0.568007
0.586215 0.586215 0.586215
0.607224 0.607224 0.607224
0.626741 0.626741 0.626741
0.647468 0.647468 0.647468
0.372448 0.372448 0.372448
0.397459 0.397459 0.397459
0.419489 0.419489 0.419489
0.441573 0.441573 0.441573
0.463945 0.463945 0.463945
0.486005 0.486005 0.486005
0.505542 0.505542 0.505542
0.526040 0.526040 0.526040
0.546566 0.546566 0.546566
0.566874 0.566874 0.566874
0.587978 0.587978 0.587978
0.606715 0.606715 0.606715
0.627153 0.627153 0.627153
0.646361 0.646361 0.646361
0.665951 0.665951 0.665951
0.686555 0.686555 0.686555
-0.135058 -0.135058 -0.135058
-0.135397 -0.135397 -0.135397
-0.134720 -0.134720 -0.134720
-0.129110 -0.129110 -0.129110
-0.116615 -0.116615 -0.116615
-0.091421 -0.091421 -0.091421
0.049444 0.049444 0.049444
0.115643 0.115643 0.115643
0.156774 0.156774 0.156774
0.190804 0.190804 0.190804
0.222685 0.222685 0.222685
0.248801 0.248801 0.248801
0.277828 0.277828 0.277828
0.303801 0.303801 0.303801
0.327113 0.327113 0.327113
0.353436 0.353436 0.353436
0.066201 0.066201 0.066201
0.089648 0.089648 0.089648
0.112200 0.112200 0.112200
0.135407 0.135407 0.135407
0.158858 0.158858 0.158858
0.186043 0.186043 0.186043
0.209820 0.209820 0.209820
0.235100 0.235100 0.235100
0.259750 0.259750 0.259750
0.284013 0.284013 0.284013
0.306673 0.306673 0.306673
0.331800 0.331800 0.331800
0.354108 0.354108 0.354108
0.375641 0.375641 0.375641
0.397367 0.397367 0.397367
0.420359 0.420359 0.420359
0.086135 0.086135 0.086135
0.111091 0.111091 0.111091
0.135029 0.135029 0.135029
0.159470 0.159470 0.159470
0.185901 0.185901 0.185901
0.209404 0.209404 0.209404
0.234935 0.234935 0.234935
0.259690 0.259690 0.259690
0.283950 0.283950 0.283950
0.307620 0.307620 0.307620
0.331176 0.331176 0.331176
0.354511 0.354511 0.354511
0.375663 0.375663 0.375663
0.396592 0.396592 0.396592
0.418703 0.418703 0.418703
0.441406 0.441406 0.441406
0.107473 0.107473 0.107473
0.133892 0.133892 0.133892
0.159259 0.159259 0.159259
0.184876 0.184876 0.184876
0.209420 0.209420 0.209420
0.235339 0.235339 0.235339
0.259700 0.259700 0.259700
0.283904 0.283904 0.283904
0.307634 0.307634 0.307634
0.330722 0.330722 0.330722
0.354402 0.354402 0.354402
0.374842 0.374842 0.374842
0.396825 0.396825 0.396825
0.418732 0.418732 0.418732
0.439868 0.439868 0.439868
0.462170 0.462170 0.462170
0.130004 0.130004 0.130004
0.157376 0.157376 0.157376
0.183053 0.183053 0.183053
0.209526 0.209526 0.209526
0.233221 0.233221 0.233221
0.258561 0.258561 0.258561
0.283189 0.283189 0.283189
0.306919 0.306919 0.306919
0.330052 0.330052 0.330052
0.352652 0.352652 0.352652
0.375592 0.375592 0.375592
0.397032 0.397032 0.397032
0.416848 0.416848 0.416848
0.439867 0.439867 0.439867
0.459834 0.459834 0.459834
0.481995 0.481995 0.481995
0.153423 0.153423 0.153423
0.181455 0.181455 0.181455
0.207791 0.207791 0.207791
0.231625 0.231625 0.231625
0.258966 0.258966 0.258966
0.282359 0.282359 0.282359
0.306034 0.306034 0.306034
0.329290 0.329290 0.329290
0.351812 0.351812 0.351812
0.374162 0.374162 0.374162
0.396057 0.396057 0.396057
0.417124 0.417124 0.417124
0.437948 0.437948 0.437948
0.459392 0.459392 0.459392
0.479725 0.479725 0.479725
0.501823 0.501823 0.501823
0.177427 0.177427 0.177427
0.205800 0.205800 0.205800
0.231249 0.231249 0.231249
0.257042 0.257042 0.257042
0.282725 0.282725 0.282725
0.306571 0.306571 0.306571
0.328436 0.328436 0.328436
0.351089 0.351089 0.351089
0.373411 0.373411 0.373411
0.395233 0.395233 0.395233
0.416250 0.416250 0.416250
0.438341 0.438341 0.438341
0.457488 0.457488 0.457488
0.480200 0.480200 0.480200
0.499574 0.499574 0.499574
0.521296 0.521296 0.521296
0.201753 0.201753 0.201753
0.230089 0.230089 0.230089
0.256949 0.256949 0.256949
0.281176 0.281176 0.281176
0.304393 0.304393 0.304393
