public/kits/editing-mini-guide/luts/cinematic-v1-log-09.cube
LUT_3D_SIZE 16
0.002680 0.002380 0.002081
0.017916 0.004378 0.003116
0.079860 0.012656 0.007828
0.188285 0.025403 0.015728
0.306820 0.039318 0.028958
0.421907 0.047857 0.044865
0.519852 0.053014 0.062955
0.602747 0.064611 0.083389
0.651211 0.077036 0.101742
0.659092 0.079817 0.111485
0.666131 0.082453 0.119081
0.672580 0.084887 0.125034
0.678639 0.087185 0.129623
0.684037 0.089423 0.133245
0.689117 0.091536 0.135951
0.693564 0.093422 0.137939
0.005390 0.013035 0.007030
0.018170 0.015013 0.007455
0.078096 0.018168 0.010211
0.188399 0.029803 0.016797
0.308608 0.042722 0.029305
0.424492 0.050838 0.045588
0.522575 0.056197 0.063919
0.604991 0.068062 0.084539
0.654800 0.081317 0.103480
0.662845 0.084302 0.113804
0.669803 0.087024 0.121452
0.676273 0.089577 0.127482
0.682177 0.091896 0.132118
0.687577 0.094176 0.135732
0.692456 0.096291 0.138463
0.697053 0.098215 0.140452
0.014170 0.049614 0.024278
0.020925 0.050725 0.024222
0.069984 0.058022 0.025091
0.201660 0.057551 0.025734
0.318590 0.052063 0.030887
0.426656 0.053809 0.045982
0.524885 0.059255 0.064577
0.607042 0.071249 0.085425
0.658548 0.085511 0.105066
0.666506 0.088649 0.115862
0.673373 0.091531 0.123663
0.679819 0.094128 0.129752
0.685626 0.096540 0.134469
0.690936 0.098870 0.138099
0.695723 0.101016 0.140822
0.700408 0.102901 0.142824
0.032630 0.120489 0.055547
0.037713 0.121337 0.055695
0.042880 0.122045 0.055771
0.175009 0.150421 0.056231
0.377774 0.139975 0.052870
0.480103 0.103530 0.059361
0.543085 0.075535 0.069126
0.611239 0.077294 0.086491
0.661829 0.089470 0.105556
0.669885 0.092848 0.116991
0.676782 0.095805 0.125032
0.683110 0.098498 0.131273
0.688838 0.101001 0.136059
0.694219 0.103410 0.139799
0.698989 0.105578 0.142562
0.703448 0.107488 0.144592
0.061445 0.213976 0.094884
0.064697 0.214996 0.095415
0.068115 0.216049 0.095957
0.071258 0.215989 0.095993
0.326222 0.284745 0.102224
0.521604 0.265339 0.105930
0.606437 0.230060 0.120722
0.663878 0.202845 0.132224
0.700515 0.175360 0.138920
0.691111 0.127089 0.129700
0.689909 0.115614 0.132173
0.691473 0.111208 0.135548
0.692943 0.107618 0.137485
0.696758 0.107882 0.140246
0.701600 0.110092 0.143139
0.705954 0.111965 0.145209
0.096222 0.318675 0.138398
0.099271 0.319446 0.139147
0.102310 0.320224 0.139898
0.105133 0.320509 0.140359
0.107096 0.317364 0.139439
0.458989 0.417626 0.166863
0.611223 0.412282 0.175844
0.681939 0.388897 0.210588
0.731738 0.370506 0.230645
0.742388 0.341681 0.233854
0.742895 0.313841 0.228771
0.743367 0.289744 0.222729
0.743256 0.267574 0.215740
0.742098 0.249976 0.209801
0.743500 0.241089 0.207151
0.743810 0.229342 0.202312
0.133935 0.412280 0.180484
0.137937 0.413065 0.181761
0.141712 0.413867 0.182998
0.145334 0.414379 0.184107
0.147963 0.412524 0.183790
0.208769 0.428338 0.195664
0.573605 0.527651 0.233479
0.681126 0.523529 0.239423
0.744142 0.511292 0.284650
0.773604 0.494576 0.307622
0.774597 0.476790 0.313071
0.775886 0.462647 0.314716
0.777276 0.451612 0.315273
0.779143 0.444332 0.315543
0.781372 0.438529 0.315093
0.783189 0.431330 0.312939
0.182625 0.496418 0.232691
0.187422 0.497235 0.234126
0.192073 0.498100 0.235586
0.196563 0.498825 0.236937
0.199922 0.497689 0.236874
0.202042 0.494862 0.235554
0.353431 0.535303 0.260804
0.658183 0.611776 0.283878
0.743417 0.608529 0.284362
0.802450 0.599985 0.314988
0.811552 0.587814 0.340609
0.813332 0.578270 0.350892
0.815187 0.570454 0.356862
0.818026 0.565081 0.360249
0.820958 0.561016 0.362280
0.822671 0.555471 0.362429
0.236880 0.573924 0.286356
0.242078 0.574697 0.287553
0.247275 0.575517 0.288812
0.252383 0.576280 0.290041
0.256563 0.575398 0.290324
0.259967 0.573240 0.289928
0.265792 0.570690 0.289726
0.502895 0.632717 0.308649
0.722451 0.683965 0.297543
0.807620 0.682376 0.278467
0.845912 0.676096 0.294590
0.850093 0.669077 0.327154
0.853470 0.663644 0.344701
0.857449 0.660010 0.353304
0.861356 0.657040 0.358049
0.864014 0.652285 0.361451
0.264213 0.659760 0.301750
0.270200 0.660200 0.302722
0.276100 0.660738 0.303732
0.281905 0.661412 0.304827
0.287552 0.660180 0.305742
0.292942 0.658111 0.306747
0.298000 0.654805 0.307876
0.315504 0.653815 0.309477
0.611922 0.726555 0.300019
0.779365 0.757880 0.271201
0.861271 0.758448 0.249231
0.882821 0.753832 0.243937
0.886411 0.749028 0.247835
0.891557 0.745989 0.269481
0.896269 0.743252 0.281007
0.899661 0.738375 0.292738
0.265008 0.739930 0.288367
0.271549 0.740218 0.289099
0.278046 0.740845 0.289739
0.284531 0.741318 0.290452
0.291030 0.740300 0.291463
0.297680 0.738538 0.292630
0.304130 0.735885 0.294180
0.310727 0.732191 0.295920
0.376256 0.739736 0.295611
0.707803 0.812594 0.257706
0.831581 0.828726 0.228821
0.899462 0.830102 0.210374
0.913468 0.826742 0.208008
0.918856 0.823545 0.207752
0.924116 0.820802 0.207358
0.928473 0.816410 0.208064
0.259106 0.779786 0.275927
0.265890 0.780456 0.276340
0.272601 0.781240 0.276740
0.279225 0.782022 0.277196
0.285908 0.782743 0.277533
0.292651 0.783451 0.277839
0.299255 0.784250 0.278213
0.306019 0.784785 0.278564
0.312972 0.783725 0.279412
0.574462 0.833684 0.255310
0.781824 0.878881 0.211716
0.876348 0.890561 0.186562
0.926661 0.893099 0.173044
0.937487 0.891038 0.171390
0.943647 0.888843 0.170844
0.948949 0.884766 0.171391
0.256886 0.791353 0.271829
0.263673 0.792133 0.272209
0.270402 0.792829 0.272661
0.277135 0.793592 0.273038
0.283894 0.794358 0.273342
0.290599 0.795053 0.273623
0.297292 0.795905 0.273899
0.304067 0.796765 0.274070
0.310781 0.797505 0.274227
0.433079 0.819839 0.264177
0.734764 0.887019 0.214139
0.843176 0.906259 0.185300
0.907428 0.915083 0.166474
0.942150 0.919381 0.156077
0.951354 0.920051 0.153447
0.958099 0.920033 0.151827
0.254125 0.802958 0.267350
0.261054 0.803737 0.267655
0.267873 0.804512 0.268040
0.274560 0.805239 0.268454
0.281433 0.805983 0.268668
0.288226 0.806708 0.268920
0.294897 0.807383 0.269226
0.301768 0.808227 0.269283
0.308548 0.808870 0.269424
0.368137 0.818139 0.266401
0.695962 0.888724 0.217932
0.819496 0.912720 0.186075
0.889672 0.923077 0.166139
0.929771 0.928495 0.154270
0.953220 0.930984 0.147419
0.960624 0.931374 0.145548
0.251402 0.814655 0.262880
0.258359 0.815339 0.263195
0.265252 0.815960 0.263523
0.271991 0.816670 0.263898
0.278855 0.817348 0.264113
0.285760 0.818078 0.264321
0.292476 0.818803 0.264561
0.299316 0.819685 0.264651
0.306203 0.820306 0.264714
0.343892 0.825433 0.263374
0.658307 0.889966 0.221090
0.800631 0.919851 0.185396
0.875602 0.931365 0.164727
0.919387 0.937352 0.151950
0.947837 0.941007 0.143665
0.962972 0.942095 0.139538
0.248841 0.825689 0.258646
0.255690 0.826269 0.258982
0.262621 0.826939 0.259289
0.269450 0.827731 0.259569
0.276312 0.828287 0.259802
0.283192 0.829051 0.259998
0.290031 0.829626 0.260161
0.296891 0.830521 0.260222
0.303749 0.831129 0.260286
0.322767 0.833527 0.259933
0.611615 0.888391 0.225885
0.779935 0.926027 0.185291
0.861799 0.939152 0.163353
0.911896 0.946091 0.149044
0.941441 0.949947 0.140443
0.961787 0.952573 0.134542
0.003552 0.002742 0.005508
0.017992 0.004995 0.005984
0.079285 0.012837 0.009775
0.188258 0.025784 0.017374
0.307442 0.039636 0.030541
0.422657 0.048263 0.046803
0.520866 0.053204 0.065410
0.603666 0.064806 0.086292
0.652342 0.077495 0.105117
0.660243 0.080326 0.114755
0.667435 0.082983 0.122306
0.673858 0.085427 0.128209
0.679874 0.087715 0.132794
0.685199 0.090000 0.136311
0.690276 0.092105 0.138974
0.694900 0.094004 0.140957
0.005728 0.012778 0.010441
0.017880 0.014982 0.010956
0.076765 0.019026 0.012718
0.186773 0.030175 0.018469
0.307145 0.043011 0.030606
0.422492 0.051321 0.047071
0.520864 0.056389 0.065703
0.603274 0.067904 0.086673
0.656169 0.082140 0.106532
0.664177 0.085204 0.116865
0.671171 0.088004 0.124510
0.677696 0.090561 0.130530
0.683590 0.092863 0.135148
0.688827 0.095261 0.138724
0.693905 0.097419 0.141349
0.698461 0.099327 0.143311
0.014269 0.049651 0.026702
0.021106 0.050890 0.026885
0.069650 0.058127 0.027831
0.204443 0.062154 0.029623
0.320843 0.054426 0.032993
0.425974 0.054182 0.047547
0.524541 0.059457 0.066387
0.606935 0.071341 0.087576
0.659504 0.086084 0.107723
0.667495 0.089261 0.118396
0.674432 0.092136 0.126079
0.680828 0.094798 0.132168
0.686617 0.097157 0.136827
0.691885 0.099498 0.140350
0.696797 0.101666 0.142789
0.701273 0.103533 0.144656
0.032522 0.120829 0.058390
0.037591 0.121548 0.058627
0.042600 0.122321 0.058729
0.174787 0.148952 0.058812
0.376817 0.132571 0.053845
0.485613 0.108476 0.063746
0.561168 0.095582 0.078979
0.618886 0.086599 0.092622
0.664087 0.092351 0.109119
0.670779 0.093352 0.119273
0.677614 0.096289 0.127111
0.683959 0.099016 0.133207
0.689776 0.101467 0.137916
0.694898 0.103868 0.141582
0.699708 0.106058 0.144224
0.704150 0.107960 0.146137
0.061356 0.214785 0.098078
0.064618 0.215697 0.098674
0.067861 0.216691 0.099159
0.070904 0.216470 0.099108
0.327167 0.282578 0.104326
0.520923 0.248363 0.104590
0.604084 0.208220 0.116610
0.666144 0.205850 0.137594
0.709071 0.205163 0.156179
0.711606 0.183224 0.159043
0.708837 0.156979 0.154232
0.699899 0.124480 0.144011
0.699147 0.116542 0.143883
0.702679 0.116417 0.146442
0.706457 0.116658 0.148317
0.709473 0.116742 0.149457
0.096172 0.319572 0.142176
0.099158 0.320064 0.142899
0.102029 0.320809 0.143580
0.104746 0.320924 0.143988
0.106583 0.317712 0.142900
0.459982 0.414799 0.168907
0.610727 0.399360 0.174494
0.679787 0.360931 0.203271
0.727832 0.337194 0.218671
0.740564 0.323669 0.228925
0.745011 0.318978 0.235857
0.749011 0.315390 0.240487
0.752478 0.310530 0.242583
0.755667 0.306707 0.243775
0.758469 0.302630 0.243764
0.760707 0.296263 0.241666
0.133852 0.413012 0.185107
0.137727 0.413447 0.186343
0.141309 0.414195 0.187489
0.144792 0.414612 0.188421
0.147231 0.412642 0.187886
0.214277 0.430415 0.200434
0.575187 0.525114 0.235694
0.681160 0.514246 0.244365
0.742199 0.490863 0.282977
0.766330 0.461195 0.298265
0.766236 0.437393 0.299383
0.767812 0.422889 0.299709
0.770428 0.414496 0.300697
0.773319 0.410832 0.302473
0.776519 0.409389 0.304219
0.779097 0.406868 0.304343
0.182367 0.496938 0.237518
0.186951 0.497335 0.238782
0.191327 0.498181 0.240141
0.195630 0.498787 0.241383
0.198839 0.497569 0.241087
0.200842 0.494738 0.239684
0.362383 0.537761 0.265786
0.659851 0.609354 0.286608
0.742819 0.600922 0.287719
0.798605 0.584799 0.323467
0.803093 0.563841 0.343706
0.802536 0.548348 0.351023
0.802971 0.536659 0.354722
0.804909 0.529189 0.356651
0.807242 0.523954 0.357897
0.808686 0.517646 0.357279
0.236458 0.574213 0.291109
0.241537 0.574481 0.292234
0.246387 0.575225 0.293397
0.251320 0.575886 0.294541
0.255296 0.574914 0.294662
0.258606 0.572693 0.294265
0.264999 0.570248 0.294056
0.510302 0.634172 0.312991
0.724177 0.681255 0.302120
0.806991 0.674865 0.283368
0.841461 0.663848 0.309336
0.844352 0.653490 0.342987
0.846255 0.644861 0.357401
0.849119 0.638726 0.364942
0.852135 0.634072 0.369193
0.853912 0.628069 0.371916
0.263869 0.659779 0.306847
0.270015 0.659482 0.308238
0.275543 0.660134 0.309184
0.281223 0.660542 0.310211
0.286717 0.659220 0.311079
0.292049 0.657229 0.312032
0.297029 0.653776 0.313053
0.316685 0.653387 0.314666
0.623084 0.728632 0.304280
0.781671 0.754479 0.277719
0.860596 0.751086 0.257562
0.878901 0.743559 0.253885
0.882301 0.737177 0.275155
0.886617 0.732773 0.291176
0.890866 0.728964 0.300986
0.894130 0.723444 0.318241
0.264654 0.739979 0.293798
0.271736 0.739474 0.295266
0.277824 0.739759 0.295893
0.284146 0.740195 0.296588
0.290569 0.739275 0.297573
0.297126 0.737331 0.298749
0.303559 0.734757 0.300349
0.310083 0.731083 0.302110
0.394104 0.742304 0.301362
0.715112 0.812618 0.263194
0.834392 0.824245 0.236926
0.898823 0.822490 0.220901
0.910775 0.817304 0.219691
0.915728 0.812905 0.219971
0.920418 0.809452 0.219935
0.924287 0.804225 0.220712
0.258658 0.779926 0.281476
0.265994 0.780628 0.282489
0.272282 0.781440 0.282865
0.278778 0.782128 0.283315
0.285371 0.783079 0.283609
0.292056 0.783746 0.283911
0.298658 0.784601 0.284273
0.305463 0.784377 0.284837
0.315931 0.783841 0.285688
0.593476 0.837497 0.259180
0.788383 0.878959 0.217670
0.879278 0.885850 0.195663
0.926737 0.885307 0.184466
0.935247 0.882047 0.183864
0.941284 0.879206 0.183653
0.946369 0.874875 0.184310
0.256414 0.791610 0.277474
0.263834 0.792452 0.278403
0.270079 0.793040 0.278782
0.276702 0.793925 0.279169
0.283389 0.794564 0.279472
0.290041 0.795424 0.279746
0.296730 0.796145 0.280000
0.303461 0.797071 0.280152
0.310179 0.797878 0.280333
0.466928 0.825826 0.268409
0.742999 0.888701 0.219084
0.849622 0.907210 0.190873
0.911595 0.915554 0.172904
0.942732 0.918849 0.163915
0.951193 0.919117 0.161680
0.957500 0.918489 0.160398
0.253696 0.803288 0.273079
0.261226 0.804009 0.273964
0.267531 0.804785 0.274360
0.274133 0.805411 0.274775
0.280901 0.806161 0.274961
0.287651 0.806960 0.275210
0.294306 0.807658 0.275483
0.301176 0.808333 0.275570
0.307934 0.809270 0.275672
0.372602 0.819293 0.272224
0.706315 0.891169 0.222479
0.826890 0.914064 0.191594
0.896128 0.924192 0.172086
0.933847 0.929092 0.160890
0.953759 0.931150 0.155131
0.960699 0.931355 0.153405
0.250943 0.814966 0.268590
0.258516 0.815601 0.269530
0.264931 0.816280 0.269829
0.271570 0.816931 0.270191
0.278333 0.817719 0.270402
0.285201 0.818334 0.270591
0.291905 0.819133 0.270825
0.298730 0.819775 0.270938
0.305624 0.820696 0.270974
0.346718 0.826163 0.269466
0.670621 0.892876 0.225190
0.808236 0.921040 0.190747
0.882446 0.932303 0.170493
0.925320 0.938147 0.158044
0.952903 0.941529 0.150077
0.963131 0.942159 0.147395
0.248372 0.825786 0.264370
0.255922 0.826630 0.265309
0.262311 0.827137 0.265589
0.269045 0.827825 0.265910
0.275803 0.828631 0.266079
0.282629 0.829195 0.266256
0.289472 0.829994 0.266427
0.296306 0.830662 0.266522
0.303152 0.831475 0.266555
0.323758 0.834011 0.266134
0.627595 0.892278 0.229329
0.788050 0.927456 0.190516
0.869314 0.940130 0.168869
0.918699 0.946960 0.154831
0.947186 0.950597 0.146636
0.965602 0.953029 0.141339
0.006588 0.004748 0.018229
0.018251 0.006559 0.018306
0.078530 0.014321 0.019111
0.188941 0.027126 0.022743
0.309467 0.040742 0.034279
0.424584 0.049095 0.050315
0.522671 0.053615 0.069121
0.605105 0.065194 0.090396
0.653958 0.078130 0.109444
0.661834 0.080979 0.118896
0.668858 0.083601 0.126188
0.675407 0.086009 0.131925
0.681452 0.088364 0.136294
0.686836 0.090658 0.139808
0.691777 0.092793 0.142566
0.696259 0.094684 0.144527
0.007468 0.009884 0.020534
0.017616 0.011888 0.020791
0.075051 0.019384 0.021562
0.183052 0.030904 0.023528
0.304065 0.043101 0.033004
0.416756 0.051544 0.048585
0.513359 0.056154 0.066537
0.594851 0.066366 0.087101
0.653477 0.081371 0.107795
0.664739 0.085499 0.118557
0.671728 0.088314 0.126094
0.678220 0.090806 0.131987
0.684156 0.093153 0.136546
0.689487 0.095595 0.140128
0.694528 0.097719 0.142788
0.699150 0.099606 0.144752
0.014936 0.047322 0.039762
0.021194 0.048506 0.039908
0.066102 0.055388 0.040940
0.201740 0.063943 0.037443
0.326204 0.058186 0.037750
0.435771 0.059810 0.052964
0.525017 0.060019 0.069935
0.607394 0.071883 0.091673
0.660505 0.086960 0.112338
0.669506 0.090453 0.123011
0.676416 0.093453 0.130630
0.682823 0.096039 0.136556
0.688750 0.098519 0.141074
0.693901 0.100970 0.144659
0.698646 0.103129 0.147080
0.703135 0.105003 0.148885
0.032277 0.120988 0.065091
0.037177 0.121805 0.065377
0.042092 0.122846 0.066641
0.170172 0.147982 0.070961
0.381058 0.137512 0.063023
0.498202 0.120420 0.073365
0.574311 0.106895 0.088514
0.630357 0.098034 0.102203
0.674524 0.105149 0.119494
0.676831 0.100205 0.126519
0.682844 0.102379 0.133895
0.688119 0.103699 0.139257
0.691645 0.102955 0.142155
0.696691 0.105045 0.145527
0.701318 0.107191 0.147880
0.705670 0.109084 0.149665
0.061090 0.215153 0.101018
0.064384 0.216095 0.101515
0.067630 0.217113 0.102090
0.070556 0.216835 0.102022
0.324449 0.281537 0.109526
0.523201 0.246750 0.114077
0.608127 0.221463 0.128916
0.670656 0.226999 0.153049
0.713992 0.221770 0.169809
0.717040 0.194939 0.169913
0.715505 0.170275 0.165459
0.709314 0.140500 0.156047
0.706610 0.127535 0.153252
0.709576 0.126222 0.155063
0.712624 0.125848 0.156506
0.715291 0.125292 0.157201
0.096020 0.320207 0.145814
0.099001 0.320694 0.146378
0.101928 0.321502 0.147168
0.104511 0.321551 0.147507
0.106279 0.318234 0.146319
0.458662 0.414403 0.172439
0.612210 0.397992 0.189837
0.680904 0.361760 0.211569
0.730410 0.348070 0.231156
0.745922 0.348363 0.248276
0.750666 0.344905 0.255695
0.754208 0.337404 0.258160
0.757029 0.329212 0.258278
0.759922 0.323604 0.258446
0.762622 0.318814 0.257947
0.764707 0.312116 0.255571
0.133718 0.413721 0.189554
0.137574 0.414112 0.190573
0.141298 0.414958 0.191845
0.144625 0.415247 0.192736
0.146977 0.413285 0.192128
0.215438 0.431368 0.204385
0.574391 0.524924 0.239449
0.681881 0.514228 0.252959
0.742783 0.489831 0.290340
0.767960 0.462841 0.305684
0.768800 0.442894 0.308367
0.771219 0.433188 0.311046
0.774813 0.430191 0.314887
0.778538 0.430258 0.318627
0.782157 0.430464 0.321277
0.785083 0.429177 0.322065
0.182086 0.497427 0.242249
0.186685 0.497815 0.243249
0.191211 0.498785 0.244860
0.195329 0.499322 0.245991
0.198411 0.498117 0.245658
0.200330 0.495315 0.244129
0.361672 0.537844 0.269631
0.659476 0.609389 0.290527
0.743391 0.601158 0.294911
0.799297 0.584193 0.331826
0.804108 0.563210 0.350623
0.803855 0.548613 0.357732
0.804764 0.537958 0.361363
0.806844 0.531082 0.363489
0.809550 0.526538 0.364851
0.811289 0.521094 0.364775
0.235975 0.574456 0.295815
0.241129 0.574725 0.296681
0.246240 0.575624 0.298208
0.250870 0.576177 0.299254
0.254753 0.575170 0.299307
0.257865 0.573008 0.298706
0.264960 0.570765 0.298635
0.509902 0.634243 0.317166
0.724045 0.681297 0.306653
0.807436 0.675273 0.290967
0.842499 0.664171 0.321966
0.845010 0.653479 0.352005
0.846980 0.644670 0.365512
0.849928 0.638628 0.372599
0.852967 0.634106 0.376660
0.854927 0.628107 0.379259
0.263408 0.659773 0.311871
0.269619 0.659614 0.312971
0.275512 0.660211 0.314346
0.280898 0.660706 0.315282
0.286322 0.659419 0.316110
0.291513 0.657244 0.316976
0.296369 0.653999 0.317910
0.316818 0.653810 0.319511
0.622339 0.728494 0.309352
0.781502 0.754637 0.283127
0.860682 0.751470 0.262919
0.879447 0.744142 0.262372
0.883024 0.737754 0.284710
0.887417 0.733338 0.301490
0.891573 0.729594 0.313069
0.894870 0.724106 0.329697
0.264200 0.739883 0.299261
0.271326 0.739442 0.300381
0.277934 0.739851 0.301512
0.283969 0.740256 0.302170
0.290263 0.739258 0.303149
0.296690 0.737455 0.304258
0.303074 0.734764 0.305824
0.309532 0.731069 0.307488
0.394284 0.742438 0.306577
0.714839 0.812410 0.269177
0.834090 0.824336 0.243223
0.898927 0.822816 0.226992
0.910925 0.817691 0.225632
0.915771 0.813319 0.225965
0.920801 0.809977 0.225884
0.924527 0.804810 0.226586
0.258257 0.780211 0.287052
0.265515 0.780878 0.287704
0.272424 0.781774 0.288646
0.278596 0.782508 0.289095
0.285078 0.783223 0.289380
0.291624 0.784057 0.289619
0.298152 0.784832 0.290013
0.304960 0.784684 0.290545
0.315317 0.784093 0.291408
0.592607 0.837208 0.265310
0.788153 0.879028 0.224411
0.878976 0.885941 0.202544
0.926808 0.885435 0.191200
0.935493 0.882425 0.190487
0.941275 0.879347 0.190363
0.946589 0.875143 0.190960
0.255993 0.791764 0.283009
0.263370 0.792628 0.283605
0.270261 0.793489 0.284586
0.276553 0.794146 0.284932
0.283060 0.794861 0.285223
0.289626 0.795549 0.285459
0.296227 0.796519 0.285745
0.302938 0.797303 0.285882
0.309598 0.798118 0.286034
0.467126 0.826228 0.274124
0.742689 0.888840 0.225698
0.849145 0.907216 0.197911
0.911429 0.915607 0.180077
0.942718 0.918879 0.171053
0.951156 0.919199 0.168875
0.957658 0.918593 0.167583
0.253223 0.803498 0.278685
0.260790 0.804199 0.279204
0.267720 0.805010 0.280195
0.274019 0.805700 0.280537
0.280663 0.806484 0.280782
0.287276 0.807166 0.281002
0.293871 0.807939 0.281260
0.300662 0.808770 0.281337
0.307418 0.809514 0.281437
0.373762 0.819766 0.278008
0.705510 0.890860 0.229084
0.826662 0.914091 0.198540
0.895774 0.924212 0.179242
0.933782 0.929124 0.168140
0.953830 0.931232 0.162358
0.960685 0.931453 0.160635
0.250503 0.814965 0.274343
0.258121 0.815835 0.274887
0.265194 0.816492 0.275812
0.271466 0.817202 0.276147
0.278101 0.817828 0.276385
0.284851 0.818647 0.276534
0.291490 0.819295 0.276788
0.298269 0.820102 0.276858
0.305113 0.820813 0.276878
0.347177 0.826617 0.275411
0.670108 0.892711 0.231836
0.807664 0.920955 0.197949
0.881970 0.932306 0.177877
0.925169 0.938167 0.165469
0.952475 0.941501 0.157610
0.963226 0.942271 0.154818
0.247907 0.826015 0.270073
0.255507 0.826658 0.270594
0.262623 0.827500 0.271588
0.268983 0.828215 0.271828
0.275594 0.828723 0.272040
0.282302 0.829551 0.272228
0.289058 0.830113 0.272408
0.295840 0.830892 0.272474
0.302653 0.831653 0.272509
0.323728 0.834288 0.272090
0.626320 0.892102 0.235918
0.787279 0.927350 0.197715
0.868778 0.940055 0.176158
0.918290 0.946951 0.162270
0.946903 0.950619 0.154125
0.965594 0.953093 0.148811
0.014864 0.008117 0.036396
0.020660 0.009148 0.036349
0.073191 0.016942 0.037044
0.187161 0.030494 0.037152
0.313528 0.043879 0.045237
0.430656 0.051105 0.060995
0.528228 0.054971 0.079626
0.609468 0.066282 0.100777
0.657561 0.079512 0.118915
0.665156 0.082144 0.126948
0.672050 0.084703 0.133207
0.678552 0.087193 0.138338
0.684412 0.089582 0.142344
0.689841 0.091984 0.145557
0.694763 0.094230 0.148054
0.699135 0.096159 0.149950
0.014979 0.012490 0.038993
0.020921 0.013888 0.039237
0.072338 0.021636 0.039946
0.183149 0.034160 0.038880
0.306538 0.046098 0.044512
0.421018 0.053678 0.059500
0.516734 0.057342 0.075767
0.596223 0.066900 0.094059
0.654402 0.081929 0.112817
0.666288 0.086153 0.122478
0.673012 0.088880 0.129413
0.679480 0.091284 0.134888
0.685347 0.093738 0.139131
0.690540 0.096065 0.142608
0.695479 0.098199 0.145240
0.700038 0.100087 0.147179
0.016913 0.027677 0.049090
0.021703 0.028853 0.049406
0.059317 0.035482 0.050616
0.183480 0.044622 0.044896
0.311115 0.050490 0.045781
0.425404 0.056643 0.059480
0.520778 0.060380 0.075512
0.600402 0.070694 0.095342
0.658626 0.086508 0.115786
0.670648 0.091037 0.126186
0.677535 0.093889 0.133244
0.683798 0.096459 0.138744
0.689742 0.098990 0.143056
0.694887 0.101390 0.146559
0.699645 0.103570 0.149284
0.704152 0.105516 0.151304
0.031000 0.114403 0.100717
0.034883 0.115145 0.100860
0.038896 0.116059 0.101526
0.152733 0.137255 0.105991
0.382166 0.137469 0.085497
0.507078 0.125733 0.090314
0.586356 0.123742 0.107512
0.646564 0.121826 0.123097
0.682309 0.114853 0.133227
0.683455 0.106947 0.137500
0.685459 0.103244 0.141092
0.690634 0.104554 0.145796
0.696255 0.106837 0.150012
0.701363 0.109379 0.153386
0.706235 0.111800 0.155935
0.710518 0.113895 0.157937
0.059087 0.217691 0.128379
0.062064 0.218926 0.129410
0.064772 0.220259 0.131705
0.066430 0.220624 0.137835
0.306149 0.274053 0.154256
0.529599 0.246546 0.139186
0.615987 0.238650 0.153717
0.676946 0.242050 0.174783
0.722385 0.246668 0.194478
0.731755 0.240564 0.202688
0.735695 0.234910 0.206712
0.739519 0.231394 0.209774
0.742799 0.228860 0.212033
0.746346 0.228146 0.214294
0.750149 0.230798 0.217409
0.753621 0.232128 0.219183
0.095306 0.319348 0.148759
0.098288 0.319841 0.149254
0.101155 0.320550 0.149871
0.103591 0.321946 0.154699
0.105164 0.319562 0.156552
0.451886 0.411939 0.202583
0.616055 0.391821 0.218700
0.684437 0.367549 0.233257
0.736867 0.375583 0.260327
0.753441 0.374849 0.275343
0.756777 0.362891 0.277139
0.759604 0.351446 0.276603
0.762496 0.342281 0.275497
0.765314 0.336955 0.275346
0.768207 0.333471 0.275341
0.770654 0.329392 0.274243
0.133087 0.413290 0.193457
0.136924 0.413718 0.194368
0.140585 0.414585 0.195503
0.143920 0.414830 0.196364
0.146170 0.412718 0.195688
0.216141 0.431317 0.207933
0.573289 0.524341 0.253458
0.685020 0.512015 0.284044
0.745161 0.487084 0.308959
0.772127 0.468989 0.322976
0.776118 0.461918 0.330528
0.780573 0.461677 0.337376
0.784943 0.462289 0.342788
0.788727 0.462625 0.346465
0.791867 0.462214 0.348784
0.794498 0.459917 0.349104
0.181333 0.497191 0.246464
0.185936 0.497663 0.247459
0.190421 0.498556 0.248819
0.194513 0.499059 0.249968
0.197475 0.497796 0.249555
0.199333 0.494831 0.248049
0.360906 0.537399 0.272867
0.658890 0.608806 0.296760
