public/kits/editing-mini-guide/luts/cinematic-v1-log-10.cube
LUT_3D_SIZE 6
0.002713 0.002219 0.000917
0.169438 0.000460 0.011256
0.737875 0.000000 0.003761
0.934724 0.000000 0.108683
0.947857 0.000000 0.170006
0.952023 0.000000 0.185881
0.003230 0.072126 0.020456
0.077696 0.065985 0.005817
0.722064 0.000000 0.008799
0.935678 0.000000 0.105273
0.948215 0.000000 0.168945
0.952289 0.000000 0.185587
0.092414 0.332528 0.159140
0.095478 0.333864 0.160260
0.361576 0.331079 0.074553
0.945121 0.393253 0.032528
0.962310 0.348334 0.139324
0.962288 0.322516 0.160663
0.183113 0.571607 0.332319
0.185949 0.572157 0.332939
0.185396 0.564129 0.325278
0.601169 0.581349 0.182054
0.965124 0.730070 0.034037
0.974774 0.724161 0.047018
0.233317 0.670522 0.428783
0.236821 0.672494 0.430970
0.239181 0.672517 0.430714
0.256660 0.670049 0.421819
0.817300 0.770721 0.351638
0.923719 0.833065 0.325088
0.248318 0.694397 0.453530
0.251728 0.696118 0.455510
0.253844 0.695974 0.455079
0.256672 0.694943 0.453422
0.688413 0.725093 0.360437
0.901615 0.834670 0.382713
0.000506 0.027410 0.077180
0.143733 0.018918 0.089014
0.747403 0.000000 0.094778
0.934223 0.000000 0.176419
0.946128 0.000000 0.225510
0.950308 0.000000 0.239086
0.000668 0.084700 0.083426
0.066865 0.097685 0.107177
0.725007 0.024585 0.112678
0.934599 0.000000 0.171041
0.946745 0.000000 0.219855
0.950535 0.000000 0.233694
0.085917 0.337320 0.170625
0.088991 0.340179 0.173601
0.383348 0.344090 0.107173
0.947660 0.373792 0.146547
0.962912 0.369026 0.209902
0.963100 0.362420 0.223523
0.182902 0.576877 0.346011
0.186055 0.578258 0.348194
0.185857 0.572276 0.342922
0.619496 0.589305 0.193693
0.970562 0.721291 0.119524
0.974201 0.708807 0.150985
0.235774 0.676621 0.443244
0.240439 0.680712 0.448448
0.243962 0.682854 0.450823
0.269093 0.679096 0.439002
0.830162 0.780093 0.368619
0.928377 0.836651 0.340234
0.250743 0.700385 0.467725
0.255268 0.704355 0.472965
0.258364 0.706054 0.475098
0.261849 0.705124 0.473808
0.711050 0.737463 0.381257
0.912489 0.842563 0.397071
0.000000 0.185707 0.424853
0.004987 0.182137 0.428906
0.729887 0.115748 0.470438
0.927745 0.039113 0.462006
0.945987 0.033719 0.470207
0.954790 0.025496 0.469418
0.000000 0.181890 0.410222
0.000693 0.184348 0.419431
0.699944 0.122454 0.467591
0.929476 0.040885 0.452679
0.948025 0.033151 0.466650
0.957033 0.026748 0.466739
0.000000 0.439913 0.423094
0.000000 0.440384 0.424873
0.442126 0.517772 0.532660
0.950284 0.466202 0.457300
0.964593 0.458992 0.470867
0.966039 0.455257 0.474325
0.124894 0.638982 0.499358
0.129553 0.643310 0.507557
0.119753 0.649184 0.528410
0.689615 0.675596 0.488215
0.975790 0.724517 0.418489
0.975566 0.709378 0.414833
0.237273 0.682613 0.457257
0.241696 0.688076 0.465832
0.243599 0.698636 0.486952
0.274179 0.754373 0.592139
0.870487 0.831135 0.567709
0.964921 0.878728 0.569488
0.252033 0.706202 0.481680
0.256787 0.710244 0.487051
0.258856 0.719175 0.504828
0.252470 0.746655 0.564737
0.750774 0.791198 0.545366
0.950141 0.884146 0.589288
0.000000 0.296887 0.636576
0.000000 0.298939 0.640393
0.555647 0.341854 0.725191
0.859189 0.397100 0.727455
0.881748 0.408507 0.733646
0.903848 0.412666 0.732477
0.000000 0.301218 0.635219
0.000000 0.308264 0.642062
0.541215 0.346197 0.726977
0.860550 0.403182 0.730714
0.884311 0.410221 0.731780
0.906863 0.410917 0.727635
0.000000 0.497171 0.623051
0.000000 0.498788 0.625451
0.339734 0.537256 0.698179
0.870945 0.548177 0.752182
0.898605 0.536267 0.748373
0.921021 0.528862 0.745340
0.104452 0.699959 0.689743
0.118715 0.700633 0.691015
0.124968 0.698753 0.692245
0.699141 0.768070 0.786587
0.956410 0.779629 0.781151
0.973875 0.780825 0.780673
0.220718 0.797437 0.738202
0.227547 0.800468 0.742117
0.234176 0.803869 0.746728
0.281362 0.825541 0.773190
0.903209 0.884313 0.806278
0.977838 0.904420 0.799996
0.218285 0.810265 0.738088
0.224481 0.813350 0.741892
0.231238 0.817261 0.747622
0.241255 0.823276 0.757418
0.808733 0.881704 0.800655
0.969219 0.919121 0.805315
0.000000 0.355883 0.723886
0.000000 0.362443 0.731085
0.509143 0.412759 0.805200
0.844854 0.459287 0.806840
0.868225 0.464310 0.805466
0.892330 0.471629 0.805589
0.000000 0.361463 0.723736
0.000000 0.369943 0.731579
0.505580 0.417157 0.806319
0.846453 0.463229 0.808879
0.869572 0.467883 0.807047
0.894098 0.475294 0.807283
0.000000 0.501447 0.713263
0.000000 0.503518 0.714994
0.269429 0.517695 0.770961
0.853430 0.506915 0.820333
0.872407 0.476599 0.810429
0.898819 0.491946 0.812954
0.020326 0.733662 0.771066
0.029620 0.734396 0.772723
0.036716 0.734803 0.776149
0.679531 0.776757 0.854531
0.940885 0.792622 0.898122
0.964597 0.795545 0.901122
0.227354 0.837629 0.825947
0.235068 0.838192 0.826771
0.240769 0.839057 0.829378
0.289307 0.846224 0.840997
0.933244 0.926860 0.946112
0.988881 0.938011 0.953999
0.246055 0.861802 0.838540
0.253457 0.864436 0.841123
0.259769 0.867372 0.844750
0.265890 0.871734 0.851213
0.868043 0.939582 0.941822
0.989167 0.965156 0.963234
0.000000 0.372920 0.747055
0.000000 0.380015 0.754168
0.482014 0.426385 0.820279
0.848118 0.474588 0.825316
0.870126 0.477702 0.822321
0.892622 0.482597 0.821278
0.000000 0.377967 0.747443
0.000000 0.386735 0.754919
0.486145 0.431059 0.821859
0.850805 0.479190 0.827895
0.872150 0.481755 0.824787
0.893839 0.485591 0.822511
0.000000 0.474237 0.743905
0.000000 0.482900 0.746527
0.244105 0.507008 0.792437
0.853483 0.501210 0.834601
0.875197 0.488046 0.827759
0.896486 0.490672 0.825228
0.000370 0.745465 0.799709
0.000428 0.746545 0.801457
0.001971 0.748199 0.804946
0.665904 0.780758 0.875446
0.941136 0.790219 0.910928
0.963654 0.788045 0.911179
0.201144 0.852038 0.855222
0.210295 0.852394 0.855946
0.216468 0.854192 0.859375
0.276074 0.861524 0.871931
0.932269 0.929892 0.963250
0.986422 0.942015 0.976454
0.235343 0.881159 0.871494
0.243797 0.883285 0.873585
0.250555 0.886231 0.877728
0.255762 0.891325 0.885516
0.864080 0.946021 0.962113
0.993648 0.976240 0.991680
