public/kits/editing-mini-guide/luts/cinematic-v1-log-10.cube
LUT_3D_SIZE 16
0.002713 0.002219 0.000917
0.006653 0.000950 0.000695
0.039550 0.001053 0.001585
0.169438 0.000460 0.011256
0.380207 0.000000 0.009260
0.583032 0.000000 0.000681
0.737875 0.000000 0.003761
0.855003 0.000000 0.023047
0.925745 0.000000 0.063043
0.934724 0.000000 0.108683
0.939449 0.000000 0.137406
0.943933 0.000000 0.156906
0.947857 0.000000 0.170006
0.949056 0.000000 0.178574
0.950725 0.000000 0.183573
0.952023 0.000000 0.185881
0.002736 0.008037 0.002445
0.006189 0.004508 0.000806
0.036969 0.002314 0.001748
0.163343 0.000937 0.011513
0.373174 0.000000 0.011491
0.577490 0.000000 0.000902
0.734530 0.000000 0.004406
0.852350 0.000000 0.023899
0.926108 0.000000 0.061804
0.935088 0.000000 0.109586
0.939559 0.000000 0.138346
0.944127 0.000000 0.157718
0.947825 0.000000 0.170840
0.949182 0.000000 0.179560
0.950607 0.000000 0.184537
0.951855 0.000000 0.186840
0.002777 0.029171 0.007497
0.004596 0.026524 0.005564
0.022577 0.018256 0.002164
0.156164 0.017000 0.012306
0.368394 0.000000 0.011664
0.571036 0.000000 0.000790
0.730190 0.000000 0.004538
0.849171 0.000000 0.024611
0.926363 0.000000 0.060191
0.935490 0.000000 0.109658
0.939887 0.000000 0.138623
0.944320 0.000000 0.158151
0.947968 0.000000 0.171183
0.949299 0.000000 0.179872
0.950780 0.000000 0.185050
0.952085 0.000000 0.187372
0.003230 0.072126 0.020456
0.004877 0.070016 0.018440
0.006477 0.067750 0.016403
0.077696 0.065985 0.005817
0.337196 0.077695 0.015507
0.563191 0.023838 0.013309
0.722064 0.000000 0.008799
0.843650 0.000000 0.024169
0.926129 0.000000 0.054478
0.935678 0.000000 0.105273
0.940149 0.000000 0.135311
0.944526 0.000000 0.155819
0.948215 0.000000 0.168945
0.949557 0.000000 0.177714
0.950942 0.000000 0.182984
0.952289 0.000000 0.185587
0.016613 0.141261 0.054510
0.017953 0.140977 0.054116
0.019355 0.140375 0.053321
0.020634 0.138781 0.051952
0.164435 0.137037 0.016130
0.489641 0.190133 0.014132
0.681634 0.165956 0.028186
0.823879 0.105398 0.038927
0.929475 0.023157 0.060914
0.937262 0.000000 0.102126
0.940319 0.000000 0.129462
0.944692 0.000000 0.149571
0.948305 0.000000 0.161892
0.949563 0.000000 0.170656
0.950935 0.000000 0.176249
0.952276 0.000000 0.179195
0.048214 0.236198 0.103229
0.049324 0.236329 0.103412
0.050428 0.236422 0.103567
0.051322 0.235981 0.103444
0.050763 0.231625 0.101062
0.271045 0.236096 0.046735
0.588204 0.313952 0.003177
0.768123 0.307377 0.020670
0.908073 0.268698 0.031711
0.945758 0.231719 0.091254
0.951721 0.198102 0.132582
0.956675 0.162740 0.156258
0.958500 0.139012 0.170354
0.958202 0.122187 0.177303
0.958194 0.106949 0.180654
0.958316 0.089136 0.181180
0.092414 0.332528 0.159140
0.093493 0.333140 0.159634
0.094541 0.333697 0.160035
0.095478 0.333864 0.160260
0.095206 0.330615 0.158140
0.107330 0.324045 0.151414
0.361576 0.331079 0.074553
0.675471 0.422275 0.006238
0.859978 0.419857 0.001632
0.945121 0.393253 0.032528
0.952463 0.374451 0.084256
0.958223 0.360193 0.117084
0.962310 0.348334 0.139324
0.962229 0.339734 0.150981
0.962419 0.332289 0.157182
0.962288 0.322516 0.160663
0.127041 0.419300 0.213803
0.127986 0.419858 0.214332
0.128949 0.420488 0.214982
0.129851 0.420938 0.215368
0.129898 0.418731 0.213860
0.129299 0.414637 0.210984
0.159593 0.404524 0.195192
0.444435 0.417596 0.103766
0.763258 0.522351 0.015408
0.933395 0.527288 0.000165
0.956251 0.509265 0.019587
0.960992 0.496798 0.063401
0.964534 0.486460 0.089735
0.964759 0.479251 0.104520
0.964580 0.473377 0.111706
0.964342 0.465465 0.114768
0.155307 0.497566 0.270334
0.156179 0.497818 0.270565
0.157088 0.498102 0.270876
0.157941 0.498370 0.271174
0.158153 0.496422 0.269643
0.157921 0.493287 0.267066
0.157752 0.488956 0.263702
0.223766 0.466651 0.223725
0.523480 0.498114 0.135134
0.850490 0.622622 0.034423
0.955774 0.636127 0.001660
0.964950 0.626640 0.018279
0.969085 0.618868 0.048396
0.968873 0.613318 0.064530
0.968978 0.608400 0.072022
0.968499 0.600806 0.073489
0.183113 0.571607 0.332319
0.184110 0.571809 0.332582
0.185081 0.572084 0.332861
0.185949 0.572157 0.332939
0.186167 0.570481 0.331276
0.185993 0.567804 0.328714
0.185396 0.564129 0.325278
0.186368 0.559768 0.321032
0.281507 0.525568 0.251025
0.601169 0.581349 0.182054
0.890241 0.712198 0.098279
0.954574 0.732155 0.042682
0.965124 0.730070 0.034037
0.971065 0.729830 0.041259
0.973295 0.728510 0.046057
0.974774 0.724161 0.047018
0.211887 0.633309 0.390804
0.212869 0.633717 0.391276
0.213896 0.634193 0.391858
0.214912 0.634578 0.392257
0.215070 0.633273 0.390899
0.214884 0.631278 0.388777
0.214361 0.628632 0.386106
0.213357 0.624918 0.382167
0.220999 0.619506 0.374027
0.379456 0.572603 0.254006
0.680828 0.660374 0.248200
0.892430 0.767932 0.208110
0.932860 0.785956 0.179508
0.947776 0.791167 0.163772
0.960256 0.795104 0.148629
0.971943 0.797387 0.130259
0.228292 0.662259 0.420244
0.229518 0.662883 0.421024
0.230702 0.663648 0.421795
0.231834 0.664284 0.422503
0.232710 0.664326 0.422518
0.233491 0.664277 0.422350
0.234223 0.664199 0.422126
0.234685 0.663674 0.421444
0.234555 0.662144 0.419673
0.291702 0.642764 0.371383
0.505317 0.630541 0.276032
0.756033 0.727999 0.320306
0.885873 0.798410 0.302403
0.911139 0.811852 0.287747
0.926252 0.819305 0.275571
0.941124 0.825391 0.259778
0.233317 0.670522 0.428783
0.234450 0.671274 0.429537
0.235646 0.671951 0.430294
0.236821 0.672494 0.430970
0.237678 0.672579 0.430950
0.238411 0.672488 0.430839
0.239181 0.672517 0.430714
0.239801 0.672198 0.430227
0.240389 0.671938 0.429775
0.256660 0.670049 0.421819
0.415476 0.627801 0.294926
0.652620 0.692019 0.321243
0.817300 0.770721 0.351638
0.892566 0.814538 0.338092
0.910247 0.825335 0.331295
0.923719 0.833065 0.325088
0.238427 0.678707 0.437290
0.239581 0.679346 0.437954
0.240728 0.679937 0.438671
0.241909 0.680569 0.439399
0.242671 0.680683 0.439358
0.243417 0.680543 0.439145
0.244177 0.680435 0.439000
0.244749 0.680212 0.438524
0.245246 0.679815 0.438061
0.252245 0.680010 0.436491
0.370202 0.640825 0.329160
0.587167 0.674393 0.313091
0.767523 0.749504 0.360942
0.859140 0.799591 0.363065
0.903824 0.826415 0.350430
0.918372 0.834970 0.344208
0.243502 0.686699 0.445648
0.244651 0.687281 0.446330
0.245769 0.687981 0.446971
0.246909 0.688625 0.447595
0.247696 0.688623 0.447672
0.248407 0.688432 0.447383
0.249116 0.688364 0.447223
0.249681 0.688081 0.446866
0.250138 0.687735 0.446433
0.254537 0.687957 0.445446
0.336919 0.661053 0.370900
0.540019 0.666909 0.311190
0.726795 0.735735 0.362837
0.829402 0.787667 0.380476
0.885289 0.820107 0.372615
0.912975 0.836469 0.362595
0.248318 0.694397 0.453530
0.249502 0.694956 0.454255
0.250596 0.695572 0.454931
0.251728 0.696118 0.455510
0.252461 0.696151 0.455452
0.253171 0.696027 0.455256
0.253844 0.695974 0.455079
0.254368 0.695604 0.454750
0.254841 0.695274 0.454269
0.256672 0.694943 0.453422
0.311645 0.681051 0.409617
0.495374 0.662540 0.312487
0.688413 0.725093 0.360437
0.806171 0.779673 0.392327
0.866971 0.813852 0.391982
0.901615 0.834670 0.382713
0.002280 0.002458 0.003002
0.005945 0.001880 0.002415
0.038777 0.001682 0.003273
0.167913 0.000567 0.015469
0.379744 0.000000 0.015651
0.584749 0.000000 0.003870
0.739281 0.000000 0.013920
0.854978 0.000000 0.036932
0.927159 0.000000 0.081622
0.934571 0.000000 0.123535
0.939474 0.000000 0.151144
0.943787 0.000000 0.169694
0.947479 0.000000 0.182812
0.948688 0.000000 0.191071
0.950099 0.000000 0.195940
0.951558 0.000000 0.198175
0.002307 0.005708 0.003826
0.005237 0.004885 0.003241
0.035548 0.003017 0.003525
0.159511 0.001609 0.015712
0.368039 0.000000 0.017998
0.573979 0.000000 0.003443
0.731009 0.000000 0.013328
0.847939 0.000000 0.037376
0.927257 0.000000 0.077154
0.934874 0.000000 0.122385
0.939494 0.000000 0.150192
0.944020 0.000000 0.168895
0.947668 0.000000 0.182048
0.948926 0.000000 0.190415
0.950289 0.000000 0.194934
0.951542 0.000000 0.197120
0.002597 0.027386 0.008091
0.004141 0.026780 0.007680
0.022649 0.019020 0.004231
0.155950 0.020998 0.017779
0.365815 0.000000 0.018822
0.569984 0.000000 0.002932
0.729311 0.000000 0.010690
0.847761 0.000000 0.035706
0.927335 0.000000 0.073670
0.935127 0.000000 0.120411
0.939686 0.000000 0.148483
0.944034 0.000000 0.167104
0.947704 0.000000 0.180186
0.949201 0.000000 0.188387
0.950548 0.000000 0.192354
0.951851 0.000000 0.194189
0.002656 0.071168 0.021721
0.004008 0.070754 0.021526
0.005547 0.068808 0.019786
0.080445 0.067286 0.010125
0.341961 0.074036 0.026329
0.564824 0.026348 0.025296
0.722073 0.000000 0.026113
0.841004 0.000000 0.041124
0.926243 0.000000 0.067769
0.935703 0.000000 0.115400
0.939958 0.000000 0.144098
0.944366 0.000000 0.163011
0.948043 0.000000 0.175961
0.949326 0.000000 0.184474
0.950768 0.000000 0.189092
0.951997 0.000000 0.191368
0.015395 0.142506 0.057918
0.016554 0.143202 0.058882
0.017866 0.142700 0.058250
0.019083 0.140999 0.056920
0.169484 0.138968 0.021243
0.498075 0.180069 0.025959
0.689628 0.144988 0.041824
0.824298 0.106900 0.060948
0.928867 0.065425 0.083440
0.944176 0.029488 0.126209
0.944838 0.000000 0.149954
0.944069 0.000000 0.161920
0.947876 0.000000 0.171637
0.949185 0.000000 0.179908
0.950717 0.000000 0.185026
0.952048 0.000000 0.187513
0.046051 0.238314 0.107405
0.047116 0.239101 0.108429
0.048178 0.239218 0.108663
0.049043 0.238753 0.108557
0.048549 0.235032 0.106810
0.279001 0.238250 0.051030
0.595543 0.306086 0.008626
0.777239 0.282502 0.037526
0.912254 0.237010 0.065020
0.946124 0.216739 0.116737
0.951970 0.211369 0.150414
0.957445 0.204588 0.170684
0.961229 0.194767 0.184133
0.961347 0.184707 0.192087
0.961237 0.172709 0.196136
0.961498 0.155667 0.197438
0.090553 0.334632 0.163327
0.091459 0.335565 0.164420
0.092485 0.336147 0.164889
0.093349 0.336183 0.165015
0.093064 0.333507 0.163491
0.107516 0.327156 0.156719
0.371993 0.333448 0.077266
0.684439 0.415622 0.007004
0.867241 0.397412 0.009321
0.945901 0.357875 0.067406
0.952203 0.335226 0.120997
0.958143 0.320665 0.149100
0.961981 0.311156 0.165284
0.962144 0.306066 0.175412
0.962136 0.302852 0.180537
0.962103 0.297761 0.182845
0.125379 0.421537 0.218248
0.126157 0.422169 0.219316
0.127114 0.422773 0.220002
0.127984 0.423186 0.220382
0.128250 0.421540 0.219438
0.127737 0.417669 0.216682
0.162509 0.407618 0.200305
0.456044 0.420517 0.105986
0.771356 0.516205 0.013775
0.936863 0.506549 0.001660
0.955389 0.478671 0.056347
0.960641 0.459717 0.099372
0.963717 0.445576 0.123530
0.963730 0.436367 0.138620
0.963746 0.429039 0.145705
0.963640 0.420626 0.149427
0.154653 0.499729 0.275141
0.155534 0.499977 0.275882
0.156411 0.500341 0.276276
0.157240 0.500537 0.276524
0.157571 0.499175 0.275653
0.157237 0.496130 0.273214
0.157106 0.491846 0.269816
0.231640 0.467519 0.225179
0.537376 0.502142 0.137012
0.860231 0.616788 0.029380
0.956886 0.618615 0.003826
0.964713 0.604177 0.041835
0.968002 0.591551 0.072505
0.968044 0.582393 0.089356
0.967689 0.574928 0.098331
0.967281 0.565277 0.102128
0.183307 0.573541 0.337040
0.184321 0.573671 0.337698
0.185267 0.573993 0.338014
0.186082 0.574039 0.338010
0.186471 0.572770 0.336903
0.186324 0.570272 0.334537
0.185652 0.566536 0.331048
0.186914 0.562309 0.326895
0.292107 0.526125 0.250970
0.617229 0.586643 0.183450
0.900199 0.709562 0.087217
0.957663 0.722164 0.038768
0.968906 0.717765 0.036264
0.971771 0.714458 0.048458
0.973307 0.711306 0.054173
0.973748 0.705322 0.064784
0.212598 0.635208 0.395434
0.213660 0.635581 0.396235
0.214625 0.636050 0.396844
0.215607 0.636412 0.397317
0.216108 0.635764 0.396643
0.216010 0.633849 0.394730
0.215457 0.631190 0.391878
0.214439 0.627396 0.388118
0.225667 0.621115 0.378142
0.394603 0.574155 0.253671
0.696936 0.666070 0.249624
0.902377 0.768589 0.199269
0.938930 0.782944 0.168578
0.952220 0.786248 0.150269
0.964804 0.789065 0.133092
0.975127 0.790223 0.112590
0.229150 0.664295 0.425060
0.230799 0.665726 0.426982
0.231937 0.666430 0.427861
0.233129 0.667086 0.428549
0.234287 0.667840 0.429385
0.235190 0.668022 0.429477
0.235951 0.667972 0.429214
0.236247 0.667028 0.428276
0.236578 0.665328 0.426244
0.301223 0.643408 0.371606
0.524234 0.637008 0.282494
0.770521 0.733952 0.320630
0.895637 0.800823 0.293798
0.917081 0.811429 0.278287
0.932364 0.818119 0.264170
0.947609 0.824096 0.247732
0.234112 0.672553 0.433661
0.235740 0.673988 0.435560
0.236878 0.674715 0.436349
0.238091 0.675490 0.437128
0.239233 0.676027 0.437791
0.240102 0.676188 0.437941
0.240868 0.676132 0.437792
0.241588 0.675929 0.437557
0.242275 0.675735 0.437101
0.265135 0.672396 0.425222
0.432157 0.631649 0.297787
0.671813 0.701317 0.331386
0.829355 0.777929 0.357244
0.895642 0.816755 0.342757
0.912248 0.826634 0.335809
0.925811 0.834254 0.328257
0.239232 0.680705 0.442060
0.240861 0.682104 0.443952
0.241985 0.682748 0.444756
0.243151 0.683417 0.445453
0.244227 0.683994 0.446137
0.245052 0.684195 0.446121
0.245820 0.684087 0.446039
0.246428 0.683911 0.445686
0.247029 0.683614 0.445357
0.254677 0.683668 0.443463
0.385695 0.641819 0.327533
0.609082 0.683442 0.323708
0.784251 0.758617 0.368833
0.869985 0.806611 0.366738
0.906543 0.828627 0.355638
0.919817 0.836468 0.349825
0.244317 0.688679 0.450409
0.245933 0.690104 0.452315
0.247028 0.690846 0.453052
0.248201 0.691416 0.453761
0.249212 0.691997 0.454418
0.250001 0.692025 0.454495
0.250771 0.691979 0.454283
0.251422 0.691720 0.454050
0.251946 0.691528 0.453571
0.256676 0.691611 0.452413
0.351649 0.660739 0.367795
0.561469 0.674848 0.320497
0.745837 0.745323 0.372571
0.843740 0.796253 0.385547
0.895287 0.826741 0.375641
0.914572 0.838080 0.368061
0.249156 0.696433 0.458202
0.250766 0.697840 0.460216
0.251827 0.698443 0.461023
0.252946 0.699034 0.461665
0.253970 0.699493 0.462298
0.254781 0.699591 0.462397
0.255447 0.699500 0.462154
0.256070 0.699350 0.461917
0.256588 0.699010 0.461445
0.258625 0.698452 0.460536
0.321670 0.681740 0.409641
0.515933 0.669223 0.320125
0.709107 0.734749 0.371576
0.822688 0.789557 0.398048
0.878667 0.821328 0.395096
0.909500 0.839818 0.386463
0.000870 0.006582 0.017744
0.003130 0.006458 0.017761
0.033507 0.006426 0.020146
0.163981 0.001741 0.032120
0.380546 0.000000 0.034488
0.590163 0.000000 0.020273
0.741517 0.000000 0.033801
0.855442 0.000000 0.058647
0.927916 0.000000 0.104003
0.934621 0.000000 0.142123
0.939075 0.000000 0.167104
0.943483 0.000000 0.185355
0.946972 0.000000 0.197867
0.948285 0.000000 0.205942
0.949673 0.000000 0.210723
0.951047 0.000000 0.212882
0.000920 0.007288 0.016571
0.002967 0.007323 0.016856
0.029675 0.007303 0.019032
0.150182 0.003973 0.030347
0.358703 0.000000 0.031508
0.565883 0.000000 0.014531
0.720229 0.000000 0.025945
0.834796 0.000000 0.049756
0.922160 0.000000 0.087960
0.934837 0.000000 0.130033
0.939294 0.000000 0.156498
0.943925 0.000000 0.174822
0.947432 0.000000 0.187674
0.948583 0.000000 0.195932
0.950115 0.000000 0.200637
0.951490 0.000000 0.202923
0.001046 0.022361 0.019272
0.002422 0.022586 0.019745
0.019339 0.022211 0.022262
0.151090 0.026260 0.035732
0.364406 0.000581 0.035590
0.573112 0.000000 0.021514
0.728931 0.000000 0.031852
0.846272 0.000000 0.056869
0.926997 0.000000 0.097367
0.935024 0.000000 0.139909
0.939348 0.000000 0.165459
0.943905 0.000000 0.183921
0.947220 0.000000 0.196586
0.948577 0.000000 0.204643
0.949867 0.000000 0.208234
0.951251 0.000000 0.209827
0.001692 0.070144 0.027021
0.002910 0.070171 0.027269
0.004083 0.070313 0.028474
0.082978 0.075006 0.030055
0.344356 0.083510 0.050302
0.568805 0.040649 0.052016
0.724141 0.000000 0.055225
0.840740 0.000000 0.070888
0.927279 0.000000 0.096393
0.935233 0.000000 0.135631
0.939497 0.000000 0.161602
0.944034 0.000000 0.179311
0.947675 0.000000 0.191381
0.948850 0.000000 0.199382
0.950262 0.000000 0.202911
0.951503 0.000000 0.204567
0.014164 0.142988 0.060964
0.015352 0.143831 0.061969
0.016455 0.144373 0.062669
0.017606 0.142798 0.061497
0.172382 0.143214 0.031057
0.503209 0.184577 0.054263
0.687387 0.165418 0.070246
0.819770 0.143603 0.090434
0.928546 0.091184 0.111361
0.945017 0.041216 0.148787
0.945753 0.000875 0.170772
0.944267 0.000000 0.182022
0.947184 0.000000 0.190057
0.948539 0.000000 0.197257
0.949986 0.000000 0.201325
0.951404 0.000000 0.203343
0.043752 0.240177 0.111424
0.044959 0.240951 0.112403
0.046146 0.242008 0.113530
0.046983 0.241538 0.113498
0.046458 0.237832 0.111812
0.280821 0.240779 0.057321
0.599360 0.310210 0.040219
0.776725 0.286829 0.070888
0.911394 0.251254 0.092234
0.946363 0.245613 0.135313
0.952150 0.242288 0.166341
0.957666 0.232591 0.186757
0.961371 0.220162 0.200140
0.961538 0.209535 0.208599
0.961594 0.197885 0.213174
0.961722 0.182232 0.214898
0.088498 0.336497 0.167283
0.089537 0.337389 0.168265
0.090604 0.338761 0.169587
0.091427 0.338841 0.169753
0.091120 0.336148 0.168215
0.107396 0.330461 0.161981
0.373976 0.335764 0.083244
0.686076 0.416601 0.018293
0.867805 0.398345 0.038666
0.946528 0.362004 0.093951
0.952567 0.343522 0.142764
0.958197 0.333917 0.167189
0.962355 0.330217 0.181744
0.962321 0.329224 0.190069
0.962349 0.327879 0.194279
0.962327 0.324386 0.196133
0.123690 0.423466 0.222622
0.124594 0.424166 0.223578
0.125638 0.425411 0.225024
0.126479 0.425773 0.225440
0.126759 0.424157 0.224531
0.126370 0.420900 0.222352
0.163359 0.411313 0.206125
0.457333 0.422453 0.111834
0.772099 0.516885 0.017912
0.937937 0.506527 0.016238
0.955932 0.479469 0.085277
0.960649 0.461967 0.124478
0.964058 0.449188 0.146524
0.963981 0.440669 0.158814
0.963923 0.434463 0.165723
0.963661 0.426852 0.169457
0.153798 0.501816 0.279865
0.154747 0.502024 0.280422
0.155791 0.503027 0.281709
0.156573 0.503198 0.281989
0.156889 0.501862 0.281147
0.156726 0.499447 0.279398
0.156811 0.495533 0.276215
0.233916 0.471089 0.231196
0.538191 0.503682 0.142606
0.860307 0.617484 0.034568
0.957895 0.619418 0.017619
0.965110 0.604851 0.068447
0.968266 0.592139 0.097920
0.967973 0.583212 0.114744
0.967819 0.575979 0.122214
0.967502 0.566483 0.125360
0.183337 0.575419 0.341686
0.184371 0.575500 0.342165
0.185554 0.576391 0.343333
0.186312 0.576423 0.343361
0.186642 0.575220 0.342359
0.186599 0.573306 0.340587
0.185926 0.569806 0.337354
0.187466 0.565702 0.333322
0.295288 0.529112 0.256477
0.618325 0.588145 0.188806
0.900119 0.710203 0.094383
0.958608 0.723004 0.045865
0.969229 0.718854 0.055354
0.972011 0.715994 0.071099
0.973343 0.712701 0.079115
0.973682 0.706908 0.091463
0.213256 0.637099 0.400009
0.214332 0.637349 0.400739
0.215703 0.638476 0.402350
0.216699 0.638820 0.402825
0.217174 0.638151 0.402223
0.217380 0.636911 0.401049
0.216910 0.634446 0.398434
0.215823 0.630777 0.394676
0.227539 0.624447 0.384583
0.398293 0.576911 0.258852
0.697465 0.667113 0.254868
0.902708 0.769393 0.206619
0.939648 0.783770 0.175868
0.952896 0.787095 0.157508
0.964728 0.790086 0.140691
0.975082 0.791065 0.120285
0.230006 0.666367 0.429852
0.231597 0.667746 0.431540
0.233192 0.669075 0.433394
0.234318 0.669869 0.434259
0.235511 0.670522 0.435140
0.236740 0.671286 0.435842
0.237581 0.671481 0.435981
0.237884 0.670485 0.434972
0.238245 0.668814 0.433130
0.304273 0.646481 0.377888
0.526897 0.639150 0.287514
0.770880 0.734960 0.326384
0.896341 0.802006 0.300514
0.917938 0.812510 0.285236
0.933364 0.819274 0.271110
0.948513 0.825192 0.254774
0.234945 0.674607 0.438390
0.236587 0.676028 0.440116
0.238161 0.677342 0.441968
0.239301 0.678019 0.442717
0.240455 0.678784 0.443564
0.241630 0.679432 0.444469
0.242574 0.679618 0.444512
0.243204 0.679422 0.444303
0.243941 0.679304 0.444032
0.267210 0.675758 0.432155
0.435390 0.634547 0.303521
0.672252 0.702680 0.336324
0.829875 0.779124 0.363061
0.896716 0.817925 0.348835
0.913446 0.827781 0.341890
0.927226 0.835552 0.334254
0.240101 0.682819 0.446748
0.241640 0.684092 0.448424
0.243202 0.685450 0.450310
0.244317 0.686185 0.451140
0.245387 0.686679 0.451825
0.246552 0.687315 0.452532
0.247414 0.687578 0.452734
0.248085 0.687299 0.452470
0.248736 0.687211 0.452245
0.256755 0.687277 0.450282
0.388697 0.645133 0.334226
0.610526 0.685341 0.328744
0.785040 0.759856 0.374248
0.870947 0.807700 0.372757
0.907858 0.829911 0.361492
0.921215 0.837748 0.355724
0.245122 0.690663 0.455055
0.246721 0.692061 0.456724
0.248245 0.693448 0.458713
0.249357 0.694168 0.459485
0.250397 0.694665 0.460216
0.251479 0.695282 0.460762
0.252351 0.695419 0.460907
0.252956 0.695267 0.460687
0.253561 0.694928 0.460383
0.258470 0.695042 0.459141
0.354413 0.664181 0.374756
0.563254 0.676949 0.325622
0.746720 0.746594 0.377393
0.845170 0.797630 0.390630
0.896630 0.827811 0.381168
0.916141 0.839582 0.373424
0.249960 0.698381 0.462972
0.251569 0.699741 0.464700
0.253104 0.701034 0.466670
0.254102 0.701738 0.467351
0.255160 0.702347 0.468065
0.256212 0.702803 0.468750
0.257010 0.702808 0.468813
0.257603 0.702780 0.468562
0.258254 0.702476 0.468258
0.260267 0.701924 0.467269
0.324715 0.685043 0.416265
0.518057 0.671640 0.325532
0.710146 0.736238 0.376431
0.824201 0.790881 0.402977
0.880072 0.822729 0.400260
0.910931 0.841107 0.391830
0.000506 0.027410 0.077180
0.001611 0.027171 0.077016
0.024865 0.026411 0.081155
0.143733 0.018918 0.089014
0.384355 0.000000 0.092820
0.603409 0.000000 0.082141
0.747403 0.000000 0.094778
0.856366 0.000000 0.116486
0.927853 0.000000 0.147637
0.934223 0.000000 0.176419
0.938496 0.000000 0.197485
0.942692 0.000000 0.213921
0.946128 0.000000 0.225510
0.947417 0.000000 0.233053
0.948768 0.000000 0.237395
0.950308 0.000000 0.239086
0.000511 0.027218 0.073752
0.001544 0.027209 0.073928
0.023124 0.026946 0.078923
0.132717 0.020509 0.086811
0.356716 0.000000 0.089682
0.575049 0.000000 0.079569
0.723701 0.000000 0.079778
0.833343 0.000000 0.089225
0.920817 0.000000 0.114321
0.934592 0.000000 0.147216
0.939221 0.000000 0.169931
0.943663 0.000000 0.187042
0.947202 0.000000 0.198711
0.948308 0.000000 0.206544
0.949591 0.000000 0.210955
0.950985 0.000000 0.212909
0.000539 0.032148 0.071853
0.001087 0.032447 0.072461
0.013702 0.033717 0.078233
0.124469 0.026186 0.087435
0.351147 0.000000 0.088995
0.570983 0.000000 0.073612
0.721838 0.000000 0.070514
0.833000 0.000000 0.087534
0.921272 0.000000 0.118672
0.934743 0.000000 0.153334
0.939459 0.000000 0.176115
0.943558 0.000000 0.193122
0.946985 0.000000 0.204987
0.948261 0.000000 0.212955
0.949610 0.000000 0.217660
0.950970 0.000000 0.219777
0.000668 0.084700 0.083426
0.001065 0.084996 0.083911
0.001965 0.085766 0.085177
0.066865 0.097685 0.107177
0.346683 0.095911 0.112557
0.576156 0.063993 0.110555
0.725007 0.024585 0.112678
0.840034 0.001363 0.128420
0.926835 0.000000 0.142785
0.934599 0.000000 0.171041
0.939098 0.000000 0.191578
0.943193 0.000000 0.207985
0.946745 0.000000 0.219855
0.947875 0.000000 0.227728
0.949195 0.000000 0.231737
0.950535 0.000000 0.233694
0.004473 0.153979 0.093383
0.005208 0.155382 0.095216
0.005537 0.157316 0.098480
0.004471 0.159950 0.106076
0.197216 0.178471 0.117472
0.517421 0.197997 0.119889
0.685487 0.196274 0.131092
0.818677 0.176900 0.143822
0.929242 0.132951 0.161078
0.947397 0.110600 0.191652
0.951514 0.092067 0.211020
0.955094 0.081589 0.224740
0.957380 0.074757 0.233992
0.957489 0.070855 0.239777
0.958282 0.069270 0.242932
0.959148 0.065629 0.243936
0.040884 0.240519 0.114709
0.042151 0.241329 0.115668
0.043430 0.242398 0.116759
0.041450 0.245886 0.123187
0.039134 0.245096 0.126144
0.302934 0.265193 0.111186
0.609226 0.317832 0.119552
0.774548 0.301273 0.133140
0.908180 0.285861 0.142445
0.946932 0.278660 0.175105
0.952709 0.267448 0.202637
0.958111 0.254611 0.221443
0.961786 0.242183 0.233945
0.961873 0.233214 0.241633
0.961922 0.225012 0.245522
0.961982 0.215382 0.246900
0.085917 0.337320 0.170625
0.087023 0.338251 0.171574
0.088147 0.339536 0.172797
0.088991 0.340179 0.173601
0.088628 0.337376 0.172061
0.107520 0.332649 0.166745
0.383348 0.344090 0.107173
0.691594 0.422495 0.103443
0.868357 0.401138 0.112891
0.947660 0.373792 0.146547
0.953314 0.368556 0.180314
0.959150 0.368729 0.198245
0.962912 0.369026 0.209902
0.963116 0.368598 0.217409
0.963077 0.366703 0.221585
0.963100 0.362420 0.223523
0.121644 0.424773 0.226574
0.122606 0.425473 0.227496
0.123667 0.426730 0.228826
0.124546 0.427544 0.229840
0.124760 0.425919 0.228919
0.124326 0.422678 0.226743
0.164129 0.413960 0.211113
0.459957 0.424870 0.121826
