public/kits/editing-mini-guide/luts/cinematic-v1-log-37.cube
LUT_3D_SIZE 16
0.000000 -0.000711 0.000000
-0.013414 -0.000816 0.000000
0.013589 -0.001122 -0.000037
0.057713 -0.001392 0.000307
0.103475 -0.001459 -0.000026
0.159577 -0.001391 0.000173
0.226320 -0.001302 -0.000010
0.302781 -0.001191 -0.000623
0.382081 -0.001057 0.000768
0.465040 -0.000920 0.002658
0.551279 -0.000769 0.003628
0.631267 -0.000605 0.003807
0.706642 -0.000447 0.003187
0.779866 -0.000285 0.002078
0.853024 -0.000135 -0.000621
0.939459 -0.000018 -0.000403
-0.000255 -0.017504 0.000000
-0.014061 -0.017147 0.000000
0.012517 -0.015732 -0.000030
0.057724 -0.014230 0.000273
0.103594 -0.015012 -0.000023
0.160163 -0.016907 0.000167
0.227239 -0.018365 -0.000009
0.303996 -0.019303 -0.000514
0.384867 -0.019689 0.000727
0.468427 -0.019581 0.002274
0.555001 -0.019076 0.003120
0.635217 -0.018212 0.003305
0.711042 -0.017160 0.002846
0.785074 -0.015949 0.001870
0.858741 -0.014498 -0.000381
0.944729 -0.013208 -0.000339
0.000592 0.022070 0.000000
-0.015793 0.022573 0.000000
0.022270 0.012058 -0.000017
0.057030 -0.019233 -0.000023
0.101471 0.022816 -0.000018
0.152386 0.032722 -0.000008
0.212871 0.035031 -0.000005
0.282676 0.036237 -0.000304
0.361655 0.034329 -0.000765
0.447355 0.030655 -0.001252
0.537961 0.025834 -0.001589
0.625005 0.016942 -0.001669
0.704447 -0.006594 -0.001479
0.782478 -0.017974 -0.001085
0.859855 -0.022827 -0.000612
0.956101 -0.027706 -0.000204
0.000716 0.072525 0.000000
-0.017209 0.072670 0.000000
0.024317 0.073428 0.000000
0.080926 0.067253 0.000000
0.100343 0.036052 0.000000
0.152003 0.052075 0.000000
0.209804 0.063743 0.000000
0.274553 0.071201 -0.000003
0.347739 0.077915 -0.000015
0.426004 0.084340 0.000196
0.509711 0.087494 0.000191
0.591746 0.087999 0.000191
0.668014 0.086366 0.000191
0.741717 0.082465 0.000191
0.812819 0.078664 0.000187
0.895383 0.073842 0.000177
0.001810 0.129395 0.000000
-0.017603 0.129593 0.000000
-0.012749 0.128191 0.000000
0.089558 0.130643 0.000000
0.138679 0.117251 0.000000
0.154750 0.077514 0.000000
0.216240 0.085546 0.000000
0.281237 0.099286 0.000000
0.352855 0.107626 -0.000013
0.429505 0.114441 0.000198
0.512211 0.119988 0.000192
0.593097 0.125090 0.000191
0.668805 0.129550 0.000191
0.741650 0.133583 0.000191
0.812990 0.136665 0.000191
0.894384 0.134769 0.000191
0.005410 0.198058 0.000000
-0.017950 0.198324 0.000000
-0.009840 0.196427 0.000000
0.083258 0.196526 0.000000
0.164386 0.201310 0.000000
0.212740 0.180412 0.000000
0.220684 0.128177 0.000000
0.292945 0.129018 0.000000
0.366649 0.140715 -0.000009
0.444165 0.150379 -0.000009
0.527842 0.156720 0.000194
0.608329 0.161308 0.000191
0.684258 0.165687 0.000191
0.758194 0.169340 0.000191
0.830677 0.172805 0.000191
0.914143 0.175233 0.000191
0.007717 0.279327 0.000000
-0.019027 0.279451 0.000000
0.025034 0.276444 0.000000
0.080232 0.275762 0.000000
0.157851 0.277207 0.000000
0.255921 0.286134 0.000000
0.297873 0.252836 0.000000
0.297549 0.187263 0.000000
0.379437 0.185482 -0.000004
0.460525 0.186264 -0.000013
0.544258 0.198662 0.000196
0.624601 0.204932 0.000191
0.702115 0.208816 0.000191
0.778539 0.211801 0.000191
0.854595 0.214037 0.000191
0.943528 0.215635 0.000191
0.017661 0.364009 0.000000
-0.014926 0.363734 0.000000
0.035621 0.365127 0.000000
0.079491 0.364461 0.000000
0.154504 0.365194 0.000000
0.245128 0.369940 0.000000
0.359829 0.382613 0.000000
0.394361 0.335415 0.000000
0.388005 0.259740 -0.000002
0.480201 0.256135 -0.000013
0.569184 0.243035 0.000198
0.649223 0.250823 0.000193
0.724044 0.257687 0.000191
0.798095 0.261303 0.000191
0.872201 0.263901 0.000191
0.968767 0.263572 0.000191
0.028160 0.453498 0.000000
0.017644 0.452902 0.000000
0.048944 0.457176 0.000000
0.082913 0.458214 0.000000
0.153988 0.460186 0.000000
0.241493 0.464511 0.000000
0.347488 0.472987 0.000000
0.472287 0.484588 0.000000
0.505994 0.429375 0.000000
0.497629 0.342403 -0.000008
0.585610 0.330471 -0.000015
0.669982 0.314100 0.000185
0.745794 0.304352 0.000193
0.820340 0.311230 0.000191
0.896316 0.314802 -0.000410
0.997546 0.314831 -0.000648
0.036185 0.546529 0.000000
0.028756 0.545614 0.000000
0.056679 0.551900 0.000000
0.089314 0.554414 0.000000
0.152064 0.556827 0.000000
0.237704 0.561959 0.000000
0.337228 0.569398 0.000000
0.458934 0.580088 0.000000
0.593678 0.593371 0.000000
0.614553 0.525160 0.000000
0.597793 0.424275 -0.000007
0.674361 0.401726 -0.000015
0.756105 0.384035 0.000192
0.832973 0.362321 0.000193
0.911360 0.362627 -0.000805
1.012374 0.365319 0.001394
0.042870 0.630397 0.000000
0.036991 0.629181 0.000000
0.061045 0.638196 0.000000
0.094751 0.641590 0.000000
0.146584 0.644671 0.000000
0.230054 0.650747 0.000000
0.327181 0.658318 0.000000
0.439848 0.666889 0.000000
0.576757 0.678383 0.000000
0.702090 0.688808 0.000000
0.706135 0.609574 0.000000
0.686365 0.505651 -0.000008
0.748323 0.470538 -0.000015
0.831696 0.451076 0.000186
0.912427 0.423978 -0.000927
1.010512 0.406060 0.002363
0.047170 0.709310 0.000000
0.042062 0.707744 0.000000
0.064273 0.717702 0.000000
0.097187 0.722889 0.000000
0.141212 0.726740 0.000000
0.220182 0.733359 0.000000
0.314915 0.741532 0.000000
0.423216 0.750636 0.000000
0.551100 0.759739 0.000000
0.686950 0.771000 0.000000
0.796977 0.773499 0.000000
0.786635 0.679968 0.000000
0.765619 0.580466 -0.000007
0.812175 0.534107 -0.000014
0.899358 0.516075 -0.000652
1.011438 0.482874 -0.001030
0.051192 0.783949 0.000000
0.046749 0.782378 0.000000
0.067144 0.794230 0.000000
0.097645 0.800874 0.000000
0.135967 0.805795 0.000000
0.208575 0.813788 0.000000
0.300748 0.822492 0.000000
0.405744 0.832217 0.000000
0.529482 0.841627 0.000000
0.657247 0.850460 0.000000
0.792881 0.860601 0.000000
0.887120 0.849076 0.000000
0.869875 0.748475 0.000000
0.844284 0.648062 -0.000007
0.874752 0.591480 -0.000013
0.995448 0.568738 0.000172
0.055480 0.868704 0.000000
0.051638 0.866843 0.000000
0.069445 0.882336 0.000000
0.099793 0.889471 0.000000
0.137652 0.895994 0.000000
0.198393 0.906428 0.000000
0.285334 0.919065 0.000000
0.385978 0.931897 0.000000
0.505309 0.943895 0.000000
0.631370 0.954997 0.000000
0.755379 0.963280 0.000000
0.897279 0.974409 -0.000377
0.991800 0.943651 -0.000547
0.979719 0.838045 -0.000492
0.951810 0.738107 -0.000270
0.974343 0.656798 -0.000009
0.056192 0.883345 0.000000
0.052491 0.881255 0.000000
0.070077 0.897352 0.000000
0.100499 0.904569 0.000000
0.138379 0.911822 0.000000
0.196278 0.922581 0.000000
0.282152 0.936378 0.000000
0.379910 0.951085 0.000000
0.497696 0.964346 0.000000
0.623385 0.976927 0.000000
0.744580 0.985739 0.000000
0.877091 0.994463 -0.000541
1.004544 0.980389 0.001433
1.007886 0.875031 0.000958
0.999076 0.783715 -0.000463
0.985267 0.696775 0.000000
0.059609 0.956557 -0.001700
0.056938 0.955048 -0.001906
0.074432 0.971101 -0.002305
0.104297 0.979363 -0.002565
0.142288 0.987373 -0.002663
0.199485 0.998265 -0.002722
0.286040 1.012347 -0.002752
0.385512 1.027483 -0.002927
0.505705 1.041661 -0.003463
0.634431 1.054896 -0.004099
0.759383 1.064896 -0.004489
0.892038 1.072066 -0.004520
1.026705 1.063680 -0.004119
1.031455 0.957327 -0.003387
1.015148 0.859316 -0.002841
0.993803 0.754660 -0.002239
-0.026094 -0.417786 0.003221
-0.029895 -0.419293 0.003119
-0.032212 -0.423332 0.004726
0.044622 -0.427695 0.005138
0.094441 -0.431682 0.005237
0.149509 -0.436607 0.005378
0.212886 -0.442622 0.005426
0.284103 -0.449040 0.005261
0.356437 -0.455195 0.006483
0.431307 -0.460662 0.008057
0.509103 -0.464796 0.008908
0.579394 -0.465435 0.008922
0.652689 -0.452647 0.008158
0.736842 -0.419867 0.006768
0.827214 -0.377508 0.005125
0.926394 -0.345108 0.003756
-0.000167 -0.017598 0.002884
-0.014067 -0.017379 0.002977
0.011004 -0.016207 0.002904
0.057857 -0.014448 0.002625
0.103847 -0.014538 0.002750
0.160215 -0.015938 0.003022
0.227154 -0.016970 0.003254
0.303661 -0.017523 0.003250
0.383890 -0.017642 0.004604
0.467094 -0.017401 0.006226
0.553231 -0.016826 0.007183
0.633164 -0.015924 0.007416
0.708646 -0.014811 0.006965
0.781856 -0.013537 0.005942
0.855334 -0.012356 0.004596
0.942853 -0.011754 0.003593
0.000444 0.022206 0.004231
-0.015201 0.021757 0.002856
0.020631 0.017355 -0.001837
0.062323 -0.021511 -0.001646
0.108884 0.019672 -0.001676
0.162053 0.028981 -0.001779
0.224438 0.030087 -0.001883
0.295882 0.029412 -0.002136
0.376128 0.025867 -0.002709
0.462846 0.020390 -0.003356
0.553468 0.010983 -0.003785
0.639950 -0.016615 -0.003889
0.720607 -0.021911 -0.003671
0.800568 -0.025435 -0.003194
0.883056 -0.027971 -0.002709
0.974890 -0.027359 0.002357
-0.000341 0.073030 0.004538
-0.015701 0.072457 0.002907
-0.005014 0.077044 -0.001606
0.080885 0.068439 -0.000259
0.101574 0.033741 -0.000005
0.155538 0.051637 0.000000
0.215281 0.063446 0.000000
0.282177 0.070719 -0.000004
0.356896 0.077105 -0.000015
0.436752 0.082162 0.000196
0.521729 0.084510 0.000191
0.603538 0.083876 0.000191
0.680484 0.081490 0.000191
0.754918 0.077513 0.000191
0.827813 0.073717 -0.000763
0.916599 0.068711 -0.001206
0.000820 0.130805 0.003930
-0.015783 0.129978 0.002579
-0.022432 0.131862 -0.001439
0.085136 0.132385 0.000000
0.139832 0.119266 0.000000
0.155767 0.076327 0.000000
0.218849 0.085053 0.000000
0.285822 0.099268 0.000000
0.359340 0.107445 -0.000013
0.437516 0.114208 0.000198
0.521553 0.119670 0.000192
0.602400 0.124735 0.000191
0.678513 0.129147 0.000191
0.752111 0.132253 0.000191
0.824557 0.134292 0.000190
0.910205 0.131302 0.000188
0.003172 0.201237 0.002915
-0.016477 0.200025 0.002045
-0.018795 0.200913 -0.001142
0.077394 0.199122 0.000000
0.161183 0.202919 0.000000
0.213963 0.182105 0.000000
0.222245 0.127746 0.000000
0.296319 0.128950 0.000000
0.371682 0.141292 -0.000010
0.450887 0.150759 0.000134
0.535361 0.156977 0.000194
0.616069 0.161351 0.000191
0.692136 0.165459 0.000191
0.766290 0.169135 0.000191
0.839307 0.172569 0.000191
0.925758 0.174803 0.000191
0.003505 0.285231 0.001190
-0.018087 0.283339 0.000791
0.018928 0.281985 -0.000736
0.074613 0.279900 0.000000
0.153742 0.280338 0.000000
0.253842 0.288585 0.000000
0.301299 0.257098 0.000000
0.301403 0.189062 0.000000
0.384998 0.186295 -0.000005
0.468148 0.187833 -0.000013
0.552521 0.199662 0.000196
0.632865 0.205593 0.000191
0.710108 0.209180 0.000191
0.785956 0.212015 0.000191
0.861992 0.214331 -0.000109
0.953104 0.215790 -0.000175
0.011664 0.374104 -0.000730
-0.017197 0.371190 -0.000580
0.031767 0.371522 -0.000327
0.074637 0.369841 0.000000
0.150297 0.369698 0.000000
0.242510 0.374138 0.000000
0.360265 0.386899 0.000000
0.400390 0.341869 0.000000
0.394482 0.263242 -0.000002
0.487512 0.257742 -0.000013
0.576561 0.243789 0.000198
0.656763 0.252030 0.000193
0.732058 0.258478 0.000191
0.806301 0.261639 0.000191
0.881766 0.263971 -0.000599
0.980368 0.263815 -0.000844
0.022281 0.465685 0.000000
0.008604 0.462374 0.000000
0.044427 0.465347 0.000000
0.079747 0.465188 0.000000
0.149250 0.466289 0.000000
0.237997 0.470231 0.000000
0.345957 0.479114 0.000000
0.475593 0.492457 0.000000
0.513552 0.437168 0.000000
0.503845 0.346191 -0.000008
0.592054 0.332611 -0.000015
0.676402 0.314785 0.000192
0.752788 0.305829 0.000193
0.827976 0.312293 0.000191
0.906211 0.315393 -0.001358
1.000212 0.315983 0.001673
0.030230 0.558804 0.000000
0.022676 0.555596 0.000000
0.052404 0.559841 0.000000
0.086590 0.561439 0.000000
0.146889 0.562700 0.000000
0.233360 0.567628 0.000000
0.334233 0.575393 0.000000
0.457797 0.586534 0.000000
0.597189 0.600418 0.000000
0.621224 0.532826 0.000000
0.603428 0.428513 -0.000008
0.680088 0.404329 -0.000015
0.762243 0.385205 0.000192
0.839331 0.363175 0.000193
0.921137 0.363887 -0.002007
1.011279 0.366505 0.004098
0.037806 0.640647 0.000000
0.032084 0.638021 0.000000
0.057778 0.644354 0.000000
0.092444 0.647074 0.000000
0.142545 0.648805 0.000000
0.225412 0.654672 0.000000
0.322897 0.662558 0.000000
0.436621 0.671982 0.000000
0.575778 0.684034 0.000000
0.706129 0.695995 0.000000
0.712115 0.616518 0.000000
0.691565 0.510157 -0.000008
0.753620 0.473272 -0.000015
0.837447 0.452551 0.000186
0.921024 0.424710 -0.002075
1.010251 0.407172 0.004727
0.043746 0.716474 0.000000
0.038780 0.714037 0.000000
0.062539 0.720867 0.000000
0.095718 0.726216 0.000000
0.138258 0.729720 0.000000
0.215479 0.736273 0.000000
0.310262 0.743942 0.000000
0.418773 0.753211 0.000000
0.547558 0.762900 0.000000
0.685046 0.774626 0.000000
0.799879 0.778676 0.000000
0.791889 0.686315 0.000000
0.770426 0.584636 -0.000007
0.816964 0.536875 -0.000014
0.906381 0.517925 -0.001462
1.010971 0.482577 0.001282
0.049596 0.787467 0.000000
0.045381 0.785168 0.000000
0.065696 0.797134 0.000000
0.095888 0.804204 0.000000
0.134133 0.809211 0.000000
0.203601 0.816521 0.000000
0.295705 0.825347 0.000000
0.401037 0.834745 0.000000
0.524890 0.844004 0.000000
0.653647 0.852759 0.000000
0.789618 0.862454 0.000000
0.889221 0.853632 -0.000070
0.872699 0.752321 -0.000095
0.846847 0.650744 -0.000074
0.877702 0.593299 -0.000559
0.999016 0.569753 -0.000805
0.055655 0.870403 0.000000
0.052139 0.868026 0.000000
0.068135 0.885975 0.000000
0.097333 0.893906 0.000000
0.134911 0.900569 0.000000
0.192615 0.910450 0.000000
0.279658 0.922862 0.000000
0.380684 0.935454 0.000000
0.499978 0.947395 0.000000
0.627258 0.958680 0.000000
0.751865 0.966645 -0.000037
0.894334 0.977801 -0.000529
0.993018 0.948026 -0.000776
0.983079 0.841544 -0.000794
0.953991 0.740432 -0.000499
0.976595 0.658308 -0.000165
0.056168 0.885152 0.000000
0.052814 0.882629 0.000000
0.068739 0.901224 0.000000
0.097782 0.909109 0.000000
0.135462 0.916907 0.000000
0.190396 0.927138 0.000000
0.276232 0.940652 0.000000
0.374698 0.954723 0.000000
0.492322 0.968439 0.000000
0.618988 0.981009 0.000000
0.741089 0.990492 -0.000057
0.873713 0.997802 -0.000751
1.004056 0.983401 0.001927
1.007430 0.876881 0.001731
1.000398 0.785690 -0.000767
0.987886 0.698168 -0.000139
0.059586 0.958351 -0.019991
0.057163 0.956806 -0.019857
0.073068 0.974963 -0.019811
0.101518 0.984060 -0.020384
0.139036 0.992419 -0.021406
0.193538 1.002265 -0.022522
0.280061 1.016656 -0.023568
0.380237 1.031567 -0.024487
0.500236 1.045748 -0.025397
0.630125 1.059131 -0.026265
0.756127 1.069400 -0.026788
0.888967 1.075878 -0.026771
1.026236 1.067366 -0.026243
1.031883 0.959787 -0.025353
1.017333 0.861528 -0.024293
0.997521 0.756403 -0.023338
-0.026082 -0.418604 0.037831
-0.029569 -0.420340 0.037901
-0.032974 -0.424893 0.036411
0.046685 -0.429673 0.038476
0.094689 -0.433817 0.040411
0.148088 -0.438663 0.042814
0.209324 -0.444529 0.044881
0.278260 -0.450867 0.046517
0.352103 -0.457021 0.048152
0.426197 -0.462511 0.050179
0.503585 -0.466629 0.051317
0.573800 -0.467138 0.051179
0.646435 -0.454127 0.050031
0.730667 -0.421048 0.048257
0.820321 -0.378473 0.046154
0.918547 -0.345947 0.043334
-0.000356 -0.016777 0.035851
-0.012913 -0.017351 0.035762
-0.012970 -0.017573 0.035691
0.057574 -0.014405 0.036777
0.100435 -0.010597 0.038336
0.153260 -0.007663 0.040679
0.216945 -0.005440 0.042766
0.290419 -0.004029 0.044404
0.370755 -0.003203 0.046070
0.452679 -0.002472 0.048150
0.538308 -0.001725 0.049365
0.618010 -0.001116 0.049453
0.693230 -0.000834 0.048701
0.765607 -0.000822 0.047113
0.838855 -0.004952 0.044531
0.929422 -0.007791 0.040903
0.000927 0.025955 0.033462
-0.011829 0.023098 0.033408
-0.019304 0.018621 0.038515
0.071969 -0.027908 0.033123
0.135646 -0.027781 0.023837
0.205335 -0.027909 0.016138
0.283386 -0.029156 0.004490
0.364108 -0.028732 -0.012262
0.450604 -0.027381 -0.015224
0.544866 -0.025446 -0.017275
0.635132 -0.023218 -0.019381
0.718838 -0.021166 -0.018821
0.797081 -0.019633 -0.015614
0.877381 -0.018580 -0.003797
0.971766 -0.020912 0.011295
1.017418 -0.013103 0.039495
-0.000356 0.074284 0.032974
-0.008820 0.070202 0.033122
-0.031237 0.088007 0.026486
0.062822 0.075605 0.024070
0.117133 0.038304 0.019307
0.186469 0.053085 0.013724
0.260098 0.058292 0.010652
0.340349 0.055828 0.008033
0.428689 0.048701 0.004491
0.526551 0.039227 -0.006317
0.623357 0.024436 -0.008234
0.712195 -0.016123 -0.008639
0.792247 -0.022334 -0.009375
0.873787 -0.025274 -0.010538
0.969900 -0.029980 -0.016042
1.006227 0.043849 0.015080
0.000000 0.132215 0.035848
-0.005297 0.126696 0.036654
-0.029448 0.160657 0.017456
0.024585 0.151025 0.015251
0.154023 0.148880 0.016028
0.180595 0.080607 0.014255
0.256870 0.092390 0.010882
0.337745 0.103900 0.008283
0.424919 0.107837 0.005956
0.521088 0.109793 0.003130
0.616685 0.107774 -0.002525
0.699539 0.107230 -0.000951
0.776715 0.102301 -0.000012
0.854879 0.096909 -0.000531
0.949194 0.088777 -0.008211
1.006615 0.101422 0.012019
0.000000 0.204919 0.037243
-0.003996 0.198439 0.038359
-0.026406 0.242937 0.008278
-0.026706 0.232317 0.012032
0.131473 0.232527 0.012242
0.241153 0.222692 0.013067
0.255684 0.141606 0.013101
0.342094 0.137534 0.010013
0.431261 0.152178 0.007290
0.528058 0.156331 0.004482
0.623250 0.156854 -0.002514
0.709564 0.157166 -0.001633
0.786055 0.159527 -0.000276
0.864306 0.161761 -0.000757
0.957070 0.161087 -0.008875
1.006105 0.175214 0.014359
0.000000 0.292031 0.036172
-0.004280 0.285266 0.037264
-0.025182 0.335440 -0.007510
0.014368 0.324644 0.010527
0.109283 0.323386 0.010386
0.238169 0.328588 0.011127
0.344020 0.309994 0.012554
0.344314 0.214452 0.013496
0.440891 0.198718 0.010327
0.541297 0.205721 0.007253
0.635385 0.210533 0.003603
0.726940 0.209959 -0.003017
0.805907 0.209686 -0.001192
0.886491 0.209637 -0.002011
0.980938 0.210266 -0.012301
1.003835 0.228569 0.021204
0.000000 0.392141 0.031481
-0.004932 0.385290 0.032542
-0.024609 0.437586 -0.010643
0.032412 0.427494 0.008918
0.099867 0.425556 0.008827
0.213046 0.428329 0.009373
0.359744 0.438549 0.010740
0.459011 0.408026 0.012312
0.448434 0.297319 0.013942
0.552244 0.275113 0.010722
0.649679 0.263332 0.007156
0.740534 0.268412 0.002230
0.829337 0.267918 -0.002364
0.915303 0.265866 -0.004287
1.001529 0.266882 -0.015736
1.002157 0.282842 0.030584
0.000000 0.506112 0.025112
-0.005436 0.499868 0.026015
-0.024038 0.549837 -0.010930
0.038957 0.541930 0.006374
0.094631 0.540018 0.006127
0.196959 0.542721 0.006772
0.327062 0.549139 0.008056
0.496561 0.563711 0.009911
0.585261 0.516448 0.011501
0.562405 0.387144 0.013406
0.656837 0.357517 0.010047
0.751932 0.327748 0.005694
0.844255 0.326570 -0.002380
0.944772 0.326346 -0.006627
1.003379 0.327994 -0.014797
1.000833 0.337921 0.039430
-0.000391 0.614701 0.018559
-0.006102 0.609013 0.019277
-0.023822 0.655738 -0.010476
0.039566 0.650393 -0.002246
0.093368 0.648899 -0.002177
0.181022 0.651392 -0.001030
0.303014 0.656586 0.003150
0.452144 0.664533 0.005249
0.634573 0.679532 0.007144
0.699487 0.620136 0.008632
0.666643 0.480955 0.010517
0.751268 0.439310 0.007118
0.849440 0.405797 0.001913
0.960884 0.382749 -0.008010
1.005771 0.384443 -0.012176
1.000440 0.389080 0.044449
-0.001941 0.709396 0.011559
-0.008150 0.704618 0.012158
-0.022699 0.745661 -0.007580
0.041989 0.741772 -0.001611
0.094967 0.740100 -0.001493
0.166108 0.745260 -0.001853
0.281034 0.754719 -0.002562
0.417857 0.764419 -0.003301
0.586825 0.774710 -0.003403
0.763560 0.787861 0.000983
0.803738 0.711513 0.002685
0.768492 0.574382 0.005028
0.840546 0.521430 0.000704
0.956776 0.484879 -0.007930
1.005099 0.440389 -0.013048
1.000474 0.432312 0.044314
0.003186 0.791522 0.006570
-0.011069 0.787507 0.007077
-0.015907 0.817270 -0.004626
0.050641 0.815993 -0.000122
0.100461 0.815539 0.000000
0.159418 0.820714 -0.000058
0.261335 0.831523 -0.000310
0.386181 0.844874 -0.000772
0.539718 0.858854 -0.001410
0.707112 0.873550 -0.001984
0.885766 0.892330 -0.002423
0.903118 0.791540 -0.002514
0.870186 0.660832 -0.002034
0.928060 0.593451 -0.006545
1.001395 0.548255 -0.015591
1.000902 0.491938 0.039877
0.006228 0.871569 -0.003212
-0.014336 0.868920 -0.002423
0.020682 0.884061 -0.002366
0.058190 0.887359 -0.000305
0.104734 0.889169 -0.000744
0.156128 0.896325 -0.001520
0.244766 0.910018 -0.002777
0.360577 0.928291 -0.004538
0.500617 0.948452 -0.006567
0.654995 0.967379 -0.008423
0.813317 0.977840 -0.009629
0.986688 0.981763 -0.010486
0.989666 0.853351 -0.010886
0.964814 0.731590 -0.011550
0.991498 0.648904 -0.017768
1.001213 0.582958 0.032330
0.017755 0.960867 -0.001244
-0.004918 0.958544 -0.001096
0.037948 0.967328 -0.000881
0.068623 0.977089 -0.001208
0.111734 0.978860 -0.001772
0.161225 0.982951 -0.002082
0.234722 0.991759 0.002115
0.340519 0.999339 0.006051
0.461423 1.001838 0.010632
0.594355 1.002451 0.014906
0.720692 1.002729 0.017709
0.862742 1.009593 0.017879
1.004197 0.991872 0.021067
1.004741 0.877997 0.021200
0.999436 0.779736 0.014058
1.000292 0.682346 0.021501
0.023071 0.970362 0.000776
0.014506 0.968161 0.000785
0.041643 0.982953 -0.001000
0.073466 0.984371 0.002073
0.115818 0.985102 0.003051
0.165483 0.986929 0.004854
0.234914 0.990225 0.008064
0.338196 0.994944 0.012253
0.453526 0.999498 0.016862
0.582338 0.998587 0.021844
0.704528 0.998493 0.025007
0.829566 1.000020 0.025530
0.984634 1.003576 0.026227
1.004506 0.901062 0.029351
1.000238 0.806480 0.026046
1.000113 0.720597 0.022465
0.025139 1.047291 -0.043687
0.019390 1.046249 -0.042895
0.043658 1.063699 -0.041536
0.074096 1.065941 -0.041718
0.115240 1.067572 -0.043473
0.164642 1.069727 -0.045488
0.233932 1.073881 -0.047294
0.339723 1.079219 -0.048450
0.458395 1.084332 -0.048730
0.591322 1.084051 -0.047761
0.718483 1.084041 -0.046379
0.847351 1.084764 -0.045603
1.001052 1.086342 -0.044584
1.033897 0.988987 -0.039612
1.021545 0.886051 -0.040817
1.014810 0.781785 -0.042307
-0.010936 -0.457913 0.082985
-0.016236 -0.459583 0.083477
-0.028499 -0.463215 0.075423
0.055950 -0.465687 0.078279
0.102502 -0.466674 0.082093
0.155485 -0.467819 0.086419
0.216352 -0.469557 0.090711
0.283883 -0.471633 0.094361
0.357309 -0.473233 0.097374
0.431853 -0.473796 0.099829
0.509125 -0.473789 0.101018
0.578708 -0.473139 0.100568
0.648087 -0.462369 0.098943
0.728058 -0.431854 0.096770
0.815636 -0.389731 0.093964
0.909839 -0.356873 0.091019
-0.000385 -0.017999 0.077526
-0.010030 -0.018879 0.077894
-0.025275 -0.020664 0.071959
0.057756 -0.015112 0.074284
0.102296 -0.009829 0.077232
0.153731 -0.007045 0.081617
0.215974 -0.004869 0.086273
0.287800 -0.003476 0.090184
0.367324 -0.002603 0.093427
0.449389 -0.001772 0.096072
0.534720 -0.000963 0.097571
0.614623 -0.000320 0.097431
0.689765 0.000000 0.096170
0.762046 -0.000236 0.093896
0.835196 -0.004523 0.090341
0.922415 -0.007144 0.086104
-0.000760 0.043293 0.074020
-0.010882 0.042415 0.072498
-0.015766 0.038255 0.093560
0.055236 -0.029994 0.094370
0.135983 -0.030478 0.092294
0.205267 -0.029894 0.083364
0.283453 -0.028559 0.076961
0.363585 -0.026508 0.072368
0.450373 -0.024452 0.069121
0.545628 -0.022205 0.066437
0.636694 -0.019504 0.063128
0.719027 -0.016297 0.061922
0.794778 -0.012808 0.063527
0.872352 -0.010087 0.065964
0.965635 -0.016442 0.066621
1.016742 -0.013523 0.085899
0.002778 0.077330 0.071988
-0.010112 0.075915 0.070690
-0.018280 0.080809 0.078891
0.051963 0.072223 0.077181
0.108811 0.060875 0.075471
0.174830 0.053752 0.068489
0.248336 0.046612 0.063941
0.329483 0.036872 0.060105
0.418700 0.026119 0.056248
0.517797 0.010339 0.051958
0.617058 -0.022047 0.046610
0.713297 -0.029055 0.039849
0.809216 -0.032258 0.031272
0.915902 -0.033943 0.017200
1.019079 -0.037101 0.008174
1.001973 0.047473 0.064050
-0.000983 0.131397 0.070713
-0.008176 0.128324 0.070216
-0.021687 0.144282 0.071598
0.037604 0.140374 0.072016
0.108837 0.136106 0.069588
0.171142 0.106888 0.067416
0.245100 0.115333 0.061793
0.325872 0.118716 0.057685
0.413254 0.116336 0.053867
0.510570 0.106491 0.049737
0.607868 0.095824 0.044907
0.701570 0.083679 0.039213
0.793290 0.070857 0.032974
0.893164 0.055651 0.025196
1.012223 0.039745 0.006891
1.000155 0.097600 0.057581
-0.000284 0.205429 0.075549
-0.005850 0.200512 0.075810
-0.022339 0.232002 0.070283
0.031917 0.222666 0.068749
0.086057 0.216574 0.063868
0.213241 0.223357 0.065992
0.246067 0.156694 0.065639
0.330225 0.162243 0.060766
0.419468 0.173115 0.056544
0.517287 0.175867 0.052336
0.614555 0.175769 0.047437
0.708039 0.171270 0.041547
0.799691 0.164935 0.035247
0.900705 0.149735 0.027186
1.013033 0.138079 0.017445
1.000124 0.170690 0.060830
0.000000 0.291807 0.077494
-0.004378 0.285440 0.078265
-0.022411 0.332523 0.066905
0.032395 0.315522 0.066001
0.084251 0.308542 0.061143
